;FLAVOR:Marlin
;TIME:10016
;Filament used: 11.7232m
;Layer height: 0.32
;MINX:97.7
;MINY:92.331
;MINZ:0.12
;MAXX:127.3
;MAXY:142.669
;MAXZ:60.16
;Generated with Cura_SteamEngine 4.12.1
M82 ;absolute extrusion mode
; Ender 3 Custom Start G-code
G92 E0 ; Reset Extruder
M900 K0.55
M140 S60 ; Нагреваем стол до заданной температуры.
M104 S200 T0 ; Нагреваем ХОТЕНД до заданной температуры.
M190 S60 ; Ждем нагрева стола.
M109 S200 T0 ; Ждем нагрева ХОТЕНДА. 
G28 ; Home all axes
G1 Z2.0 F3000 ; Move Z Axis up little to prevent scratching of Heat Bed
G1 X0.1 Y20 Z0.3 F5000.0 ; Move to start position
G1 X0.1 Y200.0 Z0.3 F1500.0 E15 ; Draw the first line
G1 X0.4 Y200.0 Z0.3 F5000.0 ; Move to side a little
G1 X0.4 Y20 Z0.3 F1500.0 E30 ; Draw the second line
G92 E0 ; Reset Extruder
G1 Z2.0 F3000 ; Move Z Axis up little to prevent scratching of Heat Bed
G1 X5 Y20 Z0.3 F5000.0 ; Move over to prevent blob squish
G92 E0
G92 E0
G1 F1500 E-6.5
;LAYER_COUNT:188
;LAYER:0
M107
G1 F300 Z0.32
;MESH:?????????????? ?????? ?????????????????? ??????????????.stl
G0 F6000 X111.953 Y141.627 Z0.32
;TYPE:WALL-INNER
G1 F300 Z0.12
G1 F1500 E0
G1 F1200 X113.243 Y141.471 E0.02593
G1 X114.106 Y141.366 E0.04328
G1 X115.89 Y140.134 E0.08655
G1 X116.898 Y138.215 E0.1298
G1 X116.898 Y136.046 E0.17309
G1 X115.89 Y134.127 E0.21635
G1 X114.106 Y132.895 E0.25961
G1 X111.953 Y132.634 E0.30289
G1 X109.927 Y133.402 E0.34613
G1 X108.489 Y135.026 E0.38942
G1 X107.97 Y137.131 E0.43268
G1 X108.489 Y139.235 E0.47593
G1 X109.927 Y140.859 E0.51922
G1 X111.553 Y141.476 E0.55392
G1 X111.953 Y141.627 E0.56246
G0 F6000 X112.003 Y141.218
G1 F1200 X113.96 Y140.981 E0.60179
G1 X115.582 Y139.861 E0.64113
G1 X116.498 Y138.116 E0.68046
G1 X116.498 Y136.145 E0.71979
G1 X115.582 Y134.4 E0.75912
G1 X113.96 Y133.28 E0.79846
G1 X112.003 Y133.043 E0.8378
G1 X110.161 Y133.741 E0.87711
G1 X108.854 Y135.217 E0.91645
G1 X108.382 Y137.131 E0.95579
G1 X108.854 Y139.044 E0.99511
G1 X110.161 Y140.52 E1.03446
G1 X112.003 Y141.218 E1.07377
G0 F6000 X112.053 Y140.809
;TYPE:WALL-OUTER
G1 F1200 X113.814 Y140.596 E1.10916
G1 X115.274 Y139.588 E1.14457
G1 X116.098 Y138.017 E1.17997
G1 X116.098 Y136.244 E1.21535
G1 X115.274 Y134.673 E1.25076
G1 X113.814 Y133.665 E1.28616
G1 X112.053 Y133.452 E1.32156
G1 X110.395 Y134.08 E1.35694
G1 X109.219 Y135.408 E1.39234
G1 X108.794 Y137.131 E1.42776
G1 X109.219 Y138.853 E1.46315
G1 X110.395 Y140.181 E1.49855
G1 X112.053 Y140.809 E1.53393
G0 F6000 X112 Y141.245
G1 F1500 E-4.96607
G1 F300 Z0.32
G0 F6000 X126.5 Y141.869 Z0.32
;TYPE:WALL-INNER
G1 F300 Z0.12
G1 F1500 E1.53393
G1 F1200 X113.252 Y141.869 E1.79831
G1 X111.953 Y141.869 E1.81914
G1 X111.525 Y141.869 E1.82603
G1 X98.5 Y141.869 E2.08596
G1 X98.5 Y99.131 E2.93884
G1 X109.5 Y99.131 E3.15836
G1 X109.5 Y94.131 E3.25814
G1 X106 Y94.131 E3.32799
G1 X106 Y93.131 E3.34794
G1 X119 Y93.131 E3.60737
G1 X119 Y94.131 E3.62733
G1 X115.5 Y94.131 E3.69717
G1 X115.5 Y99.131 E3.79695
G1 X126.5 Y99.131 E4.01647
G1 X126.5 Y141.869 E4.86935
G0 F6000 X126.9 Y142.269
G1 F1200 X98.1 Y142.269 E5.44409
G1 X98.1 Y98.731 E6.31294
G1 X109.1 Y98.731 E6.53245
G1 X109.1 Y94.531 E6.61627
G1 X105.6 Y94.531 E6.68612
G1 X105.6 Y92.731 E6.72204
G1 X119.4 Y92.731 E6.99743
G1 X119.4 Y94.531 E7.03335
G1 X115.9 Y94.531 E7.1032
G1 X115.9 Y98.731 E7.18701
G1 X126.9 Y98.731 E7.40653
G1 X126.9 Y142.269 E8.27538
G0 F6000 X127.3 Y142.669
;TYPE:WALL-OUTER
G1 F1200 X97.7 Y142.669 E8.86608
G1 X97.7 Y98.331 E9.75089
G1 X108.7 Y98.331 E9.97041
G1 X108.7 Y94.931 E10.03826
G1 X105.2 Y94.931 E10.1081
G1 X105.2 Y92.331 E10.15999
G1 X119.8 Y92.331 E10.45135
G1 X119.8 Y94.931 E10.50324
G1 X116.3 Y94.931 E10.57308
G1 X116.3 Y98.331 E10.64093
G1 X127.3 Y98.331 E10.86045
G1 X127.3 Y142.669 E11.74526
G1 F1500 E5.24526
G1 F300 Z0.32
G0 F6000 X126.11 Y141.479 Z0.32
;TYPE:SKIN
G1 F300 Z0.12
G1 F1500 E11.74526
G1 F1200 X114.629 Y141.479 E11.97438
G1 X116.19 Y140.401 E12.01224
G1 X117.288 Y138.311 E12.05935
G1 X117.288 Y135.95 E12.10647
G1 X116.19 Y133.86 E12.15358
G1 X114.248 Y132.519 E12.20068
G1 X111.904 Y132.236 E12.24779
G1 X109.699 Y133.071 E12.29484
G1 X108.134 Y134.839 E12.34196
G1 X107.568 Y137.131 E12.38908
G1 X108.134 Y139.422 E12.43617
G1 X109.699 Y141.19 E12.48329
G1 X110.462 Y141.479 E12.49957
G1 X98.89 Y141.479 E12.7305
G1 X98.89 Y99.521 E13.56782
G1 X109.89 Y99.521 E13.78734
G1 X109.89 Y93.741 E13.90269
G1 X106.39 Y93.741 E13.97253
G1 X106.39 Y93.521 E13.97692
G1 X118.61 Y93.521 E14.22079
G1 X118.61 Y93.741 E14.22518
G1 X115.11 Y93.741 E14.29502
G1 X115.11 Y99.521 E14.41037
G1 X126.11 Y99.521 E14.62988
G1 X126.11 Y141.479 E15.4672
G1 F1500 E8.9672
G1 F300 Z0.32
G0 F6000 X99.457 Y141.318 Z0.32
G1 F300 Z0.12
G1 F1500 E15.4672
G1 F1200 X99.05 Y140.91 E15.4787
G0 F6000 X99.05 Y140.345
G1 F1200 X100.023 Y141.318 E15.50616
G0 F6000 X100.588 Y141.318
G1 F1200 X99.05 Y139.779 E15.54958
G0 F6000 X99.05 Y139.213
G1 F1200 X101.154 Y141.318 E15.60898
G0 F6000 X101.72 Y141.318
G1 F1200 X99.05 Y138.648 E15.68433
G0 F6000 X99.05 Y138.082
G1 F1200 X102.285 Y141.318 E15.77564
G0 F6000 X102.851 Y141.318
G1 F1200 X99.05 Y137.516 E15.88293
G0 F6000 X99.05 Y136.951
G1 F1200 X103.417 Y141.318 E16.00617
G0 F6000 X103.982 Y141.318
G1 F1200 X99.05 Y136.385 E16.14538
G0 F6000 X99.05 Y135.819
G1 F1200 X104.548 Y141.318 E16.30056
G0 F6000 X105.114 Y141.318
G1 F1200 X99.05 Y135.253 E16.47171
G0 F6000 X99.05 Y134.688
G1 F1200 X105.679 Y141.318 E16.65881
G0 F6000 X106.245 Y141.318
G1 F1200 X99.05 Y134.122 E16.86188
G0 F6000 X99.05 Y133.556
G1 F1200 X106.811 Y141.318 E17.08093
G0 F6000 X107.376 Y141.318
G1 F1200 X99.05 Y132.991 E17.31592
G0 F6000 X99.05 Y132.425
G1 F1200 X107.942 Y141.318 E17.56689
G0 F6000 X108.508 Y141.318
G1 F1200 X99.05 Y131.859 E17.83383
G0 F6000 X99.05 Y131.294
G1 F1200 X109.074 Y141.318 E18.11673
G0 F6000 X109.286 Y140.965
G1 F1200 X99.05 Y130.728 E18.40562
G0 F6000 X99.05 Y130.162
G1 F1200 X107.859 Y138.971 E18.65423
G0 F6000 X107.673 Y138.22
G1 F1200 X99.05 Y129.597 E18.89759
G0 F6000 X99.05 Y129.031
G1 F1200 X107.487 Y137.468 E19.1357
G0 F6000 X107.465 Y136.881
G1 F1200 X99.05 Y128.465 E19.37321
G0 F6000 X99.05 Y127.9
G1 F1200 X107.577 Y136.427 E19.61386
G0 F6000 X107.689 Y135.973
G1 F1200 X99.05 Y127.334 E19.85767
G0 F6000 X99.05 Y126.768
G1 F1200 X107.801 Y135.519 E20.10464
G0 F6000 X107.913 Y135.066
G1 F1200 X99.05 Y126.203 E20.35477
G0 F6000 X99.05 Y125.637
G1 F1200 X108.076 Y134.663 E20.60951
G0 F6000 X108.341 Y134.363
G1 F1200 X99.05 Y125.071 E20.87173
G0 F6000 X99.05 Y124.505
G1 F1200 X108.607 Y134.063 E21.14147
G0 F6000 X108.873 Y133.763
G1 F1200 X99.05 Y123.94 E21.41869
G0 F6000 X99.05 Y123.374
G1 F1200 X109.138 Y133.462 E21.7034
G0 F6000 X109.404 Y133.163
G1 F1200 X99.05 Y122.808 E21.99562
G0 F6000 X99.05 Y122.243
G1 F1200 X109.703 Y132.896 E22.29627
G0 F6000 X110.113 Y132.74
G1 F1200 X99.05 Y121.677 E22.6085
G0 F6000 X99.05 Y121.111
G1 F1200 X110.524 Y132.586 E22.93233
G0 F6000 X110.934 Y132.43
G1 F1200 X99.05 Y120.546 E23.26772
G0 F6000 X99.05 Y119.98
G1 F1200 X111.345 Y132.275 E23.61471
G0 F6000 X111.755 Y132.12
G1 F1200 X99.05 Y119.414 E23.97329
G0 F6000 X99.05 Y118.849
G1 F1200 X112.326 Y132.125 E24.34797
G0 F6000 X112.969 Y132.202
G1 F1200 X99.05 Y118.283 E24.74079
G0 F6000 X99.05 Y117.717
G1 F1200 X113.612 Y132.28 E25.15178
G0 F6000 X114.255 Y132.357
G1 F1200 X99.05 Y117.152 E25.5809
G0 F6000 X99.05 Y116.586
G1 F1200 X115.989 Y133.525 E26.05895
G0 F6000 X116.425 Y133.961
G1 F1200 X123.781 Y141.318 E26.26657
G0 F6000 X123.216 Y141.318
G1 F1200 X117.05 Y135.152 E26.44058
G0 F6000 X117.448 Y136.115
G1 F1200 X122.65 Y141.318 E26.58741
G0 F6000 X122.084 Y141.318
G1 F1200 X117.448 Y136.681 E26.71826
G0 F6000 X117.448 Y137.247
G1 F1200 X121.519 Y141.318 E26.83316
G0 F6000 X120.953 Y141.318
G1 F1200 X117.448 Y137.812 E26.93209
G0 F6000 X117.438 Y138.368
G1 F1200 X120.387 Y141.318 E27.01533
G0 F6000 X119.822 Y141.318
G1 F1200 X117.243 Y138.739 E27.08811
G0 F6000 X117.048 Y139.109
G1 F1200 X119.256 Y141.318 E27.15044
G0 F6000 X118.69 Y141.318
G1 F1200 X116.853 Y139.481 E27.20229
G0 F6000 X116.658 Y139.851
G1 F1200 X118.125 Y141.318 E27.24369
G0 F6000 X117.559 Y141.318
G1 F1200 X116.463 Y140.222 E27.27462
G0 F6000 X116.237 Y140.562
G1 F1200 X116.993 Y141.318 E27.29596
G0 F6000 X116.427 Y141.318
G1 F1200 X115.903 Y140.793 E27.31076
G0 F6000 X115.568 Y141.024
G1 F1200 X115.862 Y141.318 E27.31906
G0 F6000 X115.296 Y141.318
G1 F1200 X115.234 Y141.255 E27.32082
G1 F1500 E20.82082
G1 F300 Z0.32
G0 F6000 X124.347 Y141.318 Z0.32
G1 F300 Z0.12
G1 F1500 E27.32082
G1 F1200 X99.05 Y116.02 E28.03477
G0 F6000 X99.05 Y115.454
G1 F1200 X124.913 Y141.318 E28.76469
G0 F6000 X125.478 Y141.318
G1 F1200 X99.05 Y114.889 E29.51056
G0 F6000 X99.05 Y114.323
G1 F1200 X125.949 Y141.223 E30.26973
G0 F6000 X125.949 Y140.657
G1 F1200 X99.05 Y113.757 E31.02889
G0 F6000 X99.05 Y113.192
G1 F1200 X125.949 Y140.091 E31.78804
G0 F6000 X125.949 Y139.526
G1 F1200 X99.05 Y112.626 E32.5472
G0 F6000 X99.05 Y112.06
G1 F1200 X125.949 Y138.96 E33.30636
G0 F6000 X125.949 Y138.394
G1 F1200 X99.05 Y111.495 E34.06551
G0 F6000 X99.05 Y110.929
G1 F1200 X125.949 Y137.829 E34.82467
G0 F6000 X125.949 Y137.263
G1 F1200 X99.05 Y110.363 E35.58383
G0 F6000 X99.05 Y109.798
G1 F1200 X125.949 Y136.697 E36.34298
G0 F6000 X125.949 Y136.132
G1 F1200 X99.05 Y109.232 E37.10214
G0 F6000 X99.05 Y108.666
G1 F1200 X125.949 Y135.566 E37.8613
G0 F6000 X125.949 Y135
G1 F1200 X99.05 Y108.101 E38.62045
G0 F6000 X99.05 Y107.535
G1 F1200 X125.949 Y134.435 E39.37961
G0 F6000 X125.949 Y133.869
G1 F1200 X99.05 Y106.969 E40.13877
G0 F6000 X99.05 Y106.404
G1 F1200 X125.949 Y133.303 E40.89792
G0 F6000 X125.949 Y132.738
G1 F1200 X99.05 Y105.838 E41.65708
G0 F6000 X99.05 Y105.272
G1 F1200 X125.949 Y132.172 E42.41625
G0 F6000 X125.949 Y131.606
G1 F1200 X99.05 Y104.706 E43.17541
G0 F6000 X99.05 Y104.141
G1 F1200 X125.949 Y131.041 E43.93457
G0 F6000 X125.949 Y130.475
G1 F1200 X99.05 Y103.575 E44.69373
G0 F6000 X99.05 Y103.009
G1 F1200 X125.949 Y129.909 E45.45289
G0 F6000 X125.949 Y129.343
G1 F1200 X99.05 Y102.444 E46.21204
G0 F6000 X99.05 Y101.878
G1 F1200 X125.949 Y128.778 E46.9712
G0 F6000 X125.949 Y128.212
G1 F1200 X99.05 Y101.312 E47.73037
G0 F6000 X99.05 Y100.747
G1 F1200 X125.949 Y127.646 E48.48951
G0 F6000 X125.949 Y127.081
G1 F1200 X99.05 Y100.181 E49.24868
G0 F6000 X99.115 Y99.681
G1 F1200 X125.949 Y126.515 E50.00599
G0 F6000 X125.949 Y125.949
G1 F1200 X99.681 Y99.681 E50.74733
G0 F6000 X100.247 Y99.681
G1 F1200 X125.949 Y125.384 E51.47271
G0 F6000 X125.949 Y124.818
G1 F1200 X100.812 Y99.681 E52.18213
G0 F6000 X101.378 Y99.681
G1 F1200 X125.949 Y124.252 E52.87558
G0 F6000 X125.949 Y123.687
G1 F1200 X101.944 Y99.681 E53.55306
G0 F6000 X102.509 Y99.681
G1 F1200 X125.949 Y123.121 E54.21459
G0 F6000 X125.949 Y122.555
G1 F1200 X103.075 Y99.681 E54.86015
G0 F6000 X103.641 Y99.681
G1 F1200 X125.949 Y121.99 E55.48974
G0 F6000 X125.949 Y121.424
G1 F1200 X104.207 Y99.681 E56.10336
G0 F6000 X104.772 Y99.681
G1 F1200 X125.949 Y120.858 E56.70102
G0 F6000 X125.949 Y120.293
G1 F1200 X105.338 Y99.681 E57.28272
G0 F6000 X105.904 Y99.681
G1 F1200 X125.949 Y119.727 E57.84845
G0 F6000 X125.949 Y119.161
G1 F1200 X106.469 Y99.681 E58.39822
G0 F6000 X107.035 Y99.681
G1 F1200 X125.949 Y118.595 E58.93201
G0 F6000 X125.949 Y118.03
G1 F1200 X107.601 Y99.681 E59.44984
G0 F6000 X108.166 Y99.681
G1 F1200 X125.949 Y117.464 E59.95172
G0 F6000 X125.949 Y116.898
G1 F1200 X108.732 Y99.681 E60.43762
G0 F6000 X109.298 Y99.681
G1 F1200 X125.949 Y116.333 E60.90756
G0 F6000 X125.949 Y115.767
G1 F1200 X109.863 Y99.681 E61.36154
G0 F6000 X110.049 Y99.301
G1 F1200 X125.949 Y115.201 E61.81028
G0 F6000 X125.949 Y114.636
G1 F1200 X110.049 Y98.735 E62.25902
G0 F6000 X110.049 Y98.169
G1 F1200 X125.949 Y114.07 E62.70777
G0 F6000 X125.949 Y113.504
G1 F1200 X110.049 Y97.604 E63.1565
G0 F6000 X110.049 Y97.038
G1 F1200 X125.949 Y112.939 E63.60525
G0 F6000 X125.949 Y112.373
G1 F1200 X110.049 Y96.472 E64.05399
G0 F6000 X110.049 Y95.907
G1 F1200 X125.949 Y111.807 E64.50273
G0 F6000 X125.949 Y111.242
G1 F1200 X110.049 Y95.341 E64.95147
G0 F6000 X110.049 Y94.775
G1 F1200 X114.949 Y99.675 E65.08976
G0 F6000 X114.955 Y99.681
G1 F1200 X125.949 Y110.676 E65.40005
G0 F6000 X125.949 Y110.11
G1 F1200 X115.52 Y99.681 E65.69438
G0 F6000 X116.086 Y99.681
G1 F1200 X125.949 Y109.544 E65.97273
G0 F6000 X125.949 Y108.979
G1 F1200 X116.652 Y99.681 E66.23513
G0 F6000 X117.217 Y99.681
G1 F1200 X125.949 Y108.413 E66.48157
G0 F6000 X125.949 Y107.847
G1 F1200 X117.783 Y99.681 E66.71203
G0 F6000 X118.349 Y99.681
G1 F1200 X125.949 Y107.282 E66.92653
G0 F6000 X125.949 Y106.716
G1 F1200 X118.914 Y99.681 E67.12507
G0 F6000 X119.48 Y99.681
G1 F1200 X125.949 Y106.15 E67.30764
G0 F6000 X125.949 Y105.585
G1 F1200 X120.046 Y99.681 E67.47425
G0 F6000 X120.611 Y99.681
G1 F1200 X125.949 Y105.019 E67.6249
G0 F6000 X125.949 Y104.453
G1 F1200 X121.177 Y99.681 E67.75958
G0 F6000 X121.743 Y99.681
G1 F1200 X125.949 Y103.888 E67.87829
G0 F6000 X125.949 Y103.322
G1 F1200 X122.308 Y99.681 E67.98105
G0 F6000 X122.874 Y99.681
G1 F1200 X125.949 Y102.756 E68.06783
G0 F6000 X125.949 Y102.191
G1 F1200 X123.44 Y99.681 E68.13866
G0 F6000 X124.006 Y99.681
G1 F1200 X125.949 Y101.625 E68.19351
G0 F6000 X125.949 Y101.059
G1 F1200 X124.571 Y99.681 E68.2324
G0 F6000 X125.137 Y99.681
G1 F1200 X125.949 Y100.494 E68.25533
G0 F6000 X125.949 Y99.928
G1 F1200 X125.703 Y99.681 E68.26228
G1 F1500 E61.76228
G1 F300 Z0.32
G0 F6000 X114.949 Y99.11 Z0.32
G1 F300 Z0.12
G1 F1500 E68.26228
G1 F1200 X110.049 Y94.209 E68.40059
G0 F6000 X110.085 Y93.681
G1 F1200 X114.949 Y98.544 E68.53785
G0 F6000 X114.949 Y97.978
G1 F1200 X110.651 Y93.681 E68.65913
G0 F6000 X111.217 Y93.681
G1 F1200 X114.949 Y97.413 E68.76446
G0 F6000 X114.949 Y96.847
G1 F1200 X111.782 Y93.681 E68.85382
G0 F6000 X112.348 Y93.681
G1 F1200 X114.949 Y96.281 E68.92721
G0 F6000 X114.949 Y95.716
G1 F1200 X112.914 Y93.681 E68.98465
G0 F6000 X113.48 Y93.681
G1 F1200 X114.949 Y95.15 E69.0261
G0 F6000 X114.949 Y94.584
G1 F1200 X114.045 Y93.681 E69.0516
G0 F6000 X114.611 Y93.681
G1 F1200 X114.949 Y94.019 E69.06114
G1 F1500 E62.56114
G1 F300 Z0.32
G0 F6000 X114.284 Y141.436 Z0.32
;TYPE:SKIN
G1 F300 Z0.12
G1 F1500 E69.06114
G1 F1200 X114.5 Y141.653 E69.0642
G0 F6000 X114.271 Y141.707
G1 F1200 X114.092 Y141.528 E69.06672
G0 F6000 X113.989 Y141.707
G1 F1200 X113.839 Y141.558 E69.06883
G0 F6000 X113.706 Y141.707
G1 F1200 X113.588 Y141.589 E69.0705
G0 F6000 X113.423 Y141.707
G1 F1200 X113.335 Y141.62 E69.07173
G1 F1500 E62.57173
G1 F300 Z0.32
G0 F6000 X111.443 Y141.707 Z0.32
G1 F300 Z0.12
G1 F1500 E69.07173
G1 F1200 X111.276 Y141.54 E69.07409
G0 F6000 X111.16 Y141.707
G1 F1200 X110.822 Y141.369 E69.07886
G0 F6000 X110.64 Y141.47
M104 S200
G1 F1200 X110.877 Y141.707 E69.0822
;MESH:NONMESH
G0 F300 X110.877 Y141.707 Z0.44
G0 F6000 X111.953 Y141.627
;TIME_ELAPSED:194.486972
;LAYER:1
M106 S51
;TYPE:WALL-INNER
;MESH:?????????????? ?????? ?????????????????? ??????????????.stl
G1 F1800 X113.243 Y141.471 E69.15135
G1 X114.106 Y141.366 E69.19762
G1 X115.89 Y140.134 E69.31299
G1 X116.898 Y138.215 E69.42834
G1 X116.898 Y136.046 E69.54377
G1 X115.89 Y134.127 E69.65912
G1 X114.106 Y132.895 E69.7745
G1 X111.953 Y132.634 E69.88991
G1 X109.927 Y133.402 E70.00522
G1 X108.489 Y135.026 E70.12065
G1 X107.97 Y137.131 E70.23602
G1 X108.489 Y139.235 E70.35135
G1 X109.927 Y140.859 E70.46678
G1 X111.553 Y141.476 E70.55933
G1 X111.953 Y141.627 E70.58208
G0 F9000 X112.003 Y141.218
G1 F1800 X113.96 Y140.981 E70.68699
G1 X115.582 Y139.861 E70.79188
G1 X116.498 Y138.116 E70.89676
G1 X116.498 Y136.145 E71.00165
G1 X115.582 Y134.4 E71.10653
G1 X113.96 Y133.28 E71.21143
G1 X112.003 Y133.043 E71.31633
G1 X110.161 Y133.741 E71.42116
G1 X108.854 Y135.217 E71.52607
G1 X108.382 Y137.131 E71.63098
G1 X108.854 Y139.044 E71.73584
G1 X110.161 Y140.52 E71.84075
G1 X112.003 Y141.218 E71.94558
G0 F9000 X112.053 Y140.809
;TYPE:WALL-OUTER
G1 F1800 X113.814 Y140.596 E72.03997
G1 X115.274 Y139.588 E72.13439
G1 X116.098 Y138.017 E72.22879
G1 X116.098 Y136.244 E72.32315
G1 X115.274 Y134.673 E72.41755
G1 X113.814 Y133.665 E72.51197
