;FLAVOR:Marlin
;TIME:1217
;Filament used: 1.48916m
;Layer height: 0.32
;MINX:112.45
;MINY:77.797
;MINZ:0.12
;MAXX:144.55
;MAXY:140.397
;MAXZ:3.84
;Generated with Cura_SteamEngine 4.12.1
M82 ;absolute extrusion mode
; Ender 3 Custom Start G-code
G92 E0 ; Reset Extruder
M900 K0.6
M140 S60 ; Нагреваем стол до заданной температуры.
M104 S200 T0 ; Нагреваем ХОТЕНД до заданной температуры.
M190 S60 ; Ждем нагрева стола.
M109 S200 T0 ; Ждем нагрева ХОТЕНДА. 
G28 ; Home all axes
G1 Z2.0 F3000 ; Move Z Axis up little to prevent scratching of Heat Bed
G1 X0.1 Y20 Z0.3 F5000.0 ; Move to start position
G1 X0.1 Y200.0 Z0.3 F1500.0 E15 ; Draw the first line
G1 X0.4 Y200.0 Z0.3 F5000.0 ; Move to side a little
G1 X0.4 Y20 Z0.3 F1500.0 E30 ; Draw the second line
G92 E0 ; Reset Extruder
G1 Z2.0 F3000 ; Move Z Axis up little to prevent scratching of Heat Bed
G1 X5 Y20 Z0.3 F5000.0 ; Move over to prevent blob squish
G92 E0
G92 E0
G1 F1500 E-6.5
;LAYER_COUNT:12
;LAYER:0
M107
M204 S500
G1 F300 Z0.32
;MESH:LOW_AKB_HOLES.stl
G0 F6000 X127.835 Y103.714 Z0.32
;TYPE:WALL-INNER
G1 F300 Z0.12
G1 F1500 E0
G1 F1200 X129.165 Y103.714 E0.02654
G1 X130.438 Y103.341 E0.05301
G1 X131.555 Y102.621 E0.07953
G1 X132.424 Y101.62 E0.10599
G1 X132.976 Y100.412 E0.13249
G1 X133.164 Y99.097 E0.159
G1 X132.976 Y97.782 E0.18551
G1 X132.424 Y96.574 E0.21201
G1 X131.555 Y95.573 E0.23847
G1 X130.438 Y94.853 E0.26499
G1 X129.165 Y94.48 E0.29146
G1 X127.835 Y94.48 E0.318
G1 X126.562 Y94.853 E0.34447
G1 X125.445 Y95.573 E0.371
G1 X124.576 Y96.574 E0.39745
G1 X124.024 Y97.782 E0.42395
G1 X123.836 Y99.097 E0.45046
G1 X124.024 Y100.412 E0.47697
G1 X124.576 Y101.62 E0.50348
G1 X125.445 Y102.621 E0.52993
G1 X126.562 Y103.341 E0.55645
G1 X127.835 Y103.714 E0.58292
G0 F6000 X127.892 Y103.314
G1 F1200 X129.108 Y103.314 E0.60719
G1 X130.27 Y102.973 E0.63136
G1 X131.29 Y102.316 E0.65557
G1 X132.084 Y101.401 E0.67974
G1 X132.588 Y100.298 E0.70394
G1 X132.76 Y99.097 E0.72816
G1 X132.588 Y97.896 E0.75237
G1 X132.084 Y96.793 E0.77657
G1 X131.29 Y95.878 E0.80074
G1 X130.27 Y95.221 E0.82496
G1 X129.108 Y94.88 E0.84912
G1 X127.892 Y94.88 E0.87339
G1 X126.73 Y95.221 E0.89756
G1 X125.71 Y95.878 E0.92177
G1 X124.916 Y96.793 E0.94595
G1 X124.412 Y97.896 E0.97015
G1 X124.24 Y99.097 E0.99436
G1 X124.412 Y100.298 E1.01857
G1 X124.916 Y101.401 E1.04277
G1 X125.71 Y102.316 E1.06695
G1 X126.73 Y102.973 E1.09116
G1 X127.892 Y103.314 E1.11533
G0 F6000 X127.95 Y102.914
G1 F1200 X129.05 Y102.914 E1.13728
G1 X130.102 Y102.605 E1.15916
G1 X131.025 Y102.011 E1.18106
G1 X131.744 Y101.182 E1.20296
G1 X132.2 Y100.184 E1.22486
G1 X132.356 Y99.097 E1.24677
G1 X132.2 Y98.01 E1.26869
G1 X131.744 Y97.012 E1.29058
G1 X131.025 Y96.183 E1.31248
G1 X130.102 Y95.589 E1.33439
G1 X129.05 Y95.28 E1.35627
G1 X127.95 Y95.28 E1.37822
G1 X126.898 Y95.589 E1.4001
G1 X125.975 Y96.183 E1.422
G1 X125.256 Y97.012 E1.4439
G1 X124.8 Y98.01 E1.4658
G1 X124.644 Y99.097 E1.48771
G1 X124.8 Y100.184 E1.50963
G1 X125.256 Y101.182 E1.53153
G1 X125.975 Y102.011 E1.55342
G1 X126.898 Y102.605 E1.57533
G1 X127.95 Y102.914 E1.59721
G0 F6000 X128.008 Y102.514
;TYPE:WALL-OUTER
G1 F1200 X128.992 Y102.514 E1.61685
G1 X129.934 Y102.237 E1.63644
G1 X130.76 Y101.706 E1.65604
G1 X131.404 Y100.963 E1.67566
G1 X131.812 Y100.07 E1.69525
G1 X131.952 Y99.097 E1.71487
G1 X131.812 Y98.124 E1.73449
G1 X131.404 Y97.231 E1.75408
G1 X130.76 Y96.488 E1.7737
G1 X129.934 Y95.957 E1.7933
G1 X128.992 Y95.68 E1.81289
G1 X128.008 Y95.68 E1.83253
G1 X127.066 Y95.957 E1.85212
G1 X126.24 Y96.488 E1.87172
G1 X125.596 Y97.231 E1.89134
G1 X125.188 Y98.124 E1.91093
G1 X125.048 Y99.097 E1.93055
G1 X125.188 Y100.07 E1.95017
G1 X125.596 Y100.963 E1.96976
G1 X126.24 Y101.706 E1.98938
G1 X127.066 Y102.237 E2.00898
G1 X128.008 Y102.514 E2.02857
G0 F6000 X127.946 Y102.949
G1 F1500 E-4.47143
G1 F300 Z0.32
G0 F6000 X127.835 Y123.714 Z0.32
;TYPE:WALL-INNER
G1 F300 Z0.12
G1 F1500 E2.02857
G1 F1200 X129.165 Y123.714 E2.05511
G1 X130.438 Y123.341 E2.08159
G1 X131.555 Y122.621 E2.10811
G1 X132.424 Y121.62 E2.13456
G1 X132.976 Y120.412 E2.16106
G1 X133.164 Y119.097 E2.18757
G1 X132.976 Y117.782 E2.21408
G1 X132.424 Y116.574 E2.24059
G1 X131.555 Y115.573 E2.26704
G1 X130.438 Y114.853 E2.29356
G1 X129.165 Y114.48 E2.32003
G1 X127.835 Y114.48 E2.34657
G1 X126.562 Y114.853 E2.37305
G1 X125.445 Y115.573 E2.39957
G1 X124.576 Y116.574 E2.42602
G1 X124.024 Y117.782 E2.45253
G1 X123.836 Y119.097 E2.47903
G1 X124.024 Y120.412 E2.50554
G1 X124.576 Y121.62 E2.53205
G1 X125.445 Y122.621 E2.5585
G1 X126.562 Y123.341 E2.58502
G1 X127.835 Y123.714 E2.61149
G0 F6000 X127.892 Y123.314
G1 F1200 X129.108 Y123.314 E2.63576
G1 X130.27 Y122.973 E2.65993
G1 X131.29 Y122.316 E2.68414
G1 X132.084 Y121.401 E2.70832
G1 X132.588 Y120.298 E2.73252
G1 X132.76 Y119.097 E2.75673
G1 X132.588 Y117.896 E2.78094
G1 X132.084 Y116.793 E2.80514
G1 X131.29 Y115.878 E2.82932
G1 X130.27 Y115.221 E2.85353
G1 X129.108 Y114.88 E2.8777
G1 X127.892 Y114.88 E2.90196
G1 X126.73 Y115.221 E2.92613
G1 X125.71 Y115.878 E2.95034
G1 X124.916 Y116.793 E2.97452
G1 X124.412 Y117.896 E2.99872
G1 X124.24 Y119.097 E3.02293
G1 X124.412 Y120.298 E3.04714
G1 X124.916 Y121.401 E3.07134
G1 X125.71 Y122.316 E3.09552
G1 X126.73 Y122.973 E3.11973
G1 X127.892 Y123.314 E3.1439
G0 F6000 X127.95 Y122.914
G1 F1200 X129.05 Y122.914 E3.16585
G1 X130.102 Y122.605 E3.18773
G1 X131.025 Y122.011 E3.20964
G1 X131.744 Y121.182 E3.23153
G1 X132.2 Y120.184 E3.25343
G1 X132.356 Y119.097 E3.27535
G1 X132.2 Y118.01 E3.29726
G1 X131.744 Y117.012 E3.31916
G1 X131.025 Y116.183 E3.34106
G1 X130.102 Y115.589 E3.36296
G1 X129.05 Y115.28 E3.38484
G1 X127.95 Y115.28 E3.40679
G1 X126.898 Y115.589 E3.42867
G1 X125.975 Y116.183 E3.45058
G1 X125.256 Y117.012 E3.47248
G1 X124.8 Y118.01 E3.49437
G1 X124.644 Y119.097 E3.51629
G1 X124.8 Y120.184 E3.5382
G1 X125.256 Y121.182 E3.5601
G1 X125.975 Y122.011 E3.582
G1 X126.898 Y122.605 E3.6039
G1 X127.95 Y122.914 E3.62578
G0 F6000 X128.008 Y122.514
;TYPE:WALL-OUTER
G1 F1200 X128.992 Y122.514 E3.64542
G1 X129.934 Y122.237 E3.66501
G1 X130.76 Y121.706 E3.68461
G1 X131.404 Y120.963 E3.70423
G1 X131.812 Y120.07 E3.72382
G1 X131.952 Y119.097 E3.74344
G1 X131.812 Y118.124 E3.76306
G1 X131.404 Y117.231 E3.78265
G1 X130.76 Y116.488 E3.80227
G1 X129.934 Y115.957 E3.82187
G1 X128.992 Y115.68 E3.84146
G1 X128.008 Y115.68 E3.8611
G1 X127.066 Y115.957 E3.88069
G1 X126.24 Y116.488 E3.90029
G1 X125.596 Y117.231 E3.91991
G1 X125.188 Y118.124 E3.93951
G1 X125.048 Y119.097 E3.95912
G1 X125.188 Y120.07 E3.97874
G1 X125.596 Y120.963 E3.99833
G1 X126.24 Y121.706 E4.01795
G1 X127.066 Y122.237 E4.03755
G1 X128.008 Y122.514 E4.05714
G0 F6000 X127.946 Y122.949
G1 F1500 E-2.44286
G1 F300 Z0.32
G0 F6000 X114.068 Y139.151 Z0.32
;TYPE:WALL-INNER
G1 F300 Z0.12
G1 F1500 E4.05714
G1 F1200 X113.908 Y139.069 E4.06073
G1 X113.778 Y138.939 E4.0644
G1 X113.696 Y138.779 E4.06799
G1 X113.65 Y138.488 E4.07387
G1 X113.65 Y79.706 E5.24693
G1 X113.696 Y79.415 E5.25281
G1 X113.778 Y79.255 E5.25639
G1 X113.908 Y79.125 E5.26006
G1 X114.068 Y79.043 E5.26365
G1 X114.359 Y78.997 E5.26953
G1 X142.641 Y78.997 E5.83393
G1 X142.932 Y79.043 E5.83981
G1 X143.092 Y79.125 E5.8434
G1 X143.222 Y79.255 E5.84706
G1 X143.304 Y79.415 E5.85065
G1 X143.35 Y79.706 E5.85653
G1 X143.35 Y138.488 E7.02959
G1 X143.304 Y138.779 E7.03547
G1 X143.222 Y138.939 E7.03906
G1 X143.092 Y139.069 E7.04273
G1 X142.932 Y139.151 E7.04631
G1 X142.641 Y139.197 E7.05219
G1 X114.359 Y139.197 E7.61659
G1 X114.068 Y139.151 E7.62247
G0 F6000 X113.943 Y139.536
G1 F1200 X113.669 Y139.396 E7.62861
G1 X113.451 Y139.178 E7.63476
G1 X113.311 Y138.904 E7.6409
G1 X113.25 Y138.518 E7.6487
G1 X113.25 Y79.676 E8.82296
G1 X113.311 Y79.29 E8.83076
G1 X113.451 Y79.016 E8.8369
G1 X113.669 Y78.798 E8.84305
G1 X113.943 Y78.658 E8.84919
G1 X114.329 Y78.597 E8.85699
G1 X142.671 Y78.597 E9.42258
G1 X143.057 Y78.658 E9.43038
G1 X143.331 Y78.798 E9.43652
G1 X143.549 Y79.016 E9.44268
G1 X143.689 Y79.29 E9.44882
G1 X143.75 Y79.676 E9.45661
G1 X143.75 Y138.518 E10.63087
G1 X143.689 Y138.904 E10.63867
G1 X143.549 Y139.178 E10.64481
G1 X143.331 Y139.396 E10.65096
G1 X143.057 Y139.536 E10.6571
G1 X142.671 Y139.597 E10.6649
G1 X114.329 Y139.597 E11.2305
G1 X113.943 Y139.536 E11.23829
G0 F6000 X113.818 Y139.921
G1 F1200 X113.43 Y139.723 E11.24699
G1 X113.124 Y139.417 E11.25562
G1 X112.926 Y139.029 E11.26432
G1 X112.85 Y138.548 E11.27403
G1 X112.85 Y79.646 E12.44949
G1 X112.926 Y79.165 E12.45921
G1 X113.124 Y78.777 E12.4679
G1 X113.43 Y78.471 E12.47653
G1 X113.818 Y78.273 E12.48523
G1 X114.299 Y78.197 E12.49494
G1 X142.701 Y78.197 E13.06174
G1 X143.182 Y78.273 E13.07146
G1 X143.57 Y78.471 E13.08015
G1 X143.876 Y78.777 E13.08878
G1 X144.074 Y79.165 E13.09748
G1 X144.15 Y79.646 E13.10719
G1 X144.15 Y138.548 E14.28265
G1 X144.074 Y139.029 E14.29237
G1 X143.876 Y139.417 E14.30106
G1 X143.57 Y139.723 E14.30969
G1 X143.182 Y139.921 E14.31839
G1 X142.701 Y139.997 E14.32811
G1 X114.299 Y139.997 E14.8949
G1 X113.818 Y139.921 E14.90462
G0 F6000 X113.693 Y140.306
;TYPE:WALL-OUTER
G1 F1200 X113.191 Y140.05 E14.91586
G1 X112.797 Y139.656 E14.92698
G1 X112.541 Y139.154 E14.93823
G1 X112.45 Y138.579 E14.94984
G1 X112.45 Y79.615 E16.12653
G1 X112.541 Y79.04 E16.13815
G1 X112.797 Y78.538 E16.1494
G1 X113.191 Y78.144 E16.16052
G1 X113.693 Y77.888 E16.17176
G1 X114.268 Y77.797 E16.18338
G1 X142.732 Y77.797 E16.75141
G1 X143.307 Y77.888 E16.76303
G1 X143.809 Y78.144 E16.77427
G1 X144.203 Y78.538 E16.78539
G1 X144.459 Y79.04 E16.79664
G1 X144.55 Y79.615 E16.80826
G1 X144.55 Y138.579 E17.98495
G1 X144.459 Y139.154 E17.99656
G1 X144.203 Y139.656 E18.00781
G1 X143.809 Y140.05 E18.01893
G1 X143.307 Y140.306 E18.03017
G1 X142.732 Y140.397 E18.04179
G1 X114.268 Y140.397 E18.60982
G1 X113.693 Y140.306 E18.62144
G0 F6000 X113.829 Y139.888
G0 X114.138 Y138.749
;TYPE:SKIN
G1 F1200 X114.072 Y138.659 E18.62367
G1 X114.04 Y138.453 E18.62783
G1 X114.04 Y79.741 E19.79949
G1 X114.098 Y79.485 E19.80473
G1 X114.188 Y79.419 E19.80695
G1 X114.394 Y79.387 E19.81111
G1 X142.606 Y79.387 E20.37411
G1 X142.862 Y79.445 E20.37935
G1 X142.928 Y79.535 E20.38158
G1 X142.96 Y79.741 E20.38574
G1 X142.96 Y138.453 E21.5574
G1 X142.902 Y138.709 E21.56264
G1 X142.812 Y138.775 E21.56487
G1 X142.606 Y138.807 E21.56903
G1 X114.394 Y138.807 E22.13203
G1 X114.138 Y138.749 E22.13727
G1 F1500 E15.63727
G1 F300 Z0.32
G0 F6000 X125.187 Y122.919 Z0.32
G1 F300 Z0.12
G1 F1500 E22.13727
G1 F1200 X126.398 Y123.7 E22.16602
G1 X127.779 Y124.104 E22.19474
G1 X129.221 Y124.104 E22.22351
G1 X130.602 Y123.7 E22.25223
G1 X131.813 Y122.919 E22.28099
G1 X132.755 Y121.833 E22.30967
G1 X133.354 Y120.523 E22.33842
G1 X133.558 Y119.097 E22.36717
G1 X133.354 Y117.671 E22.39591
G1 X132.755 Y116.361 E22.42466
G1 X131.813 Y115.275 E22.45335
G1 X130.602 Y114.494 E22.48211
G1 X129.221 Y114.09 E22.51082
G1 X127.779 Y114.09 E22.5396
G1 X126.398 Y114.494 E22.56831
G1 X125.187 Y115.275 E22.59707
G1 X124.245 Y116.361 E22.62576
G1 X123.646 Y117.671 E22.6545
G1 X123.442 Y119.097 E22.68325
G1 X123.646 Y120.523 E22.712
G1 X124.245 Y121.833 E22.74074
G1 X125.187 Y122.919 E22.76943
G1 F1500 E16.26943
G1 F300 Z0.32
G0 F6000 X126.398 Y103.7 Z0.32
G1 F300 Z0.12
G1 F1500 E22.76943
G1 F1200 X127.779 Y104.104 E22.79815
G1 X129.221 Y104.104 E22.82692
G1 X130.602 Y103.7 E22.85564
G1 X131.813 Y102.919 E22.88439
G1 X132.755 Y101.833 E22.91308
G1 X133.354 Y100.523 E22.94183
G1 X133.558 Y99.097 E22.97058
G1 X133.354 Y97.671 E22.99932
G1 X132.755 Y96.361 E23.02807
G1 X131.813 Y95.275 E23.05676
G1 X130.602 Y94.494 E23.08552
G1 X129.221 Y94.09 E23.11423
G1 X127.779 Y94.09 E23.14301
G1 X126.398 Y94.494 E23.17172
G1 X125.187 Y95.275 E23.20048
G1 X124.245 Y96.361 E23.22917
G1 X123.646 Y97.671 E23.25791
G1 X123.442 Y99.097 E23.28666
G1 X123.646 Y100.523 E23.31541
G1 X124.245 Y101.833 E23.34415
G1 X125.187 Y102.919 E23.37284
G1 X126.398 Y103.7 E23.4016
G1 F1500 E16.9016
G1 F300 Z0.32
G0 F6000 X142.799 Y80.008 Z0.32
G1 F300 Z0.12
G1 F1500 E23.4016
G1 F1200 X142.338 Y79.547 E23.41461
G0 F6000 X141.772 Y79.547
G1 F1200 X142.799 Y80.574 E23.44359
G0 F6000 X142.799 Y81.139
G1 F1200 X141.207 Y79.547 E23.48852
G0 F6000 X140.641 Y79.547
G1 F1200 X142.799 Y81.705 E23.54943
G0 F6000 X142.799 Y82.271
G1 F1200 X140.075 Y79.547 E23.6263
G0 F6000 X139.51 Y79.547
G1 F1200 X142.799 Y82.836 E23.71913
G0 F6000 X142.799 Y83.402
G1 F1200 X138.944 Y79.547 E23.82792
G0 F6000 X138.378 Y79.547
G1 F1200 X142.799 Y83.968 E23.95269
G0 F6000 X142.799 Y84.533
G1 F1200 X137.812 Y79.547 E24.09342
G0 F6000 X137.247 Y79.547
G1 F1200 X142.799 Y85.099 E24.25011
G0 F6000 X142.799 Y85.665
G1 F1200 X136.681 Y79.547 E24.42278
G0 F6000 X136.115 Y79.547
G1 F1200 X142.799 Y86.23 E24.6114
G0 F6000 X142.799 Y86.796
G1 F1200 X135.55 Y79.547 E24.81598
G0 F6000 X134.984 Y79.547
G1 F1200 X142.799 Y87.362 E25.03654
G0 F6000 X142.799 Y87.928
G1 F1200 X134.418 Y79.547 E25.27307
G0 F6000 X133.853 Y79.547
G1 F1200 X142.799 Y88.493 E25.52554
G0 F6000 X142.799 Y89.059
G1 F1200 X133.287 Y79.547 E25.79399
G0 F6000 X132.721 Y79.547
G1 F1200 X142.799 Y89.625 E26.07841
G0 F6000 X142.799 Y90.19
G1 F1200 X132.156 Y79.547 E26.37878
G0 F6000 X131.59 Y79.547
G1 F1200 X142.799 Y90.756 E26.69513
G0 F6000 X142.799 Y91.322
G1 F1200 X131.024 Y79.547 E27.02744
G0 F6000 X130.459 Y79.547
G1 F1200 X142.799 Y91.887 E27.3757
G0 F6000 X142.799 Y92.453
G1 F1200 X129.893 Y79.547 E27.73994
G0 F6000 X129.327 Y79.547
G1 F1200 X142.799 Y93.019 E28.12015
G0 F6000 X142.799 Y93.584
G1 F1200 X128.762 Y79.547 E28.5163
G0 F6000 X128.196 Y79.547
G1 F1200 X142.799 Y94.15 E28.92843
G0 F6000 X142.799 Y94.716
G1 F1200 X127.63 Y79.547 E29.35653
G0 F6000 X127.064 Y79.547
G1 F1200 X142.799 Y95.281 E29.80059
G0 F6000 X142.799 Y95.847
G1 F1200 X126.499 Y79.547 E30.26061
G0 F6000 X125.933 Y79.547
G1 F1200 X142.799 Y96.413 E30.73661
G0 F6000 X142.799 Y96.978
G1 F1200 X125.367 Y79.547 E31.22856
G0 F6000 X124.802 Y79.547
G1 F1200 X142.799 Y97.544 E31.73648
G0 F6000 X142.799 Y98.11
G1 F1200 X124.236 Y79.547 E32.26037
G0 F6000 X123.67 Y79.547
G1 F1200 X142.799 Y98.676 E32.80023
G0 F6000 X142.799 Y99.241
G1 F1200 X123.105 Y79.547 E33.35604
G0 F6000 X122.539 Y79.547
G1 F1200 X142.799 Y99.807 E33.92782
G0 F6000 X142.799 Y100.373
G1 F1200 X121.973 Y79.547 E34.51557
G0 F6000 X121.408 Y79.547
G1 F1200 X142.799 Y100.938 E35.11927
G0 F6000 X142.799 Y101.504
G1 F1200 X120.842 Y79.547 E35.73895
G0 F6000 X120.276 Y79.547
G1 F1200 X142.799 Y102.07 E36.37459
G0 F6000 X142.799 Y102.635
G1 F1200 X119.711 Y79.547 E37.02619
G0 F6000 X119.145 Y79.547
G1 F1200 X142.799 Y103.201 E37.69375
G0 F6000 X142.799 Y103.767
G1 F1200 X118.579 Y79.547 E38.37729
G0 F6000 X118.014 Y79.547
G1 F1200 X142.799 Y104.332 E39.07678
G0 F6000 X142.799 Y104.898
G1 F1200 X117.448 Y79.547 E39.79224
G0 F6000 X116.882 Y79.547
G1 F1200 X142.799 Y105.464 E40.52367
G0 F6000 X142.799 Y106.029
G1 F1200 X116.316 Y79.547 E41.27107
G0 F6000 X115.751 Y79.547
G1 F1200 X130.5 Y94.296 E41.68732
G0 F6000 X129.701 Y94.062
G1 F1200 X115.185 Y79.547 E42.09697
G0 F6000 X114.619 Y79.547
G1 F1200 X129.002 Y93.929 E42.50288
G0 F6000 X128.436 Y93.929
G1 F1200 X114.211 Y79.704 E42.90434
G0 F6000 X114.199 Y80.258
G1 F1200 X127.871 Y93.929 E43.29018
G0 F6000 X127.406 Y94.031
G1 F1200 X114.199 Y80.823 E43.66292
G0 F6000 X114.199 Y81.389
G1 F1200 X126.968 Y94.159 E44.02331
G0 F6000 X126.531 Y94.287
G1 F1200 X114.199 Y81.955 E44.37134
G0 F6000 X114.199 Y82.52
G1 F1200 X126.144 Y94.465 E44.70846
G0 F6000 X125.8 Y94.687
G1 F1200 X114.199 Y83.086 E45.03586
G0 F6000 X114.199 Y83.652
G1 F1200 X125.456 Y94.909 E45.35356
G0 F6000 X125.112 Y95.131
G1 F1200 X114.199 Y84.217 E45.66156
G0 F6000 X114.199 Y84.783
G1 F1200 X124.842 Y95.426 E45.96193
G0 F6000 X124.58 Y95.73
G1 F1200 X114.199 Y85.349 E46.2549
G0 F6000 X114.199 Y85.914
G1 F1200 X124.317 Y96.032 E46.54045
G0 F6000 X124.071 Y96.353
G1 F1200 X114.199 Y86.48 E46.81908
G0 F6000 X114.199 Y87.046
G1 F1200 X123.894 Y96.741 E47.09269
G0 F6000 X123.716 Y97.129
G1 F1200 X114.199 Y87.611 E47.3613
G0 F6000 X114.199 Y88.177
G1 F1200 X123.539 Y97.517 E47.62489
G0 F6000 X123.439 Y97.983
