;FLAVOR:Marlin
;TIME:12626
;Filament used: 12.8224m
;Layer height: 0.32
;MINX:77.7
;MINY:6.2
;MINZ:0.12
;MAXX:147.3
;MAXY:228.8
;MAXZ:4.16
;Generated with Cura_SteamEngine 4.12.1
M82 ;absolute extrusion mode
; Ender 3 Custom Start G-code
G92 E0 ; Reset Extruder
M900 K0.7
M140 S60 ; Нагреваем стол до заданной температуры.
M104 S200 T0 ; Нагреваем ХОТЕНД до заданной температуры.
M190 S60 ; Ждем нагрева стола.
M109 S200 T0 ; Ждем нагрева ХОТЕНДА. 
G28 ; Home all axes
G1 Z2.0 F3000 ; Move Z Axis up little to prevent scratching of Heat Bed
G1 X0.1 Y20 Z0.3 F5000.0 ; Move to start position
G1 X0.1 Y200.0 Z0.3 F1500.0 E15 ; Draw the first line
G1 X0.4 Y200.0 Z0.3 F5000.0 ; Move to side a little
G1 X0.4 Y20 Z0.3 F1500.0 E30 ; Draw the second line
G92 E0 ; Reset Extruder
G1 Z2.0 F3000 ; Move Z Axis up little to prevent scratching of Heat Bed
G1 X5 Y20 Z0.3 F5000.0 ; Move over to prevent blob squish
G92 E0
G92 E0
G1 F1500 E-6.5
;LAYER_COUNT:13
;LAYER:0
M107
M204 S500
G1 F300 Z0.32
;MESH:NASU_CON_R.stl
G0 F6000 X141.09 Y225.878 Z0.32
;TYPE:WALL-INNER
G1 F300 Z0.12
G1 F1500 E0
G1 F1200 X142.218 Y227.221 E0.035
G1 X143.945 Y227.525 E0.06999
G1 X145.464 Y226.649 E0.10499
G1 X146.065 Y225 E0.14001
G1 X145.464 Y223.351 E0.17504
G1 X143.945 Y222.475 E0.21003
G1 X142.218 Y222.779 E0.24502
G1 X141.09 Y224.122 E0.28002
G1 X141.09 Y225.878 E0.31507
G0 F6000 X141.49 Y225.732
G1 F1200 X142.431 Y226.852 E0.34426
G1 X143.871 Y227.106 E0.37344
G1 X145.138 Y226.375 E0.40263
G1 X145.639 Y225 E0.43184
G1 X145.138 Y223.625 E0.46104
G1 X143.871 Y222.894 E0.49023
G1 X142.431 Y223.148 E0.51941
G1 X141.49 Y224.268 E0.5486
G1 X141.49 Y225.732 E0.57782
G0 F6000 X141.89 Y225.586
;TYPE:WALL-OUTER
G1 F1200 X142.644 Y226.483 E0.6012
G1 X143.797 Y226.687 E0.62457
G1 X144.812 Y226.101 E0.64796
G1 X145.213 Y225 E0.67134
G1 X144.812 Y223.899 E0.69473
G1 X143.797 Y223.313 E0.71811
G1 X142.644 Y223.517 E0.74148
G1 X141.89 Y224.414 E0.76487
G1 X141.89 Y225.586 E0.78825
G0 F6000 X141.477 Y225.736
G1 F1500 E-5.71175
G1 F300 Z0.32
G0 F6000 X84.065 Y225 Z0.32
;TYPE:WALL-INNER
G1 F300 Z0.12
G1 F1500 E0.78825
G1 F1200 X83.464 Y223.351 E0.82328
G1 X81.945 Y222.475 E0.85827
G1 X80.218 Y222.779 E0.89327
G1 X79.09 Y224.122 E0.92827
G1 X79.09 Y225.878 E0.96331
G1 X80.218 Y227.221 E0.99831
G1 X81.945 Y227.525 E1.0333
G1 X83.464 Y226.649 E1.0683
G1 X84.065 Y225 E1.10332
G0 F6000 X83.639 Y225
G1 F1200 X83.138 Y223.625 E1.13253
G1 X81.871 Y222.894 E1.16172
G1 X80.431 Y223.148 E1.1909
G1 X79.49 Y224.268 E1.22009
G1 X79.49 Y225.732 E1.24931
G1 X80.431 Y226.852 E1.2785
G1 X81.871 Y227.106 E1.30768
G1 X83.138 Y226.375 E1.33687
G1 X83.639 Y225 E1.36607
G0 F6000 X83.213 Y225
;TYPE:WALL-OUTER
G1 F1200 X82.812 Y223.899 E1.38946
G1 X81.797 Y223.313 E1.41285
G1 X80.644 Y223.517 E1.43621
G1 X79.89 Y224.414 E1.4596
G1 X79.89 Y225.586 E1.48299
G1 X80.644 Y226.483 E1.50637
G1 X81.797 Y226.687 E1.52974
G1 X82.812 Y226.101 E1.55313
G1 X83.213 Y225 E1.57651
G0 F6000 X83.653 Y225
G1 F1500 E-4.92349
G1 F300 Z0.32
G0 F6000 X108.757 Y121.016 Z0.32
;TYPE:WALL-INNER
G1 F300 Z0.12
G1 F1500 E1.57651
G1 F1200 X110.532 Y120.205 E1.61545
G1 X110.87 Y119.907 E1.62445
G1 X111.905 Y118.296 E1.66266
G1 X112.038 Y117.868 E1.6716
G1 X112.039 Y115.914 E1.7106
G1 X111.906 Y115.483 E1.7196
G1 X110.872 Y113.872 E1.7578
G1 X110.535 Y113.574 E1.76678
G1 X108.77 Y112.766 E1.80552
G1 X108.323 Y112.703 E1.81452
G1 X106.411 Y112.977 E1.85307
G1 X106 Y113.165 E1.86209
G1 X104.538 Y114.432 E1.9007
G1 X104.295 Y114.816 E1.90976
G1 X103.76 Y116.643 E1.94776
G1 X103.745 Y117.093 E1.95674
G1 X104.297 Y118.972 E1.99582
G1 X104.544 Y119.351 E2.00485
G1 X106 Y120.612 E2.04329
G1 X106.41 Y120.8 E2.05229
G1 X108.31 Y121.074 E2.0906
G1 X108.757 Y121.016 E2.09959
G0 F6000 X108.646 Y120.627
G1 F1200 X110.312 Y119.866 E2.13615
G1 X110.564 Y119.644 E2.14285
G1 X111.539 Y118.126 E2.17885
G1 X111.638 Y117.807 E2.18552
G1 X111.639 Y115.974 E2.2221
G1 X111.54 Y115.653 E2.2288
G1 X110.565 Y114.135 E2.2648
G1 X110.314 Y113.913 E2.27149
G1 X108.656 Y113.154 E2.30788
G1 X108.323 Y113.107 E2.31459
G1 X106.525 Y113.365 E2.35084
G1 X106.219 Y113.505 E2.35755
G1 X104.844 Y114.696 E2.39386
G1 X104.663 Y114.982 E2.40061
G1 X104.158 Y116.707 E2.43648
G1 X104.147 Y117.042 E2.44317
G1 X104.664 Y118.803 E2.4798
G1 X104.848 Y119.085 E2.48651
G1 X106.219 Y120.272 E2.5227
G1 X106.524 Y120.412 E2.5294
G1 X108.313 Y120.67 E2.56547
G1 X108.646 Y120.627 E2.57217
G0 F6000 X108.535 Y120.238
G1 F1200 X110.092 Y119.527 E2.60633
G1 X110.257 Y119.381 E2.61073
G1 X111.173 Y117.955 E2.64455
G1 X111.238 Y117.746 E2.64892
G1 X111.239 Y116.034 E2.68308
G1 X111.174 Y115.823 E2.68749
G1 X110.258 Y114.398 E2.72129
G1 X110.093 Y114.252 E2.72569
G1 X108.542 Y113.542 E2.75973
G1 X108.323 Y113.511 E2.76415
G1 X106.639 Y113.753 E2.7981
G1 X106.438 Y113.845 E2.80251
G1 X105.15 Y114.96 E2.83651
G1 X105.031 Y115.148 E2.84095
G1 X104.556 Y116.771 E2.87469
G1 X104.549 Y116.991 E2.87909
G1 X105.031 Y118.634 E2.91326
G1 X105.152 Y118.82 E2.91768
G1 X106.437 Y119.932 E2.9516
G1 X106.638 Y120.024 E2.95601
G1 X108.316 Y120.266 E2.98984
G1 X108.535 Y120.238 E2.99425
G0 F6000 X108.425 Y119.849
;TYPE:WALL-OUTER
G1 F1200 X109.871 Y119.188 E3.02597
G1 X109.95 Y119.118 E3.02808
G1 X110.807 Y117.785 E3.05971
G1 X110.838 Y117.685 E3.06179
G1 X110.839 Y116.094 E3.09354
G1 X110.808 Y115.993 E3.09565
G1 X109.951 Y114.661 E3.12726
G1 X109.872 Y114.591 E3.12937
G1 X108.428 Y113.93 E3.16106
G1 X108.323 Y113.915 E3.16318
G1 X106.753 Y114.141 E3.19483
G1 X106.657 Y114.185 E3.19694
G1 X105.456 Y115.224 E3.22863
G1 X105.399 Y115.314 E3.23076
G1 X104.954 Y116.834 E3.26236
G1 X104.951 Y116.939 E3.26446
G1 X105.398 Y118.465 E3.29619
G1 X105.456 Y118.554 E3.29831
G1 X106.656 Y119.592 E3.32997
G1 X106.752 Y119.636 E3.33208
G1 X108.32 Y119.862 E3.3637
G1 X108.425 Y119.849 E3.36581
G0 F6000 X108.544 Y120.272
G1 F1500 E-3.13419
G1 F300 Z0.32
G0 F6000 X108.757 Y111.016 Z0.32
;TYPE:WALL-INNER
G1 F300 Z0.12
G1 F1500 E3.36581
G1 F1200 X110.532 Y110.205 E3.40475
G1 X110.87 Y109.907 E3.41374
G1 X111.905 Y108.296 E3.45196
G1 X112.038 Y107.868 E3.4609
G1 X112.039 Y105.914 E3.49989
G1 X111.906 Y105.483 E3.5089
G1 X110.872 Y103.872 E3.5471
G1 X110.535 Y103.574 E3.55607
G1 X108.77 Y102.766 E3.59481
G1 X108.323 Y102.703 E3.60382
G1 X106.411 Y102.977 E3.64237
G1 X106 Y103.165 E3.65139
G1 X104.538 Y104.432 E3.68999
G1 X104.295 Y104.816 E3.69906
G1 X103.76 Y106.643 E3.73705
G1 X103.745 Y107.093 E3.74604
G1 X104.297 Y108.972 E3.78512
G1 X104.544 Y109.351 E3.79415
G1 X106 Y110.612 E3.83259
G1 X106.41 Y110.8 E3.84159
G1 X108.31 Y111.074 E3.8799
G1 X108.757 Y111.016 E3.88889
G0 F6000 X108.646 Y110.627
G1 F1200 X110.312 Y109.866 E3.92544
G1 X110.564 Y109.644 E3.93214
G1 X111.539 Y108.126 E3.96815
G1 X111.638 Y107.807 E3.97481
G1 X111.639 Y105.974 E4.01139
G1 X111.54 Y105.653 E4.0181
G1 X110.565 Y104.135 E4.0541
G1 X110.314 Y103.913 E4.06079
G1 X108.656 Y103.154 E4.09718
G1 X108.323 Y103.107 E4.10389
G1 X106.525 Y103.365 E4.14014
G1 X106.219 Y103.505 E4.14685
G1 X104.844 Y104.696 E4.18315
G1 X104.663 Y104.982 E4.18991
G1 X104.158 Y106.707 E4.22578
G1 X104.147 Y107.042 E4.23247
G1 X104.664 Y108.803 E4.26909
G1 X104.848 Y109.085 E4.27581
G1 X106.219 Y110.272 E4.312
G1 X106.524 Y110.412 E4.3187
G1 X108.313 Y110.67 E4.35477
G1 X108.646 Y110.627 E4.36147
G0 F6000 X108.535 Y110.238
G1 F1200 X110.092 Y109.527 E4.39563
G1 X110.257 Y109.381 E4.40002
G1 X111.173 Y107.955 E4.43385
G1 X111.238 Y107.746 E4.43821
G1 X111.239 Y106.034 E4.47238
G1 X111.174 Y105.823 E4.47679
G1 X110.258 Y104.398 E4.51059
G1 X110.093 Y104.252 E4.51499
G1 X108.542 Y103.542 E4.54903
G1 X108.323 Y103.511 E4.55344
G1 X106.639 Y103.753 E4.58739
G1 X106.438 Y103.845 E4.59181
G1 X105.15 Y104.96 E4.6258
G1 X105.031 Y105.148 E4.63024
G1 X104.556 Y106.771 E4.66399
G1 X104.549 Y106.991 E4.66838
G1 X105.031 Y108.634 E4.70255
G1 X105.152 Y108.82 E4.70698
G1 X106.437 Y109.932 E4.74089
G1 X106.638 Y110.024 E4.7453
G1 X108.316 Y110.266 E4.77914
G1 X108.535 Y110.238 E4.78354
G0 F6000 X108.425 Y109.849
;TYPE:WALL-OUTER
G1 F1200 X109.871 Y109.188 E4.81527
G1 X109.95 Y109.118 E4.81738
G1 X110.807 Y107.785 E4.849
G1 X110.838 Y107.685 E4.85109
G1 X110.839 Y106.094 E4.88284
G1 X110.808 Y105.993 E4.88495
G1 X109.951 Y104.661 E4.91656
G1 X109.872 Y104.591 E4.91866
G1 X108.428 Y103.93 E4.95036
G1 X108.323 Y103.915 E4.95247
G1 X106.753 Y104.141 E4.98413
G1 X106.657 Y104.185 E4.98623
G1 X105.456 Y105.224 E5.01793
G1 X105.399 Y105.314 E5.02005
G1 X104.954 Y106.834 E5.05166
G1 X104.951 Y106.939 E5.05375
G1 X105.398 Y108.465 E5.08549
G1 X105.456 Y108.554 E5.08761
G1 X106.656 Y109.592 E5.11927
G1 X106.752 Y109.636 E5.12138
G1 X108.32 Y109.862 E5.15299
G1 X108.425 Y109.849 E5.1551
G0 F6000 X108.544 Y110.272
G1 F1500 E-1.3449
G1 F300 Z0.32
G0 F6000 X81.945 Y12.525 Z0.32
;TYPE:WALL-INNER
G1 F300 Z0.12
G1 F1500 E5.1551
G1 F1200 X83.464 Y11.649 E5.1901
G1 X84.065 Y10 E5.22512
G1 X83.464 Y8.351 E5.26015
G1 X81.945 Y7.475 E5.29514
G1 X80.218 Y7.779 E5.33013
G1 X79.09 Y9.122 E5.36513
G1 X79.09 Y10.878 E5.40018
G1 X80.218 Y12.221 E5.43518
G1 X81.945 Y12.525 E5.47017
G0 F6000 X81.871 Y12.106
G1 F1200 X83.138 Y11.375 E5.49936
G1 X83.639 Y10 E5.52857
G1 X83.138 Y8.625 E5.55777
G1 X81.871 Y7.894 E5.58696
G1 X80.431 Y8.148 E5.61614
G1 X79.49 Y9.268 E5.64533
G1 X79.49 Y10.732 E5.67455
G1 X80.431 Y11.852 E5.70374
G1 X81.871 Y12.106 E5.73292
G0 F6000 X81.797 Y11.687
;TYPE:WALL-OUTER
G1 F1200 X82.812 Y11.101 E5.75631
G1 X83.213 Y10 E5.7797
G1 X82.812 Y8.899 E5.80308
G1 X81.797 Y8.313 E5.82647
G1 X80.644 Y8.517 E5.84983
G1 X79.89 Y9.414 E5.87322
G1 X79.89 Y10.586 E5.89661
G1 X80.644 Y11.483 E5.91999
G1 X81.797 Y11.687 E5.94336
G0 F6000 X81.873 Y12.12
G1 F1500 E-0.55664
G1 F300 Z0.32
G0 F6000 X143.945 Y12.525 Z0.32
;TYPE:WALL-INNER
G1 F300 Z0.12
G1 F1500 E5.94336
G1 F1200 X145.464 Y11.649 E5.97835
G1 X146.065 Y10 E6.01338
G1 X145.464 Y8.351 E6.0484
G1 X143.945 Y7.475 E6.08339
G1 X142.218 Y7.779 E6.11839
G1 X141.09 Y9.122 E6.15339
G1 X141.09 Y10.878 E6.18843
G1 X142.218 Y12.221 E6.22343
G1 X143.945 Y12.525 E6.25843
G0 F6000 X143.871 Y12.106
G1 F1200 X145.138 Y11.375 E6.28762
G1 X145.639 Y10 E6.31682
G1 X145.138 Y8.625 E6.34603
G1 X143.871 Y7.894 E6.37522
G1 X142.431 Y8.148 E6.4044
G1 X141.49 Y9.268 E6.43359
G1 X141.49 Y10.732 E6.4628
G1 X142.431 Y11.852 E6.492
G1 X143.871 Y12.106 E6.52118
G0 F6000 X143.797 Y11.687
;TYPE:WALL-OUTER
G1 F1200 X144.812 Y11.101 E6.54457
G1 X145.213 Y10 E6.56795
G1 X144.812 Y8.899 E6.59133
G1 X143.797 Y8.313 E6.61472
G1 X142.644 Y8.517 E6.63809
G1 X141.89 Y9.414 E6.66147
G1 X141.89 Y10.586 E6.68486
G1 X142.644 Y11.483 E6.70825
G1 X143.797 Y11.687 E6.73161
G0 F6000 X143.873 Y12.12
G1 F1500 E0.23161
G1 F300 Z0.32
G0 F6000 X119.292 Y35.456 Z0.32
;TYPE:WALL-INNER
G1 F300 Z0.12
G1 F1500 E6.73161
G1 F1200 X120.974 Y35.159 E6.7657
G1 X121.429 Y34.888 E6.77627
G1 X122.502 Y33.609 E6.80958
G1 X122.69 Y33.112 E6.82019
G1 X122.691 Y31.408 E6.85419
G1 X122.503 Y30.911 E6.8648
G1 X121.43 Y29.632 E6.89811
G1 X120.975 Y29.361 E6.90868
G1 X119.306 Y29.066 E6.9425
G1 X118.783 Y29.156 E6.9531
G1 X117.314 Y30.002 E6.98692
G1 X116.975 Y30.412 E6.99754
G1 X116.406 Y31.975 E7.03074
G1 X116.391 Y32.506 E7.04134
G1 X116.974 Y34.107 E7.07534
G1 X117.313 Y34.517 E7.08595
G1 X118.771 Y35.355 E7.11951
G1 X119.292 Y35.456 E7.13011
G0 F6000 X119.295 Y35.049
G1 F1200 X120.832 Y34.778 E7.16125
G1 X121.166 Y34.579 E7.16901
G1 X122.152 Y33.404 E7.19962
G1 X122.29 Y33.039 E7.20741
G1 X122.291 Y31.481 E7.2385
G1 X122.153 Y31.116 E7.24629
G1 X121.167 Y29.941 E7.2769
G1 X120.833 Y29.742 E7.28465
G1 X119.305 Y29.472 E7.31562
G1 X118.921 Y29.538 E7.3234
G1 X117.576 Y30.313 E7.35437
G1 X117.327 Y30.614 E7.36217
G1 X116.804 Y32.051 E7.39269
G1 X116.793 Y32.441 E7.40047
G1 X117.326 Y33.905 E7.43156
G1 X117.575 Y34.206 E7.43936
G1 X118.913 Y34.975 E7.47016
G1 X119.295 Y35.049 E7.47792
G0 F6000 X119.298 Y34.642
G1 F1200 X120.69 Y34.397 E7.50613
G1 X120.903 Y34.27 E7.51108
G1 X121.802 Y33.199 E7.53898
G1 X121.89 Y32.966 E7.54395
G1 X121.891 Y31.554 E7.57213
G1 X121.803 Y31.321 E7.5771
G1 X120.904 Y30.25 E7.605
G1 X120.691 Y30.123 E7.60995
G1 X119.304 Y29.878 E7.63806
G1 X119.059 Y29.92 E7.64302
G1 X117.838 Y30.624 E7.67115
G1 X117.679 Y30.816 E7.67612
G1 X117.202 Y32.127 E7.70396
G1 X117.195 Y32.376 E7.70893
G1 X117.678 Y33.703 E7.73712
G1 X117.837 Y33.895 E7.74209
G1 X119.054 Y34.595 E7.77011
G1 X119.298 Y34.642 E7.77507
G0 F6000 X119.301 Y34.235
;TYPE:WALL-OUTER
G1 F1200 X120.548 Y34.016 E7.80033
G1 X120.64 Y33.961 E7.80247
G1 X121.452 Y32.994 E7.82767
G1 X121.49 Y32.893 E7.82982
G1 X121.491 Y31.627 E7.85509
G1 X121.453 Y31.526 E7.85724
G1 X120.641 Y30.559 E7.88244
G1 X120.549 Y30.504 E7.88458
G1 X119.303 Y30.284 E7.90983
G1 X119.197 Y30.302 E7.91198
G1 X118.1 Y30.935 E7.93725
G1 X118.031 Y31.018 E7.9394
G1 X117.6 Y32.203 E7.96457
G1 X117.597 Y32.311 E7.96672
G1 X118.03 Y33.501 E7.99199
G1 X118.099 Y33.584 E7.99415
G1 X119.195 Y34.215 E8.01939
G1 X119.301 Y34.235 E8.02154
G0 F6000 X119.298 Y34.675
G1 F1500 E1.52154
G1 F300 Z0.32
G0 F6000 X119.295 Y27.363 Z0.32
;TYPE:WALL-INNER
G1 F300 Z0.12
G1 F1500 E8.02154
G1 F1200 X120.974 Y27.066 E8.05557
G1 X121.429 Y26.795 E8.06613
G1 X122.502 Y25.516 E8.09945
G1 X122.69 Y25.019 E8.11005
G1 X122.691 Y23.314 E8.14408
G1 X122.503 Y22.817 E8.15468
G1 X121.43 Y21.538 E8.188
G1 X120.975 Y21.267 E8.19857
G1 X119.306 Y20.972 E8.23239
G1 X118.783 Y21.062 E8.24298
G1 X117.314 Y21.908 E8.27681
G1 X116.975 Y22.318 E8.28743
G1 X116.406 Y23.881 E8.32062
G1 X116.391 Y24.412 E8.33122
G1 X116.974 Y26.013 E8.36522
G1 X117.313 Y26.421 E8.37581
G1 X118.771 Y27.265 E8.40943
G1 X119.295 Y27.363 E8.42007
G0 F6000 X119.297 Y26.956
G1 F1200 X120.832 Y26.685 E8.45117
G1 X121.166 Y26.486 E8.45893
G1 X122.152 Y25.311 E8.48954
G1 X122.29 Y24.946 E8.49733
G1 X122.291 Y23.387 E8.52844
G1 X122.153 Y23.022 E8.53623
G1 X121.167 Y21.847 E8.56684
G1 X120.833 Y21.648 E8.5746
G1 X119.305 Y21.378 E8.60556
G1 X118.921 Y21.444 E8.61334
G1 X117.576 Y22.219 E8.64432
G1 X117.327 Y22.52 E8.65211
G1 X116.804 Y23.957 E8.68263
G1 X116.793 Y24.347 E8.69042
G1 X117.326 Y25.811 E8.72151
G1 X117.575 Y26.111 E8.72929
G1 X118.912 Y26.884 E8.76011
G1 X119.297 Y26.956 E8.76792
G0 F6000 X119.299 Y26.549
G1 F1200 X120.69 Y26.304 E8.79611
G1 X120.903 Y26.177 E8.80106
G1 X121.802 Y25.106 E8.82896
G1 X121.89 Y24.873 E8.83393
G1 X121.891 Y23.46 E8.86213
G1 X121.803 Y23.227 E8.8671
G1 X120.904 Y22.156 E8.89501
G1 X120.691 Y22.029 E8.89996
G1 X119.304 Y21.784 E8.92806
G1 X119.059 Y21.826 E8.93302
G1 X117.838 Y22.53 E8.96115
G1 X117.679 Y22.722 E8.96613
G1 X117.202 Y24.033 E8.99397
G1 X117.195 Y24.282 E8.99894
G1 X117.678 Y25.609 E9.02712
G1 X117.837 Y25.801 E9.03209
G1 X119.053 Y26.503 E9.06011
G1 X119.299 Y26.549 E9.06511
G0 F6000 X119.301 Y26.142
;TYPE:WALL-OUTER
G1 F1200 X120.548 Y25.923 E9.09037
G1 X120.64 Y25.868 E9.09251
G1 X121.452 Y24.901 E9.11771
G1 X121.49 Y24.8 E9.11986
G1 X121.491 Y23.533 E9.14515
G1 X121.453 Y23.432 E9.1473
G1 X120.641 Y22.465 E9.1725
G1 X120.549 Y22.41 E9.17464
G1 X119.303 Y22.19 E9.19989
G1 X119.197 Y22.208 E9.20204
G1 X118.1 Y22.841 E9.22731
G1 X118.031 Y22.924 E9.22946
G1 X117.6 Y24.109 E9.25463
G1 X117.597 Y24.217 E9.25678
G1 X118.03 Y25.407 E9.28206
G1 X118.099 Y25.49 E9.28421
G1 X119.194 Y26.122 E9.30944
G1 X119.301 Y26.142 E9.31161
G0 F6000 X119.299 Y26.582
G1 F1500 E2.81161
G1 F300 Z0.32
G0 F6000 X112.285 Y23.316 Z0.32
;TYPE:WALL-INNER
G1 F300 Z0.12
G1 F1500 E9.31161
G1 F1200 X113.965 Y23.019 E9.34566
G1 X114.42 Y22.748 E9.35623
G1 X115.492 Y21.469 E9.38953
G1 X115.68 Y20.972 E9.40013
G1 X115.681 Y19.268 E9.43414
G1 X115.493 Y18.771 E9.44474
G1 X114.421 Y17.491 E9.47806
G1 X113.966 Y17.22 E9.48863
G1 X112.303 Y16.925 E9.52234
G1 X111.778 Y17.011 E9.53295
G1 X110.305 Y17.862 E9.5669
G1 X109.966 Y18.271 E9.5775
G1 X109.397 Y19.834 E9.6107
G1 X109.382 Y20.365 E9.6213
G1 X109.965 Y21.966 E9.6553
G1 X110.304 Y22.374 E9.66588
G1 X111.761 Y23.218 E9.69949
G1 X112.285 Y23.316 E9.71012
G0 F6000 X112.287 Y22.909
G1 F1200 X113.823 Y22.638 E9.74125
G1 X114.157 Y22.439 E9.74901
G1 X115.142 Y21.264 E9.77961
