;FLAVOR:Marlin
;TIME:8464
;Filament used: 10.0834m
;Layer height: 0.32
;MINX:82.7
;MINY:6.2
;MINZ:0.12
;MAXX:142.3
;MAXY:228.8
;MAXZ:4.16
;Generated with Cura_SteamEngine 4.12.1
M82 ;absolute extrusion mode
; Ender 3 Custom Start G-code
G92 E0 ; Reset Extruder
M900 K0.55
M140 S60 ; Нагреваем стол до заданной температуры.
M104 S200 T0 ; Нагреваем ХОТЕНД до заданной температуры.
M190 S60 ; Ждем нагрева стола.
M109 S200 T0 ; Ждем нагрева ХОТЕНДА. 
G28 ; Home all axes
G1 Z2.0 F3000 ; Move Z Axis up little to prevent scratching of Heat Bed
G1 X0.1 Y20 Z0.3 F5000.0 ; Move to start position
G1 X0.1 Y200.0 Z0.3 F1500.0 E15 ; Draw the first line
G1 X0.4 Y200.0 Z0.3 F5000.0 ; Move to side a little
G1 X0.4 Y20 Z0.3 F1500.0 E30 ; Draw the second line
G92 E0 ; Reset Extruder
G1 Z2.0 F3000 ; Move Z Axis up little to prevent scratching of Heat Bed
G1 X5 Y20 Z0.3 F5000.0 ; Move over to prevent blob squish
G92 E0
G92 E0
G1 F1500 E-6.5
;LAYER_COUNT:13
;LAYER:0
M107
G1 F300 Z0.32
;MESH:management 2.stl
G0 F6000 X88.464 Y226.649 Z0.32
;TYPE:WALL-INNER
G1 F300 Z0.12
G1 F1500 E0
G1 F1200 X89.065 Y225 E0.03503
G1 X88.464 Y223.351 E0.07005
G1 X86.945 Y222.475 E0.10504
G1 X85.218 Y222.779 E0.14004
G1 X84.09 Y224.122 E0.17504
G1 X84.09 Y225.878 E0.21008
G1 X85.218 Y227.221 E0.24508
G1 X86.945 Y227.525 E0.28007
G1 X88.464 Y226.649 E0.31507
G0 F6000 X88.138 Y226.375
G1 F1200 X88.639 Y225 E0.34427
G1 X88.138 Y223.625 E0.37348
G1 X86.871 Y222.894 E0.40267
G1 X85.431 Y223.148 E0.43185
G1 X84.49 Y224.268 E0.46104
G1 X84.49 Y225.732 E0.49026
G1 X85.431 Y226.852 E0.51945
G1 X86.871 Y227.106 E0.54863
G1 X88.138 Y226.375 E0.57782
G0 F6000 X87.812 Y226.101
;TYPE:WALL-OUTER
G1 F1200 X88.213 Y225 E0.6012
G1 X87.812 Y223.899 E0.62459
G1 X86.797 Y223.313 E0.64797
G1 X85.644 Y223.517 E0.67134
G1 X84.89 Y224.414 E0.69473
G1 X84.89 Y225.586 E0.71811
G1 X85.644 Y226.483 E0.7415
G1 X86.797 Y226.687 E0.76487
G1 X87.812 Y226.101 E0.78825
G0 F6000 X88.149 Y226.383
G1 F1500 E-5.71175
G1 F300 Z0.32
G0 F6000 X138.945 Y12.525 Z0.32
;TYPE:WALL-INNER
G1 F300 Z0.12
G1 F1500 E0.78825
G1 F1200 X140.464 Y11.649 E0.82325
G1 X141.065 Y10 E0.85827
G1 X140.464 Y8.351 E0.8933
G1 X138.945 Y7.475 E0.92829
G1 X137.218 Y7.779 E0.96328
G1 X136.09 Y9.122 E0.99828
G1 X136.09 Y10.878 E1.03333
G1 X137.218 Y12.221 E1.06833
G1 X138.945 Y12.525 E1.10332
G0 F6000 X138.871 Y12.106
G1 F1200 X140.138 Y11.375 E1.13251
G1 X140.639 Y10 E1.16172
G1 X140.138 Y8.625 E1.19092
G1 X138.871 Y7.894 E1.22011
G1 X137.431 Y8.148 E1.24929
G1 X136.49 Y9.268 E1.27849
G1 X136.49 Y10.732 E1.3077
G1 X137.431 Y11.852 E1.33689
G1 X138.871 Y12.106 E1.36607
G0 F6000 X138.797 Y11.687
;TYPE:WALL-OUTER
G1 F1200 X139.812 Y11.101 E1.38946
G1 X140.213 Y10 E1.41285
G1 X139.812 Y8.899 E1.43623
G1 X138.797 Y8.313 E1.45962
G1 X137.644 Y8.517 E1.48299
G1 X136.89 Y9.414 E1.50637
G1 X136.89 Y10.586 E1.52976
G1 X137.644 Y11.483 E1.55314
G1 X138.797 Y11.687 E1.57651
G0 F6000 X138.873 Y12.12
G1 F1500 E-4.92349
G1 F300 Z0.32
G0 F6000 X86.945 Y12.525 Z0.32
;TYPE:WALL-INNER
G1 F300 Z0.12
G1 F1500 E1.57651
G1 F1200 X88.464 Y11.649 E1.6115
G1 X89.065 Y10 E1.64653
G1 X88.464 Y8.351 E1.68155
G1 X86.945 Y7.475 E1.71655
G1 X85.218 Y7.779 E1.75154
G1 X84.09 Y9.122 E1.78654
G1 X84.09 Y10.878 E1.82158
G1 X85.218 Y12.221 E1.85658
G1 X86.945 Y12.525 E1.89158
G0 F6000 X86.871 Y12.106
G1 F1200 X88.138 Y11.375 E1.92077
G1 X88.639 Y10 E1.94997
G1 X88.138 Y8.625 E1.97918
G1 X86.871 Y7.894 E2.00837
G1 X85.431 Y8.148 E2.03755
G1 X84.49 Y9.268 E2.06674
G1 X84.49 Y10.732 E2.09596
G1 X85.431 Y11.852 E2.12515
G1 X86.871 Y12.106 E2.15433
G0 F6000 X86.797 Y11.687
;TYPE:WALL-OUTER
G1 F1200 X87.812 Y11.101 E2.17772
G1 X88.213 Y10 E2.2011
G1 X87.812 Y8.899 E2.22448
G1 X86.797 Y8.313 E2.24787
G1 X85.644 Y8.517 E2.27124
G1 X84.89 Y9.414 E2.29462
G1 X84.89 Y10.586 E2.31801
G1 X85.644 Y11.483 E2.3414
G1 X86.797 Y11.687 E2.36476
G0 F6000 X86.873 Y12.12
G1 F1500 E-4.13524
G1 F300 Z0.32
G0 F6000 X96.781 Y37.892 Z0.32
;TYPE:WALL-INNER
G1 F300 Z0.12
G1 F1500 E2.36476
G1 F1200 X99.821 Y37.641 E2.42564
G1 X102.613 Y36.415 E2.48649
G1 X104.856 Y34.351 E2.54732
G1 X106.308 Y31.669 E2.60818
G1 X106.81 Y28.66 E2.66906
G1 X106.308 Y25.652 E2.72992
G1 X104.856 Y22.97 E2.79078
G1 X102.613 Y20.906 E2.85161
G1 X99.821 Y19.68 E2.91246
G1 X96.781 Y19.429 E2.97333
G1 X93.824 Y20.177 E3.0342
G1 X91.271 Y21.846 E3.09507
G1 X89.398 Y24.251 E3.1559
G1 X88.408 Y27.136 E3.21677
G1 X88.408 Y30.185 E3.27762
G1 X89.398 Y33.07 E3.33849
G1 X91.271 Y35.475 E3.39932
G1 X93.824 Y37.144 E3.46019
G1 X96.781 Y37.892 E3.52106
G0 F6000 X96.814 Y37.488
G1 F1200 X99.721 Y37.248 E3.57927
G1 X102.391 Y36.076 E3.63746
G1 X104.536 Y34.102 E3.69563
G1 X105.924 Y31.537 E3.75383
G1 X106.404 Y28.66 E3.81204
G1 X105.924 Y25.784 E3.87023
G1 X104.536 Y23.219 E3.92843
G1 X102.391 Y21.245 E3.9866
G1 X99.721 Y20.073 E4.04479
G1 X96.814 Y19.833 E4.103
G1 X93.987 Y20.548 E4.16119
G1 X91.546 Y22.144 E4.21939
G1 X89.755 Y24.444 E4.27757
G1 X88.808 Y27.203 E4.33578
G1 X88.808 Y30.118 E4.39395
G1 X89.755 Y32.877 E4.45216
G1 X91.546 Y35.177 E4.51034
G1 X93.987 Y36.773 E4.56854
G1 X96.814 Y37.488 E4.62673
G0 F6000 X96.847 Y37.084
;TYPE:WALL-OUTER
G1 F1200 X99.621 Y36.855 E4.68228
G1 X102.169 Y35.737 E4.7378
G1 X104.216 Y33.853 E4.79332
G1 X105.54 Y31.405 E4.84886
G1 X105.998 Y28.66 E4.9044
G1 X105.54 Y25.916 E4.95992
G1 X104.216 Y23.468 E5.01546
G1 X102.169 Y21.584 E5.07097
G1 X99.621 Y20.466 E5.1265
G1 X96.847 Y20.237 E5.18205
G1 X94.15 Y20.919 E5.23756
G1 X91.821 Y22.442 E5.2931
G1 X90.112 Y24.637 E5.34861
G1 X89.208 Y27.27 E5.40417
G1 X89.208 Y30.051 E5.45967
G1 X90.112 Y32.684 E5.51522
G1 X91.821 Y34.879 E5.57074
G1 X94.15 Y36.402 E5.62627
G1 X96.847 Y37.084 E5.68178
G0 F6000 X96.811 Y37.522
G1 F1500 E-0.81822
G1 F300 Z0.32
G0 F6000 X107.998 Y21.139 Z0.32
;TYPE:WALL-INNER
G1 F300 Z0.12
G1 F1500 E5.68178
G1 F1200 X109.694 Y20.16 E5.72086
G1 X110.365 Y18.318 E5.75999
G1 X109.694 Y16.476 E5.79911
G1 X107.998 Y15.498 E5.83818
G1 X106.068 Y15.837 E5.87728
G1 X104.809 Y17.338 E5.91638
G1 X104.809 Y19.299 E5.95551
G1 X106.068 Y20.799 E5.99459
G1 X107.998 Y21.139 E6.0337
G0 F6000 X107.924 Y20.72
G1 F1200 X109.368 Y19.886 E6.06698
G1 X109.939 Y18.318 E6.10028
G1 X109.368 Y16.75 E6.13358
G1 X107.924 Y15.917 E6.16685
G1 X106.281 Y16.206 E6.20014
G1 X105.209 Y17.484 E6.23343
G1 X105.209 Y19.153 E6.26673
G1 X106.281 Y20.43 E6.30001
G1 X107.924 Y20.72 E6.3333
G0 F6000 X107.85 Y20.301
;TYPE:WALL-OUTER
G1 F1200 X109.042 Y19.612 E6.36078
G1 X109.513 Y18.318 E6.38826
G1 X109.042 Y17.024 E6.41574
G1 X107.85 Y16.336 E6.4432
G1 X106.494 Y16.575 E6.47068
G1 X105.609 Y17.63 E6.49816
G1 X105.609 Y19.007 E6.52564
G1 X106.494 Y20.061 E6.55311
G1 X107.85 Y20.301 E6.58059
G0 F6000 X107.926 Y20.734
G1 F1500 E0.08059
G1 F300 Z0.32
G0 F6000 X117.998 Y21.139 Z0.32
;TYPE:WALL-INNER
G1 F300 Z0.12
G1 F1500 E6.58059
G1 F1200 X119.694 Y20.16 E6.61967
G1 X120.365 Y18.318 E6.65879
G1 X119.694 Y16.476 E6.69791
G1 X117.998 Y15.498 E6.73698
G1 X116.068 Y15.837 E6.77609
G1 X114.809 Y17.338 E6.81518
G1 X114.809 Y19.299 E6.85432
G1 X116.068 Y20.799 E6.8934
G1 X117.998 Y21.139 E6.93251
G0 F6000 X117.924 Y20.72
G1 F1200 X119.368 Y19.886 E6.96578
G1 X119.939 Y18.318 E6.99908
G1 X119.368 Y16.75 E7.03239
G1 X117.924 Y15.917 E7.06565
G1 X116.281 Y16.206 E7.09894
G1 X115.209 Y17.484 E7.13223
G1 X115.209 Y19.153 E7.16554
G1 X116.281 Y20.43 E7.19881
G1 X117.924 Y20.72 E7.23211
G0 F6000 X117.85 Y20.301
;TYPE:WALL-OUTER
G1 F1200 X119.042 Y19.612 E7.25958
G1 X119.513 Y18.318 E7.28706
G1 X119.042 Y17.024 E7.31454
G1 X117.85 Y16.336 E7.34201
G1 X116.494 Y16.575 E7.36949
G1 X115.609 Y17.63 E7.39697
G1 X115.609 Y19.007 E7.42445
G1 X116.494 Y20.061 E7.45191
G1 X117.85 Y20.301 E7.47939
G0 F6000 X117.926 Y20.734
G1 F1500 E0.97939
G1 F300 Z0.32
G0 F6000 X126.689 Y37.892 Z0.32
;TYPE:WALL-INNER
G1 F300 Z0.12
G1 F1500 E7.47939
G1 F1200 X129.73 Y37.641 E7.54029
G1 X132.522 Y36.415 E7.60114
G1 X134.765 Y34.351 E7.66197
G1 X136.218 Y31.669 E7.72284
G1 X136.72 Y28.66 E7.78372
G1 X136.218 Y25.652 E7.84458
G1 X134.765 Y22.97 E7.90545
G1 X132.522 Y20.906 E7.96628
G1 X129.73 Y19.68 E8.02713
G1 X126.689 Y19.429 E8.08802
G1 X123.734 Y20.177 E8.14885
G1 X121.18 Y21.846 E8.20974
G1 X119.307 Y24.251 E8.27057
G1 X118.317 Y27.136 E8.33144
G1 X118.317 Y30.185 E8.39228
G1 X119.307 Y33.07 E8.45315
G1 X121.18 Y35.475 E8.51399
G1 X123.734 Y37.144 E8.57487
G1 X126.689 Y37.892 E8.6357
G0 F6000 X126.723 Y37.488
G1 F1200 X129.63 Y37.248 E8.69391
G1 X132.3 Y36.076 E8.7521
G1 X134.445 Y34.102 E8.81027
G1 X135.834 Y31.537 E8.86848
G1 X136.314 Y28.66 E8.92669
G1 X135.834 Y25.784 E8.98488
G1 X134.445 Y23.219 E9.04309
G1 X132.3 Y21.245 E9.10126
G1 X129.63 Y20.073 E9.15945
G1 X126.723 Y19.833 E9.21766
G1 X123.897 Y20.548 E9.27584
G1 X121.455 Y22.144 E9.33405
G1 X119.664 Y24.444 E9.39223
G1 X118.717 Y27.203 E9.45044
G1 X118.717 Y30.118 E9.50861
G1 X119.664 Y32.877 E9.56682
G1 X121.455 Y35.177 E9.625
G1 X123.897 Y36.773 E9.68321
G1 X126.723 Y37.488 E9.74139
G0 F6000 X126.756 Y37.084
;TYPE:WALL-OUTER
G1 F1200 X129.53 Y36.855 E9.79693
G1 X132.078 Y35.737 E9.85246
G1 X134.125 Y33.853 E9.90798
G1 X135.45 Y31.405 E9.96353
G1 X135.908 Y28.66 E10.01907
G1 X135.45 Y25.916 E10.07458
G1 X134.125 Y23.468 E10.13013
G1 X132.078 Y21.584 E10.18565
G1 X129.53 Y20.466 E10.24118
G1 X126.756 Y20.237 E10.29672
G1 X124.06 Y20.919 E10.35222
G1 X121.73 Y22.442 E10.40777
G1 X120.021 Y24.637 E10.46329
G1 X119.117 Y27.27 E10.51884
G1 X119.117 Y30.051 E10.57434
G1 X120.021 Y32.684 E10.62989
G1 X121.73 Y34.879 E10.68541
G1 X124.06 Y36.402 E10.74096
G1 X126.756 Y37.084 E10.79645
G0 F6000 X126.72 Y37.522
G1 F1500 E4.29645
G1 F300 Z0.32
G0 F6000 X125.304 Y72.654 Z0.32
;TYPE:WALL-INNER
G1 F300 Z0.12
G1 F1500 E10.79645
G1 F1200 X128.091 Y72.885 E10.85226
G1 X128.338 Y72.866 E10.85721
G1 X131.056 Y72.179 E10.91315
G1 X131.284 Y72.079 E10.91812
G1 X133.629 Y70.546 E10.97403
G1 X133.811 Y70.375 E10.97901
G1 X135.527 Y68.172 E11.03474
G1 X135.645 Y67.954 E11.03969
G1 X136.551 Y65.309 E11.09548
G1 X136.595 Y65.066 E11.10041
G1 X136.596 Y62.256 E11.15649
G1 X136.552 Y62.013 E11.16142
G1 X135.646 Y59.368 E11.21721
G1 X135.528 Y59.15 E11.22216
G1 X133.812 Y56.947 E11.27788
G1 X133.63 Y56.776 E11.28287
G1 X131.285 Y55.243 E11.33878
G1 X131.057 Y55.143 E11.34375
G1 X128.343 Y54.456 E11.39961
G1 X128.096 Y54.436 E11.40456
G1 X125.305 Y54.666 E11.46045
G1 X125.066 Y54.726 E11.46536
G1 X122.5 Y55.852 E11.52128
G1 X122.292 Y55.989 E11.52625
G1 X120.23 Y57.885 E11.58215
G1 X120.08 Y58.082 E11.5871
G1 X118.752 Y60.538 E11.64281
G1 X118.67 Y60.771 E11.64774
G1 X118.209 Y63.532 E11.70361
G1 X118.208 Y63.778 E11.70851
G1 X118.669 Y66.549 E11.76457
G1 X118.751 Y66.782 E11.7695
G1 X120.079 Y69.238 E11.82522
G1 X120.229 Y69.435 E11.83016
G1 X122.291 Y71.331 E11.88606
G1 X122.499 Y71.468 E11.89103
G1 X125.065 Y72.594 E11.94695
G1 X125.304 Y72.654 E11.95187
G0 F6000 X125.37 Y72.258
G1 F1200 X128.092 Y72.484 E12.00638
G1 X128.273 Y72.47 E12.01
G1 X130.926 Y71.799 E12.06461
G1 X131.093 Y71.726 E12.06825
G1 X133.381 Y70.23 E12.1228
G1 X133.514 Y70.105 E12.12644
G1 X135.191 Y67.952 E12.18091
G1 X135.277 Y67.793 E12.18451
G1 X136.163 Y65.208 E12.23905
G1 X136.195 Y65.03 E12.24265
G1 X136.196 Y62.292 E12.29729
G1 X136.164 Y62.114 E12.3009
G1 X135.278 Y59.529 E12.35544
G1 X135.192 Y59.37 E12.35904
G1 X133.515 Y57.217 E12.4135
G1 X133.382 Y57.092 E12.41715
G1 X131.094 Y55.596 E12.4717
G1 X130.927 Y55.523 E12.47534
G1 X128.277 Y54.852 E12.52989
G1 X128.096 Y54.837 E12.53351
G1 X125.371 Y55.062 E12.58808
G1 X125.196 Y55.106 E12.59168
G1 X122.692 Y56.204 E12.64624
G1 X122.54 Y56.305 E12.64989
G1 X120.527 Y58.156 E12.70446
G1 X120.417 Y58.3 E12.70808
G1 X119.119 Y60.7 E12.76253
G1 X119.059 Y60.871 E12.76614
G1 X118.609 Y63.566 E12.82067
G1 X118.608 Y63.746 E12.82426
G1 X119.058 Y66.449 E12.87894
G1 X119.118 Y66.62 E12.88256
G1 X120.416 Y69.02 E12.93701
G1 X120.526 Y69.164 E12.94063
G1 X122.539 Y71.015 E12.9952
G1 X122.691 Y71.116 E12.99884
G1 X125.195 Y72.214 E13.05341
G1 X125.37 Y72.258 E13.05701
G0 F6000 X125.436 Y71.862
;TYPE:WALL-OUTER
G1 F1200 X128.093 Y72.083 E13.11021
G1 X128.208 Y72.074 E13.11252
G1 X130.795 Y71.42 E13.16577
G1 X130.901 Y71.373 E13.16808
G1 X133.133 Y69.914 E13.22129
G1 X133.217 Y69.835 E13.22359
G1 X134.855 Y67.732 E13.27679
G1 X134.91 Y67.631 E13.27909
G1 X135.775 Y65.108 E13.33231
G1 X135.795 Y64.995 E13.3346
G1 X135.796 Y62.327 E13.38784
G1 X135.776 Y62.214 E13.39013
G1 X134.911 Y59.691 E13.44336
G1 X134.856 Y59.59 E13.44566
G1 X133.218 Y57.487 E13.49885
G1 X133.134 Y57.408 E13.50115
G1 X130.902 Y55.949 E13.55437
G1 X130.796 Y55.902 E13.55668
G1 X128.21 Y55.248 E13.60991
G1 X128.095 Y55.238 E13.61222
G1 X125.437 Y55.458 E13.66544
G1 X125.326 Y55.486 E13.66772
G1 X122.884 Y56.557 E13.72094
G1 X122.787 Y56.621 E13.72326
G1 X120.824 Y58.426 E13.77647
G1 X120.754 Y58.518 E13.77878
G1 X119.486 Y60.863 E13.83198
G1 X119.448 Y60.971 E13.83427
G1 X119.009 Y63.601 E13.88748
G1 X119.008 Y63.715 E13.88975
G1 X119.447 Y66.349 E13.94304
G1 X119.485 Y66.457 E13.94533
G1 X120.753 Y68.802 E13.99853
G1 X120.823 Y68.894 E14.00083
G1 X122.786 Y70.699 E14.05405
G1 X122.883 Y70.763 E14.05637
G1 X125.325 Y71.834 E14.10958
G1 X125.436 Y71.862 E14.11187
G0 F6000 X125.364 Y72.296
G1 F1500 E7.61187
G1 F300 Z0.32
G0 F6000 X117.18 Y56.376 Z0.32
;TYPE:WALL-INNER
G1 F300 Z0.12
G1 F1500 E14.11187
G1 F1200 X118.752 Y56.099 E14.14372
G1 X119.072 Y55.899 E14.15125
G1 X120.059 Y54.723 E14.18189
G1 X120.193 Y54.369 E14.18945
G1 X120.194 Y52.799 E14.22078
G1 X120.06 Y52.445 E14.22833
G1 X119.073 Y51.269 E14.25897
G1 X118.753 Y51.07 E14.26649
G1 X117.203 Y50.796 E14.2979
G1 X116.831 Y50.86 E14.30543
G1 X115.468 Y51.646 E14.33683
G1 X115.232 Y51.941 E14.34437
G1 X114.708 Y53.379 E14.37491
G1 X114.697 Y53.756 E14.38244
G1 X115.229 Y55.224 E14.4136
G1 X115.467 Y55.521 E14.4212
G1 X116.812 Y56.296 E14.45217
G1 X117.18 Y56.376 E14.45969
G0 F6000 X117.188 Y55.968
G1 F1200 X118.606 Y55.718 E14.48842
G1 X118.807 Y55.593 E14.49315
G1 X119.709 Y54.518 E14.52115
G1 X119.793 Y54.296 E14.52589
G1 X119.794 Y52.872 E14.5543
G1 X119.71 Y52.65 E14.55904
G1 X118.808 Y51.575 E14.58705
G1 X118.607 Y51.45 E14.59177
G1 X117.202 Y51.202 E14.62024
G1 X116.969 Y51.242 E14.62496
G1 X115.733 Y51.955 E14.65343
G1 X115.585 Y52.14 E14.65816
G1 X115.106 Y53.455 E14.68609
G1 X115.099 Y53.691 E14.6908
G1 X115.583 Y55.026 E14.71914
G1 X115.732 Y55.212 E14.7239
G1 X116.958 Y55.918 E14.75213
G1 X117.188 Y55.968 E14.75683
G0 F6000 X117.196 Y55.56
;TYPE:WALL-OUTER
G1 F1200 X118.461 Y55.337 E14.78246
G1 X118.542 Y55.287 E14.78436
G1 X119.359 Y54.313 E14.80973
G1 X119.393 Y54.223 E14.81165
G1 X119.394 Y52.945 E14.83715
G1 X119.36 Y52.855 E14.83907
G1 X118.543 Y51.881 E14.86444
G1 X118.462 Y51.831 E14.86634
G1 X117.201 Y51.608 E14.8919
G1 X117.107 Y51.624 E14.8938
G1 X115.998 Y52.264 E14.91935
G1 X115.938 Y52.339 E14.92127
G1 X115.504 Y53.532 E14.9466
G1 X115.501 Y53.627 E14.9485
G1 X115.937 Y54.828 E14.974
G1 X115.997 Y54.903 E14.97592
G1 X117.103 Y55.54 E15.00139
G1 X117.196 Y55.56 E15.00328
G0 F6000 X117.188 Y55.999
G1 F1500 E8.50328
G1 F300 Z0.32
G0 F6000 X117.012 Y47.171 Z0.32
;TYPE:WALL-INNER
G1 F300 Z0.12
G1 F1500 E15.00328
G1 F1200 X131.012 Y47.171 E15.28267
G1 X131.012 Y40.171 E15.42236
G1 X117.012 Y40.171 E15.70175
G1 X117.012 Y47.171 E15.84144
G0 F6000 X117.412 Y46.771
G1 F1200 X130.612 Y46.771 E16.10486
G1 X130.612 Y40.571 E16.22859
G1 X117.412 Y40.571 E16.49201
G1 X117.412 Y46.771 E16.61574
G0 F6000 X117.812 Y46.371
;TYPE:WALL-OUTER
G1 F1200 X130.212 Y46.371 E16.86319
G1 X130.212 Y40.971 E16.97095
G1 X117.812 Y40.971 E17.21841
G1 X117.812 Y46.371 E17.32617
G1 F1500 E10.82617
G1 F300 Z0.32
G0 F6000 X108.012 Y47.171 Z0.32
;TYPE:WALL-INNER
G1 F300 Z0.12
G1 F1500 E17.32617
G1 F1200 X108.012 Y40.171 E17.46586
G1 X94.012 Y40.171 E17.74525
G1 X94.012 Y47.171 E17.88494
G1 X108.012 Y47.171 E18.16433
G0 F6000 X107.612 Y46.771
G1 F1200 X107.612 Y40.571 E18.28806
G1 X94.412 Y40.571 E18.55148
G1 X94.412 Y46.771 E18.6752
G1 X107.612 Y46.771 E18.93862
G0 F6000 X107.212 Y46.371
;TYPE:WALL-OUTER
