;FLAVOR:Marlin
;TIME:12764
;Filament used: 13.2372m
;Layer height: 0.32
;MINX:76.835
;MINY:3.335
;MINZ:0.12
;MAXX:148.165
;MAXY:227.665
;MAXZ:3.96
;Generated with Cura_SteamEngine 4.12.1
M82 ;absolute extrusion mode
; Ender 3 Custom Start G-code
G92 E0 ; Reset Extruder
M140 S60 ; Нагреваем стол до заданной температуры.
M104 S200 T0 ; Нагреваем ХОТЕНД до заданной температуры.
M190 S60 ; Ждем нагрева стола.
M109 S200 T0 ; Ждем нагрева ХОТЕНДА. 
G28 ; Home all axes
G1 Z2.0 F3000 ; Move Z Axis up little to prevent scratching of Heat Bed
G1 X0.1 Y20 Z0.3 F5000.0 ; Move to start position
G1 X0.1 Y200.0 Z0.3 F1500.0 E15 ; Draw the first line
G1 X0.4 Y200.0 Z0.3 F5000.0 ; Move to side a little
G1 X0.4 Y20 Z0.3 F1500.0 E30 ; Draw the second line
G92 E0 ; Reset Extruder
G1 Z2.0 F3000 ; Move Z Axis up little to prevent scratching of Heat Bed
G1 X5 Y20 Z0.3 F5000.0 ; Move over to prevent blob squish
G92 E0
G92 E0
G1 F1500 E-6.5
;LAYER_COUNT:13
;LAYER:0
M107
;MESH:contruol.stl
G0 F6000 X108.646 Y118.627 Z0.12
;TYPE:WALL-INNER
G1 F1500 E0
G1 F1200 X110.312 Y117.866 E0.03655
G1 X110.564 Y117.644 E0.04325
G1 X111.539 Y116.126 E0.07926
G1 X111.638 Y115.807 E0.08592
G1 X111.639 Y113.974 E0.1225
G1 X111.54 Y113.653 E0.12921
G1 X110.565 Y112.135 E0.16521
G1 X110.314 Y111.913 E0.1719
G1 X108.656 Y111.154 E0.20829
G1 X108.323 Y111.107 E0.215
G1 X106.525 Y111.365 E0.25125
G1 X106.219 Y111.505 E0.25796
G1 X104.844 Y112.696 E0.29426
G1 X104.663 Y112.982 E0.30102
G1 X104.158 Y114.707 E0.33689
G1 X104.147 Y115.042 E0.34358
G1 X104.664 Y116.803 E0.3802
G1 X104.848 Y117.085 E0.38692
G1 X106.219 Y118.272 E0.42311
G1 X106.524 Y118.412 E0.42981
G1 X108.313 Y118.67 E0.46588
G1 X108.646 Y118.627 E0.47258
G0 F6000 X108.535 Y118.238
G1 F1200 X110.092 Y117.527 E0.50674
G1 X110.257 Y117.381 E0.51113
G1 X111.173 Y115.955 E0.54496
G1 X111.238 Y115.746 E0.54932
G1 X111.239 Y114.034 E0.58349
G1 X111.174 Y113.823 E0.58789
G1 X110.258 Y112.398 E0.6217
G1 X110.093 Y112.252 E0.6261
G1 X108.542 Y111.542 E0.66014
G1 X108.323 Y111.511 E0.66455
G1 X106.639 Y111.753 E0.6985
G1 X106.438 Y111.845 E0.70291
G1 X105.15 Y112.96 E0.73691
G1 X105.031 Y113.148 E0.74135
G1 X104.556 Y114.771 E0.7751
G1 X104.549 Y114.991 E0.77949
G1 X105.031 Y116.634 E0.81366
G1 X105.152 Y116.82 E0.81809
G1 X106.437 Y117.932 E0.852
G1 X106.638 Y118.024 E0.85641
G1 X108.316 Y118.266 E0.89025
G1 X108.535 Y118.238 E0.89465
G0 F6000 X108.425 Y117.849
;TYPE:WALL-OUTER
G1 F1200 X109.871 Y117.188 E0.92638
G1 X109.95 Y117.118 E0.92849
G1 X110.807 Y115.785 E0.96011
G1 X110.838 Y115.685 E0.9622
G1 X110.839 Y114.094 E0.99395
G1 X110.808 Y113.993 E0.99606
G1 X109.951 Y112.661 E1.02767
G1 X109.872 Y112.591 E1.02977
G1 X108.428 Y111.93 E1.06147
G1 X108.323 Y111.915 E1.06358
G1 X106.753 Y112.141 E1.09524
G1 X106.657 Y112.185 E1.09734
G1 X105.456 Y113.224 E1.12903
G1 X105.399 Y113.314 E1.13116
G1 X104.954 Y114.834 E1.16277
G1 X104.951 Y114.939 E1.16486
G1 X105.398 Y116.465 E1.1966
G1 X105.456 Y116.554 E1.19872
G1 X106.656 Y117.592 E1.23038
G1 X106.752 Y117.636 E1.23249
G1 X108.32 Y117.862 E1.2641
G1 X108.425 Y117.849 E1.26621
G0 F6000 X108.544 Y118.272
G1 F1500 E-5.23379
G0 F6000 X110.133 Y117.275
G0 X111.026 Y115.886
G0 X111.078 Y114.059
G0 X110.134 Y112.504
G0 X108.325 Y110.914
G0 X108.311 Y108.862
G0 X108.646 Y108.627
;TYPE:WALL-INNER
G1 F1500 E1.26621
G1 F1200 X110.312 Y107.866 E1.30276
G1 X110.564 Y107.644 E1.30947
G1 X111.539 Y106.126 E1.34547
G1 X111.638 Y105.807 E1.35214
G1 X111.639 Y103.974 E1.38871
G1 X111.54 Y103.653 E1.39542
G1 X110.565 Y102.135 E1.43142
G1 X110.314 Y101.913 E1.43811
G1 X108.656 Y101.154 E1.4745
G1 X108.323 Y101.107 E1.48121
G1 X106.525 Y101.365 E1.51746
G1 X106.219 Y101.505 E1.52417
G1 X104.844 Y102.696 E1.56048
G1 X104.663 Y102.982 E1.56723
G1 X104.158 Y104.707 E1.6031
G1 X104.147 Y105.042 E1.60979
G1 X104.664 Y106.803 E1.64641
G1 X104.848 Y107.085 E1.65313
G1 X106.219 Y108.272 E1.68932
G1 X106.524 Y108.412 E1.69602
G1 X108.313 Y108.67 E1.73209
G1 X108.646 Y108.627 E1.73879
G0 F6000 X108.535 Y108.238
G1 F1200 X110.092 Y107.527 E1.77295
G1 X110.257 Y107.381 E1.77735
G1 X111.173 Y105.955 E1.81117
G1 X111.238 Y105.746 E1.81554
G1 X111.239 Y104.034 E1.8497
G1 X111.174 Y103.823 E1.85411
G1 X110.258 Y102.398 E1.88791
G1 X110.093 Y102.252 E1.89231
G1 X108.542 Y101.542 E1.92635
G1 X108.323 Y101.511 E1.93076
G1 X106.639 Y101.753 E1.96472
G1 X106.438 Y101.845 E1.96913
G1 X105.15 Y102.96 E2.00312
G1 X105.031 Y103.148 E2.00756
G1 X104.556 Y104.771 E2.04131
G1 X104.549 Y104.991 E2.0457
G1 X105.031 Y106.634 E2.07987
G1 X105.152 Y106.82 E2.0843
G1 X106.437 Y107.932 E2.11821
G1 X106.638 Y108.024 E2.12263
G1 X108.316 Y108.266 E2.15646
G1 X108.535 Y108.238 E2.16086
G0 F6000 X108.425 Y107.849
;TYPE:WALL-OUTER
G1 F1200 X109.871 Y107.188 E2.19259
G1 X109.95 Y107.118 E2.1947
G1 X110.807 Y105.785 E2.22632
G1 X110.838 Y105.685 E2.22841
G1 X110.839 Y104.094 E2.26016
G1 X110.808 Y103.993 E2.26227
G1 X109.951 Y102.661 E2.29388
G1 X109.872 Y102.591 E2.29599
G1 X108.428 Y101.93 E2.32768
G1 X108.323 Y101.915 E2.32979
G1 X106.753 Y102.141 E2.36145
G1 X106.657 Y102.185 E2.36356
G1 X105.456 Y103.224 E2.39525
G1 X105.399 Y103.314 E2.39737
G1 X104.954 Y104.834 E2.42898
G1 X104.951 Y104.939 E2.43108
G1 X105.398 Y106.465 E2.46281
G1 X105.456 Y106.554 E2.46493
G1 X106.656 Y107.592 E2.49659
G1 X106.752 Y107.636 E2.4987
G1 X108.32 Y107.862 E2.53031
G1 X108.425 Y107.849 E2.53243
G0 F6000 X108.544 Y108.272
G1 F1500 E-3.96757
G0 F6000 X106.526 Y107.795
G0 X105.274 Y106.713
G0 X104.711 Y104.97
G0 X105.179 Y103.215
G0 X106.47 Y101.18
G0 X107.071 Y102.967
G0 X99.849 Y76.223
G0 X99.199 Y73.921
G0 X88.361 Y33.68
G0 X86.877 Y33.615
G0 X86.837 Y28.036
G0 X81.64 Y8.783
G0 X81.981 Y10.726
G0 X81.945 Y10.525
;TYPE:WALL-INNER
G1 F1500 E2.53243
G1 F1200 X83.464 Y9.649 E2.56742
G1 X84.065 Y8 E2.60244
G1 X83.464 Y6.351 E2.63747
G1 X81.945 Y5.475 E2.67246
G1 X80.218 Y5.779 E2.70746
G1 X79.09 Y7.122 E2.74246
G1 X79.09 Y8.878 E2.7775
G1 X80.218 Y10.221 E2.8125
G1 X81.945 Y10.525 E2.84749
G0 F6000 X81.871 Y10.106
G1 F1200 X83.138 Y9.375 E2.87668
G1 X83.639 Y8 E2.90589
G1 X83.138 Y6.625 E2.93509
G1 X81.871 Y5.894 E2.96428
G1 X80.431 Y6.148 E2.99346
G1 X79.49 Y7.268 E3.02266
G1 X79.49 Y8.732 E3.05187
G1 X80.431 Y9.852 E3.08106
G1 X81.871 Y10.106 E3.11024
G0 F6000 X81.797 Y9.687
;TYPE:WALL-OUTER
G1 F1200 X82.812 Y9.101 E3.13363
G1 X83.213 Y8 E3.15702
G1 X82.812 Y6.899 E3.1804
G1 X81.797 Y6.313 E3.20379
G1 X80.644 Y6.517 E3.22716
G1 X79.89 Y7.414 E3.25054
G1 X79.89 Y8.586 E3.27393
G1 X80.644 Y9.483 E3.29731
G1 X81.797 Y9.687 E3.32068
G0 F6000 X81.873 Y10.12
G1 F1500 E-3.17932
G0 F6000 X82.789 Y9.427
G0 X84.269 Y8
G0 X82.295 Y8
G0 X142.752 Y8.272
G0 X140.898 Y8.948
G0 X143.945 Y10.525
;TYPE:WALL-INNER
G1 F1500 E3.32068
G1 F1200 X145.464 Y9.649 E3.35567
G1 X146.065 Y8 E3.3907
G1 X145.464 Y6.351 E3.42572
G1 X143.945 Y5.475 E3.46072
G1 X142.218 Y5.779 E3.49571
G1 X141.09 Y7.122 E3.53071
G1 X141.09 Y8.878 E3.56575
G1 X142.218 Y10.221 E3.60075
G1 X143.945 Y10.525 E3.63575
G0 F6000 X143.871 Y10.106
G1 F1200 X145.138 Y9.375 E3.66494
G1 X145.639 Y8 E3.69414
G1 X145.138 Y6.625 E3.72335
G1 X143.871 Y5.894 E3.75254
G1 X142.431 Y6.148 E3.78172
G1 X141.49 Y7.268 E3.81091
G1 X141.49 Y8.732 E3.84013
G1 X142.431 Y9.852 E3.86932
G1 X143.871 Y10.106 E3.8985
G0 F6000 X143.797 Y9.687
;TYPE:WALL-OUTER
G1 F1200 X144.812 Y9.101 E3.92189
G1 X145.213 Y8 E3.94527
G1 X144.812 Y6.899 E3.96866
G1 X143.797 Y6.313 E3.99204
G1 X142.644 Y6.517 E4.01541
G1 X141.89 Y7.414 E4.0388
G1 X141.89 Y8.586 E4.06218
G1 X142.644 Y9.483 E4.08557
G1 X143.797 Y9.687 E4.10894
G0 F6000 X143.873 Y10.12
G1 F1500 E-2.39106
G0 F6000 X142.115 Y10.398
G0 X143.102 Y8.689
G0 X138.111 Y17.332
G0 X139.946 Y17.332
G0 X139.204 Y34.696
G0 X127.776 Y35.268
;TYPE:WALL-INNER
G1 F1500 E4.10894
G1 F1200 X139.776 Y35.268 E4.34841
G1 X139.776 Y13.268 E4.78744
G1 X127.776 Y13.268 E5.02691
G1 X127.776 Y35.268 E5.46595
G0 F6000 X128.176 Y34.868
G1 F1200 X139.376 Y34.868 E5.68946
G1 X139.376 Y13.668 E6.11253
G1 X128.176 Y13.668 E6.33603
G1 X128.176 Y34.868 E6.7591
G0 F6000 X128.576 Y34.468
;TYPE:WALL-OUTER
G1 F1200 X138.976 Y34.468 E6.96665
G1 X138.976 Y14.068 E7.37375
G1 X128.576 Y14.068 E7.58129
G1 X128.576 Y34.468 E7.9884
G1 F1500 E1.4884
G0 F6000 X128.276 Y34.468
G0 X127.586 Y23.089
G0 X129.441 Y23.089
G0 X121.292 Y20.675
G0 X122.983 Y21.542
G0 X119.961 Y23.089
;TYPE:WALL-INNER
G1 F1500 E7.9884
G1 F1200 X121.496 Y22.818 E8.0195
G1 X121.83 Y22.619 E8.02726
G1 X122.816 Y21.444 E8.05787
G1 X122.954 Y21.079 E8.06566
G1 X122.955 Y19.521 E8.09675
G1 X122.817 Y19.156 E8.10454
G1 X121.831 Y17.98 E8.13516
G1 X121.497 Y17.781 E8.14292
G1 X119.969 Y17.512 E8.17388
G1 X119.585 Y17.578 E8.18166
G1 X118.24 Y18.352 E8.21263
G1 X117.991 Y18.653 E8.22042
G1 X117.468 Y20.09 E8.25094
G1 X117.457 Y20.48 E8.25873
G1 X117.99 Y21.944 E8.28982
G1 X118.239 Y22.244 E8.2976
G1 X119.576 Y23.017 E8.32842
G1 X119.961 Y23.089 E8.33624
G0 F6000 X119.963 Y22.682
G1 F1200 X121.354 Y22.437 E8.36442
G1 X121.567 Y22.31 E8.36937
G1 X122.466 Y21.239 E8.39727
G1 X122.554 Y21.006 E8.40225
G1 X122.555 Y19.594 E8.43042
G1 X122.467 Y19.361 E8.43539
G1 X121.568 Y18.289 E8.46331
G1 X121.355 Y18.162 E8.46826
G1 X119.968 Y17.918 E8.49637
G1 X119.723 Y17.96 E8.50133
G1 X118.502 Y18.663 E8.52944
G1 X118.343 Y18.855 E8.53442
G1 X117.866 Y20.166 E8.56226
G1 X117.859 Y20.415 E8.56723
G1 X118.342 Y21.742 E8.59541
G1 X118.501 Y21.934 E8.60039
G1 X119.717 Y22.636 E8.62841
G1 X119.963 Y22.682 E8.6334
G0 F6000 X119.965 Y22.275
;TYPE:WALL-OUTER
G1 F1200 X121.212 Y22.056 E8.65867
G1 X121.304 Y22.001 E8.66081
G1 X122.116 Y21.034 E8.686
G1 X122.154 Y20.933 E8.68816
G1 X122.155 Y19.667 E8.71342
G1 X122.117 Y19.566 E8.71558
G1 X121.305 Y18.598 E8.74079
G1 X121.213 Y18.543 E8.74293
G1 X119.967 Y18.324 E8.76817
G1 X119.861 Y18.342 E8.77032
G1 X118.764 Y18.974 E8.79559
G1 X118.695 Y19.057 E8.79774
G1 X118.264 Y20.242 E8.8229
G1 X118.261 Y20.35 E8.82506
G1 X118.694 Y21.54 E8.85033
G1 X118.763 Y21.623 E8.85248
G1 X119.858 Y22.255 E8.87771
G1 X119.965 Y22.275 E8.87989
G0 F6000 X119.963 Y22.715
G1 F1500 E2.37989
G0 F6000 X118.743 Y21.899
G0 X117.265 Y20.511
G0 X114.555 Y18.953
G0 X112.949 Y19.042
;TYPE:WALL-INNER
G1 F1500 E8.87989
G1 F1200 X114.487 Y18.771 E8.91105
G1 X114.821 Y18.572 E8.91881
G1 X115.806 Y17.397 E8.94941
G1 X115.944 Y17.032 E8.9572
G1 X115.945 Y15.474 E8.98829
G1 X115.807 Y15.109 E8.99607
G1 X114.822 Y13.934 E9.02667
G1 X114.488 Y13.735 E9.03443
G1 X112.964 Y13.465 E9.06532
G1 X112.579 Y13.528 E9.0731
G1 X111.231 Y14.305 E9.10415
G1 X110.982 Y14.606 E9.11195
G1 X110.459 Y16.043 E9.14247
G1 X110.448 Y16.433 E9.15025
G1 X110.981 Y17.898 E9.18136
G1 X111.23 Y18.199 E9.18916
G1 X112.567 Y18.968 E9.21994
G1 X112.949 Y19.042 E9.2277
G0 F6000 X112.952 Y18.635
G1 F1200 X114.345 Y18.39 E9.25593
G1 X114.558 Y18.263 E9.26088
G1 X115.456 Y17.192 E9.28877
G1 X115.544 Y16.959 E9.29374
G1 X115.545 Y15.547 E9.32192
G1 X115.457 Y15.314 E9.32689
G1 X114.559 Y14.243 E9.35478
G1 X114.346 Y14.116 E9.35973
G1 X112.961 Y13.871 E9.3878
G1 X112.716 Y13.911 E9.39275
G1 X111.493 Y14.616 E9.42092
G1 X111.334 Y14.808 E9.4259
G1 X110.857 Y16.119 E9.45374
G1 X110.85 Y16.368 E9.45871
G1 X111.333 Y17.696 E9.48691
G1 X111.492 Y17.888 E9.49188
G1 X112.708 Y18.588 E9.51988
G1 X112.952 Y18.635 E9.52484
G0 F6000 X112.955 Y18.228
;TYPE:WALL-OUTER
G1 F1200 X114.203 Y18.009 E9.55013
G1 X114.295 Y17.954 E9.55227
G1 X115.106 Y16.987 E9.57745
G1 X115.144 Y16.886 E9.5796
G1 X115.145 Y15.62 E9.60487
G1 X115.107 Y15.519 E9.60702
G1 X114.296 Y14.552 E9.63221
G1 X114.204 Y14.497 E9.63435
G1 X112.958 Y14.277 E9.6596
G1 X112.852 Y14.294 E9.66174
G1 X111.755 Y14.927 E9.68702
G1 X111.686 Y15.01 E9.68917
G1 X111.255 Y16.195 E9.71433
G1 X111.252 Y16.303 E9.71649
G1 X111.685 Y17.494 E9.74178
G1 X111.754 Y17.577 E9.74393
G1 X112.849 Y18.208 E9.76915
G1 X112.955 Y18.228 E9.77131
G0 F6000 X112.952 Y18.668
G1 F1500 E3.27131
G0 F6000 X111.104 Y18.347
G0 X109.127 Y19.486
G0 X108.306 Y21.156
G0 X107.443 Y22.185
G0 X105.942 Y23.089
;TYPE:WALL-INNER
G1 F1500 E9.77131
G1 F1200 X107.478 Y22.818 E9.80243
G1 X107.812 Y22.619 E9.81019
G1 X108.797 Y21.444 E9.84079
G1 X108.935 Y21.079 E9.84857
G1 X108.936 Y19.521 E9.87967
G1 X108.798 Y19.156 E9.88745
G1 X107.813 Y17.98 E9.91807
G1 X107.479 Y17.781 E9.92583
G1 X105.95 Y17.512 E9.95681
G1 X105.566 Y17.578 E9.96458
G1 X104.222 Y18.352 E9.99553
G1 X103.973 Y18.653 E10.00333
G1 X103.45 Y20.09 E10.03385
G1 X103.439 Y20.48 E10.04163
G1 X103.972 Y21.944 E10.07272
G1 X104.221 Y22.244 E10.0805
G1 X105.557 Y23.017 E10.11131
G1 X105.942 Y23.089 E10.11912
G0 F6000 X105.944 Y22.682
G1 F1200 X107.336 Y22.437 E10.14733
G1 X107.549 Y22.31 E10.15228
G1 X108.447 Y21.239 E10.18017
G1 X108.535 Y21.006 E10.18514
G1 X108.536 Y19.594 E10.21332
G1 X108.448 Y19.361 E10.21829
G1 X107.55 Y18.289 E10.24619
G1 X107.337 Y18.162 E10.25114
G1 X105.949 Y17.918 E10.27927
G1 X105.704 Y17.96 E10.28423
G1 X104.484 Y18.663 E10.31233
G1 X104.325 Y18.855 E10.3173
G1 X103.848 Y20.166 E10.34514
G1 X103.841 Y20.415 E10.35011
G1 X104.324 Y21.742 E10.37829
G1 X104.483 Y21.934 E10.38327
G1 X105.698 Y22.636 E10.41127
G1 X105.944 Y22.682 E10.41627
G0 F6000 X105.946 Y22.275
;TYPE:WALL-OUTER
G1 F1200 X107.194 Y22.056 E10.44155
G1 X107.286 Y22.001 E10.44369
G1 X108.097 Y21.034 E10.46888
G1 X108.135 Y20.933 E10.47103
G1 X108.136 Y19.667 E10.4963
G1 X108.098 Y19.566 E10.49845
G1 X107.287 Y18.598 E10.52365
G1 X107.195 Y18.543 E10.52579
G1 X105.948 Y18.324 E10.55105
G1 X105.842 Y18.342 E10.5532
G1 X104.746 Y18.974 E10.57845
G1 X104.677 Y19.057 E10.5806
G1 X104.246 Y20.242 E10.60577
G1 X104.243 Y20.35 E10.60792
G1 X104.676 Y21.54 E10.63319
G1 X104.745 Y21.623 E10.63535
G1 X105.839 Y22.255 E10.66056
G1 X105.946 Y22.275 E10.66273
G0 F6000 X105.944 Y22.715
G1 F1500 E4.16273
G0 F6000 X107.546 Y23
G0 X110.269 Y24.1
G0 X111.465 Y25.679
G0 X112.951 Y27.136
;TYPE:WALL-INNER
G1 F1500 E10.66273
G1 F1200 X114.487 Y26.865 E10.69386
G1 X114.821 Y26.666 E10.70162
G1 X115.806 Y25.491 E10.73221
G1 X115.944 Y25.126 E10.74
G1 X115.945 Y23.567 E10.77111
G1 X115.807 Y23.202 E10.7789
G1 X114.822 Y22.027 E10.8095
G1 X114.488 Y21.828 E10.81726
G1 X112.964 Y21.558 E10.84814
G1 X112.579 Y21.621 E10.85593
G1 X111.231 Y22.4 E10.887
G1 X110.982 Y22.7 E10.89478
G1 X110.459 Y24.137 E10.9253
G1 X110.448 Y24.527 E10.93308
G1 X110.981 Y25.991 E10.96417
G1 X111.23 Y26.291 E10.97195
G1 X112.566 Y27.064 E11.00276
G1 X112.951 Y27.136 E11.01057
G0 F6000 X112.953 Y26.729
G1 F1200 X114.345 Y26.484 E11.03878
G1 X114.558 Y26.357 E11.04373
G1 X115.456 Y25.286 E11.07162
G1 X115.544 Y25.053 E11.07659
G1 X115.545 Y23.64 E11.10479
G1 X115.457 Y23.407 E11.10976
G1 X114.559 Y22.336 E11.13765
G1 X114.346 Y22.209 E11.1426
G1 X112.961 Y21.964 E11.17067
G1 X112.716 Y22.004 E11.17562
G1 X111.493 Y22.71 E11.2038
G1 X111.334 Y22.902 E11.20878
G1 X110.857 Y24.213 E11.23662
G1 X110.85 Y24.462 E11.24159
G1 X111.333 Y25.789 E11.26977
G1 X111.492 Y25.981 E11.27474
G1 X112.707 Y26.683 E11.30275
G1 X112.953 Y26.729 E11.30774
G0 F6000 X112.955 Y26.322
;TYPE:WALL-OUTER
G1 F1200 X114.203 Y26.103 E11.33303
G1 X114.295 Y26.048 E11.33517
G1 X115.106 Y25.081 E11.36035
G1 X115.144 Y24.98 E11.36251
G1 X115.145 Y23.713 E11.38779
G1 X115.107 Y23.612 E11.38994
G1 X114.296 Y22.645 E11.41513
G1 X114.204 Y22.59 E11.41727
G1 X112.958 Y22.37 E11.44252
G1 X112.852 Y22.387 E11.44466
G1 X111.755 Y23.021 E11.46995
G1 X111.686 Y23.104 E11.4721
G1 X111.255 Y24.289 E11.49726
G1 X111.252 Y24.397 E11.49942
G1 X111.685 Y25.587 E11.52469
G1 X111.754 Y25.67 E11.52684
G1 X112.848 Y26.302 E11.55206
G1 X112.955 Y26.322 E11.55423
G0 F6000 X112.953 Y26.762
G1 F1500 E5.05423
G0 F6000 X114.555 Y27.047
G0 X117.278 Y28.147
G0 X118.474 Y29.726
G0 X119.961 Y31.183
;TYPE:WALL-INNER
G1 F1500 E11.55423
G1 F1200 X121.496 Y30.912 E11.58534
G1 X121.83 Y30.713 E11.59309
G1 X122.816 Y29.538 E11.6237
G1 X122.954 Y29.173 E11.63149
G1 X122.955 Y27.614 E11.6626
G1 X122.817 Y27.249 E11.67039
G1 X121.831 Y26.074 E11.701
G1 X121.497 Y25.875 E11.70876
G1 X119.969 Y25.605 E11.73972
G1 X119.585 Y25.671 E11.7475
