;FLAVOR:Marlin
;TIME:11241
;Filament used: 12.5746m
;Layer height: 0.32
;MINX:66.835
;MINY:3.335
;MINZ:0.12
;MAXX:158.165
;MAXY:226.8
;MAXZ:3.96
;Generated with Cura_SteamEngine 4.12.1
M82 ;absolute extrusion mode
; Ender 3 Custom Start G-code
G92 E0 ; Reset Extruder
M140 S60 ; Нагреваем стол до заданной температуры.
M104 S200 T0 ; Нагреваем ХОТЕНД до заданной температуры.
M190 S60 ; Ждем нагрева стола.
M109 S200 T0 ; Ждем нагрева ХОТЕНДА. 
G28 ; Home all axes
G1 Z2.0 F3000 ; Move Z Axis up little to prevent scratching of Heat Bed
G1 X0.1 Y20 Z0.3 F5000.0 ; Move to start position
G1 X0.1 Y200.0 Z0.3 F1500.0 E15 ; Draw the first line
G1 X0.4 Y200.0 Z0.3 F5000.0 ; Move to side a little
G1 X0.4 Y20 Z0.3 F1500.0 E30 ; Draw the second line
G92 E0 ; Reset Extruder
G1 Z2.0 F3000 ; Move Z Axis up little to prevent scratching of Heat Bed
G1 X5 Y20 Z0.3 F5000.0 ; Move over to prevent blob squish
G92 E0
G92 E0
G1 F1500 E-6.5
;LAYER_COUNT:13
;LAYER:0
M107
;MESH:???????? ?????????? 1 .stl
G0 F6000 X152.724 Y10.387 Z0.12
;TYPE:WALL-INNER
G1 F1500 E0
G1 F1200 X153.344 Y10.502 E0.01258
G1 X153.97 Y10.463 E0.0251
G1 X154.569 Y10.269 E0.03767
G1 X155.096 Y9.933 E0.05014
G1 X155.529 Y9.477 E0.06269
G1 X155.833 Y8.922 E0.07532
G1 X155.988 Y8.313 E0.08786
G1 X155.988 Y7.687 E0.10035
G1 X155.833 Y7.078 E0.11289
G1 X155.529 Y6.523 E0.12552
G1 X155.096 Y6.067 E0.13807
G1 X154.569 Y5.731 E0.15054
G1 X153.97 Y5.537 E0.1631
G1 X153.344 Y5.498 E0.17562
G1 X152.724 Y5.613 E0.1882
G1 X152.156 Y5.884 E0.20076
G1 X151.672 Y6.283 E0.21328
G1 X151.303 Y6.792 E0.22583
G1 X151.072 Y7.377 E0.23838
G1 X150.992 Y8 E0.25091
G1 X151.072 Y8.623 E0.26345
G1 X151.303 Y9.208 E0.276
G1 X151.672 Y9.717 E0.28855
G1 X152.156 Y10.116 E0.30106
G1 X152.724 Y10.387 E0.31362
G0 F6000 X152.849 Y10.003
G1 F1200 X153.369 Y10.1 E0.32418
G1 X153.895 Y10.067 E0.3347
G1 X154.397 Y9.904 E0.34523
G1 X154.84 Y9.622 E0.35571
G1 X155.203 Y9.239 E0.36624
G1 X155.458 Y8.774 E0.37682
G1 X155.588 Y8.263 E0.38735
G1 X155.588 Y7.737 E0.39784
G1 X155.458 Y7.226 E0.40836
G1 X155.203 Y6.761 E0.41895
G1 X154.84 Y6.378 E0.42948
G1 X154.397 Y6.096 E0.43996
G1 X153.895 Y5.933 E0.45049
G1 X153.369 Y5.9 E0.46101
G1 X152.849 Y5.997 E0.47156
G1 X152.372 Y6.224 E0.48211
G1 X151.966 Y6.559 E0.49261
G1 X151.656 Y6.986 E0.50314
G1 X151.462 Y7.477 E0.51368
G1 X151.395 Y8 E0.5242
G1 X151.462 Y8.523 E0.53472
G1 X151.656 Y9.014 E0.54526
G1 X151.966 Y9.441 E0.55579
G1 X152.372 Y9.776 E0.56629
G1 X152.849 Y10.003 E0.57683
G0 F6000 X152.974 Y9.619
;TYPE:WALL-OUTER
G1 F1200 X153.394 Y9.698 E0.58536
G1 X153.819 Y9.671 E0.59386
G1 X154.225 Y9.539 E0.60238
G1 X154.584 Y9.311 E0.61087
G1 X154.877 Y9.001 E0.61938
G1 X155.083 Y8.626 E0.62792
G1 X155.188 Y8.213 E0.63642
G1 X155.188 Y7.787 E0.64492
G1 X155.083 Y7.374 E0.65343
G1 X154.877 Y6.999 E0.66197
G1 X154.584 Y6.689 E0.67048
G1 X154.225 Y6.461 E0.67896
G1 X153.819 Y6.329 E0.68748
G1 X153.394 Y6.302 E0.69598
G1 X152.974 Y6.381 E0.70451
G1 X152.588 Y6.564 E0.71304
G1 X152.26 Y6.835 E0.72153
G1 X152.009 Y7.18 E0.73004
G1 X151.852 Y7.577 E0.73856
G1 X151.798 Y8 E0.74707
G1 X151.852 Y8.423 E0.75558
G1 X152.009 Y8.82 E0.7641
G1 X152.26 Y9.165 E0.77261
G1 X152.588 Y9.436 E0.7811
G1 X152.974 Y9.619 E0.78963
G0 F6000 X152.838 Y10.037
G1 F1500 E-5.71037
G0 F6000 X152.052 Y10.278
G0 X152.052 Y12.988
G0 X147.072 Y13.75
G0 X146.5 Y20.178
;TYPE:WALL-INNER
G1 F1500 E0.78963
G1 F1200 X153.5 Y20.178 E0.92932
G1 X153.5 Y13.178 E1.06901
G1 X146.5 Y13.178 E1.20871
G1 X146.5 Y20.178 E1.3484
G0 F6000 X146.9 Y19.778
G1 F1200 X153.1 Y19.778 E1.47213
G1 X153.1 Y13.578 E1.59586
G1 X146.9 Y13.578 E1.71958
G1 X146.9 Y19.778 E1.84331
G0 F6000 X147.3 Y19.378
;TYPE:WALL-OUTER
G1 F1200 X152.7 Y19.378 E1.95107
G1 X152.7 Y13.978 E2.05884
G1 X147.3 Y13.978 E2.1666
G1 X147.3 Y19.378 E2.27436
G1 F1500 E-4.22564
G0 F6000 X147 Y19.378
G0 X146.33 Y18.251
G0 X148.165 Y18.251
G0 X148.165 Y36.114
G0 X146.33 Y36.114
G0 X146.5 Y40.178
;TYPE:WALL-INNER
G1 F1500 E2.27436
G1 F1200 X153.5 Y40.178 E2.41405
G1 X153.5 Y33.178 E2.55375
G1 X146.5 Y33.178 E2.69344
G1 X146.5 Y40.178 E2.83313
G0 F6000 X146.9 Y39.778
G1 F1200 X153.1 Y39.778 E2.95686
G1 X153.1 Y33.578 E3.08059
G1 X146.9 Y33.578 E3.20432
G1 X146.9 Y39.778 E3.32804
G0 F6000 X147.3 Y39.378
;TYPE:WALL-OUTER
G1 F1200 X152.7 Y39.378 E3.43581
G1 X152.7 Y33.978 E3.54357
G1 X147.3 Y33.978 E3.65133
G1 X147.3 Y39.378 E3.75909
G1 F1500 E-2.74091
G0 F6000 X147 Y39.378
G0 X146.33 Y38.251
G0 X148.165 Y38.251
G0 X133.573 Y38.513
G0 X133.573 Y40.348
G0 X128.5 Y40.178
;TYPE:WALL-INNER
G1 F1500 E3.75909
G1 F1200 X135.5 Y40.178 E3.89879
G1 X135.5 Y33.178 E4.03848
G1 X128.5 Y33.178 E4.17817
G1 X128.5 Y40.178 E4.31786
G0 F6000 X128.9 Y39.778
G1 F1200 X135.1 Y39.778 E4.44159
G1 X135.1 Y33.578 E4.56532
G1 X128.9 Y33.578 E4.68905
G1 X128.9 Y39.778 E4.81278
G0 F6000 X129.3 Y39.378
;TYPE:WALL-OUTER
G1 F1200 X134.7 Y39.378 E4.92054
G1 X134.7 Y33.978 E5.0283
G1 X129.3 Y33.978 E5.13606
G1 X129.3 Y39.378 E5.24383
G1 F1500 E-1.25617
G0 F6000 X129 Y39.378
G0 X128.33 Y38.251
G0 X130.165 Y38.251
G0 X91.529 Y18.571
G0 X91.223 Y18.525
G0 X72.032 Y8.639
G0 X73.219 Y10.081
G0 X71.97 Y10.463
;TYPE:WALL-INNER
G1 F1500 E5.24383
G1 F1200 X72.569 Y10.269 E5.25639
G1 X73.096 Y9.933 E5.26886
G1 X73.529 Y9.477 E5.28141
G1 X73.833 Y8.922 E5.29404
G1 X73.988 Y8.313 E5.30658
G1 X73.988 Y7.687 E5.31907
G1 X73.833 Y7.078 E5.33162
G1 X73.529 Y6.523 E5.34424
G1 X73.096 Y6.067 E5.35679
G1 X72.569 Y5.731 E5.36927
G1 X71.97 Y5.537 E5.38183
G1 X71.344 Y5.498 E5.39435
G1 X70.724 Y5.613 E5.40693
G1 X70.156 Y5.884 E5.41949
G1 X69.672 Y6.283 E5.43201
G1 X69.303 Y6.792 E5.44455
G1 X69.072 Y7.377 E5.45711
G1 X68.992 Y8 E5.46964
G1 X69.072 Y8.623 E5.48217
G1 X69.303 Y9.208 E5.49473
G1 X69.672 Y9.717 E5.50727
G1 X70.156 Y10.116 E5.51979
G1 X70.724 Y10.387 E5.53235
G1 X71.344 Y10.502 E5.54493
G1 X71.97 Y10.463 E5.55745
G0 F6000 X71.895 Y10.067
G1 F1200 X72.397 Y9.904 E5.56798
G1 X72.84 Y9.622 E5.57846
G1 X73.203 Y9.239 E5.58899
G1 X73.458 Y8.774 E5.59958
G1 X73.588 Y8.263 E5.6101
G1 X73.588 Y7.737 E5.6206
G1 X73.458 Y7.226 E5.63112
G1 X73.203 Y6.761 E5.6417
G1 X72.84 Y6.378 E5.65223
G1 X72.397 Y6.096 E5.66271
G1 X71.895 Y5.933 E5.67324
G1 X71.369 Y5.9 E5.68376
G1 X70.849 Y5.997 E5.69432
G1 X70.372 Y6.224 E5.70486
G1 X69.966 Y6.559 E5.71536
G1 X69.656 Y6.986 E5.72589
G1 X69.462 Y7.477 E5.73643
G1 X69.395 Y8 E5.74695
G1 X69.462 Y8.523 E5.75747
G1 X69.656 Y9.014 E5.76801
G1 X69.966 Y9.441 E5.77854
G1 X70.372 Y9.776 E5.78904
G1 X70.849 Y10.003 E5.79959
G1 X71.369 Y10.1 E5.81014
G1 X71.895 Y10.067 E5.82066
G0 F6000 X71.819 Y9.671
;TYPE:WALL-OUTER
G1 F1200 X72.225 Y9.539 E5.82918
G1 X72.584 Y9.311 E5.83767
G1 X72.877 Y9.001 E5.84618
G1 X73.083 Y8.626 E5.85472
G1 X73.188 Y8.213 E5.86322
G1 X73.188 Y7.787 E5.87172
G1 X73.083 Y7.374 E5.88023
G1 X72.877 Y6.999 E5.88877
G1 X72.584 Y6.689 E5.89728
G1 X72.225 Y6.461 E5.90576
G1 X71.819 Y6.329 E5.91428
G1 X71.394 Y6.302 E5.92278
G1 X70.974 Y6.381 E5.93131
G1 X70.588 Y6.564 E5.93984
G1 X70.26 Y6.835 E5.94833
G1 X70.009 Y7.18 E5.95684
G1 X69.852 Y7.577 E5.96536
G1 X69.798 Y8 E5.97387
G1 X69.852 Y8.423 E5.98238
G1 X70.009 Y8.82 E5.9909
G1 X70.26 Y9.165 E5.99941
G1 X70.588 Y9.436 E6.0079
G1 X70.974 Y9.619 E6.01643
G1 X71.394 Y9.698 E6.02496
G1 X71.819 Y9.671 E6.03346
G0 F6000 X71.901 Y10.103
G1 F1500 E-0.46654
G0 F6000 X73.219 Y10.081
G0 X72.032 Y8.639
G0 X92.506 Y18.513
G0 X92.506 Y20.348
G0 X96.57 Y20.178
;TYPE:WALL-INNER
G1 F1500 E6.03346
G1 F1200 X96.57 Y13.178 E6.17315
G1 X89.57 Y13.178 E6.31284
G1 X89.57 Y20.178 E6.45253
G1 X96.57 Y20.178 E6.59223
G0 F6000 X96.17 Y19.778
G1 F1200 X96.17 Y13.578 E6.71595
G1 X89.97 Y13.578 E6.83968
G1 X89.97 Y19.778 E6.96341
G1 X96.17 Y19.778 E7.08714
G0 F6000 X95.77 Y19.378
;TYPE:WALL-OUTER
G1 F1200 X95.77 Y13.978 E7.1949
G1 X90.37 Y13.978 E7.30266
G1 X90.37 Y19.378 E7.41043
G1 X95.77 Y19.378 E7.51819
G1 F1500 E1.01819
G0 F6000 X96.07 Y19.378
G0 X94.643 Y20.348
G0 X94.643 Y18.513
G0 X82.596 Y22.392
G0 X84.427 Y22.736
G0 X82.651 Y24.4
G0 X80.853 Y25.788
;TYPE:WALL-INNER
G1 F1500 E7.51819
G1 F1200 X81.553 Y25.655 E7.53241
G1 X82.207 Y25.399 E7.54642
G1 X82.794 Y25.034 E7.56022
G1 X83.318 Y24.553 E7.57441
G1 X83.736 Y24.002 E7.58821
G1 X84.051 Y23.361 E7.60247
G1 X84.239 Y22.7 E7.61618
G1 X84.305 Y22 E7.63021
G1 X84.239 Y21.301 E7.64422
G1 X84.043 Y20.617 E7.65842
G1 X83.734 Y19.996 E7.67227
G1 X83.302 Y19.428 E7.68651
G1 X82.792 Y18.964 E7.70027
G1 X82.194 Y18.594 E7.7143
G1 X81.529 Y18.34 E7.72851
G1 X80.851 Y18.212 E7.74227
G1 X80.147 Y18.212 E7.75632
G1 X79.447 Y18.345 E7.77054
G1 X78.793 Y18.601 E7.78456
G1 X78.206 Y18.966 E7.79835
G1 X77.682 Y19.447 E7.81255
G1 X77.264 Y19.998 E7.82635
G1 X76.949 Y20.639 E7.8406
G1 X76.761 Y21.301 E7.85433
G1 X76.695 Y22 E7.86835
G1 X76.761 Y22.701 E7.8824
G1 X76.958 Y23.383 E7.89656
G1 X77.266 Y24.004 E7.9104
G1 X77.698 Y24.572 E7.92464
G1 X78.208 Y25.036 E7.9384
G1 X78.806 Y25.406 E7.95243
G1 X79.471 Y25.66 E7.96664
G1 X80.149 Y25.788 E7.98041
G1 X80.853 Y25.788 E7.99446
G0 F6000 X80.815 Y25.388
G1 F1200 X81.442 Y25.269 E8.00719
G1 X82.027 Y25.04 E8.01973
G1 X82.551 Y24.714 E8.03204
G1 X83.021 Y24.283 E8.04477
G1 X83.394 Y23.791 E8.05709
G1 X83.676 Y23.217 E8.06985
G1 X83.844 Y22.626 E8.08211
G1 X83.903 Y22 E8.09466
G1 X83.844 Y21.375 E8.10719
G1 X83.669 Y20.762 E8.11991
G1 X83.393 Y20.208 E8.13226
G1 X83.006 Y19.699 E8.14502
G1 X82.55 Y19.285 E8.15731
G1 X82.016 Y18.954 E8.16985
G1 X81.42 Y18.726 E8.18259
G1 X80.814 Y18.612 E8.19489
G1 X80.185 Y18.612 E8.20744
G1 X79.558 Y18.731 E8.22018
G1 X78.973 Y18.96 E8.23272
G1 X78.449 Y19.286 E8.24503
G1 X77.979 Y19.717 E8.25776
G1 X77.606 Y20.209 E8.27008
G1 X77.324 Y20.783 E8.28284
G1 X77.156 Y21.375 E8.29512
G1 X77.097 Y22 E8.30765
G1 X77.156 Y22.626 E8.3202
G1 X77.332 Y23.238 E8.33291
G1 X77.607 Y23.792 E8.34525
G1 X77.994 Y24.301 E8.35801
G1 X78.45 Y24.715 E8.3703
G1 X78.984 Y25.046 E8.38284
G1 X79.58 Y25.274 E8.39557
G1 X80.186 Y25.388 E8.40788
G1 X80.815 Y25.388 E8.42043
G0 F6000 X80.777 Y24.988
;TYPE:WALL-OUTER
G1 F1200 X81.331 Y24.883 E8.43168
G1 X81.847 Y24.681 E8.44274
G1 X82.308 Y24.394 E8.45358
G1 X82.724 Y24.013 E8.46484
G1 X83.052 Y23.58 E8.47568
G1 X83.301 Y23.073 E8.48695
G1 X83.449 Y22.552 E8.49776
G1 X83.501 Y22 E8.50882
G1 X83.449 Y21.449 E8.51987
G1 X83.294 Y20.907 E8.53112
G1 X83.052 Y20.42 E8.54197
G1 X82.71 Y19.971 E8.55323
G1 X82.308 Y19.606 E8.56407
G1 X81.837 Y19.314 E8.57513
G1 X81.311 Y19.112 E8.58637
G1 X80.777 Y19.012 E8.59721
G1 X80.223 Y19.012 E8.60827
G1 X79.669 Y19.117 E8.61952
G1 X79.153 Y19.319 E8.63058
G1 X78.692 Y19.606 E8.64142
G1 X78.276 Y19.987 E8.65267
G1 X77.948 Y20.42 E8.66351
G1 X77.699 Y20.927 E8.67479
G1 X77.551 Y21.449 E8.68561
G1 X77.499 Y22 E8.69666
G1 X77.551 Y22.552 E8.70772
G1 X77.706 Y23.093 E8.71895
G1 X77.948 Y23.58 E8.72981
G1 X78.29 Y24.029 E8.74107
G1 X78.692 Y24.394 E8.75191
G1 X79.163 Y24.686 E8.76296
G1 X79.689 Y24.888 E8.77421
G1 X80.223 Y24.988 E8.78505
G1 X80.777 Y24.988 E8.79611
G0 F6000 X80.818 Y25.426
G1 F1500 E2.29611
G0 F6000 X80.853 Y25.978
G0 X80.697 Y24.124
G0 X80.699 Y69.153
G0 X80.853 Y67.299
G0 X82.887 Y69.085
G0 X83.256 Y69.57
G0 X83.518 Y70.097
G0 X83.685 Y70.682
G0 X83.742 Y71.277
G0 X83.685 Y71.873
G0 X83.525 Y72.437
G0 X83.257 Y72.981
G0 X82.902 Y73.452
G0 X80.853 Y75.065
;TYPE:WALL-INNER
G1 F1500 E8.79611
G1 F1200 X81.552 Y74.932 E8.81031
G1 X82.207 Y74.677 E8.82433
G1 X82.794 Y74.312 E8.83813
G1 X83.318 Y73.831 E8.85232
G1 X83.736 Y73.278 E8.86615
G1 X84.051 Y72.639 E8.88037
G1 X84.239 Y71.977 E8.89411
G1 X84.305 Y71.277 E8.90814
G1 X84.239 Y70.578 E8.92215
G1 X84.043 Y69.894 E8.93635
G1 X83.734 Y69.273 E8.95019
G1 X83.302 Y68.705 E8.96443
G1 X82.792 Y68.241 E8.97819
G1 X82.194 Y67.871 E8.99222
G1 X81.529 Y67.617 E9.00643
G1 X80.851 Y67.489 E9.0202
G1 X80.147 Y67.489 E9.03425
G1 X79.447 Y67.622 E9.04847
G1 X78.793 Y67.878 E9.06248
G1 X78.206 Y68.243 E9.07628
G1 X77.682 Y68.724 E9.09047
G1 X77.264 Y69.275 E9.10427
G1 X76.949 Y69.916 E9.11853
G1 X76.761 Y70.578 E9.13226
G1 X76.695 Y71.277 E9.14627
G1 X76.761 Y71.978 E9.16032
G1 X76.958 Y72.661 E9.17451
G1 X77.266 Y73.281 E9.18832
G1 X77.698 Y73.849 E9.20256
G1 X78.208 Y74.314 E9.21634
G1 X78.807 Y74.684 E9.23039
G1 X79.472 Y74.939 E9.2446
G1 X80.149 Y75.065 E9.25834
G1 X80.853 Y75.065 E9.27239
G0 F6000 X80.815 Y74.665
G1 F1200 X81.441 Y74.546 E9.28511
G1 X82.027 Y74.318 E9.29766
G1 X82.551 Y73.992 E9.30997
G1 X83.021 Y73.561 E9.3227
G1 X83.394 Y73.067 E9.33505
G1 X83.676 Y72.495 E9.34778
G1 X83.844 Y71.903 E9.36006
G1 X83.903 Y71.277 E9.3726
G1 X83.844 Y70.652 E9.38513
G1 X83.669 Y70.039 E9.39785
G1 X83.393 Y69.485 E9.41021
G1 X83.006 Y68.976 E9.42297
G1 X82.55 Y68.562 E9.43526
G1 X82.016 Y68.231 E9.4478
G1 X81.42 Y68.003 E9.46053
G1 X80.814 Y67.889 E9.47284
G1 X80.185 Y67.889 E9.48539
G1 X79.558 Y68.008 E9.49812
G1 X78.973 Y68.237 E9.51066
G1 X78.449 Y68.563 E9.52298
G1 X77.979 Y68.994 E9.5357
G1 X77.606 Y69.486 E9.54802
G1 X77.324 Y70.06 E9.56079
G1 X77.156 Y70.652 E9.57307
G1 X77.097 Y71.277 E9.58559
G1 X77.156 Y71.903 E9.59814
G1 X77.332 Y72.516 E9.61087
G1 X77.607 Y73.069 E9.62319
G1 X77.994 Y73.578 E9.63595
G1 X78.45 Y73.993 E9.64826
G1 X78.985 Y74.324 E9.66081
G1 X79.581 Y74.552 E9.67355
G1 X80.186 Y74.665 E9.68583
G1 X80.815 Y74.665 E9.69838
G0 F6000 X80.777 Y74.265
;TYPE:WALL-OUTER
G1 F1200 X81.33 Y74.16 E9.70962
G1 X81.847 Y73.959 E9.72068
G1 X82.308 Y73.672 E9.73152
G1 X82.724 Y73.291 E9.74278
G1 X83.052 Y72.856 E9.75365
G1 X83.301 Y72.351 E9.76489
G1 X83.449 Y71.829 E9.77571
G1 X83.501 Y71.277 E9.78678
G1 X83.449 Y70.726 E9.79782
G1 X83.294 Y70.184 E9.80907
G1 X83.052 Y69.697 E9.81993
G1 X82.71 Y69.248 E9.83119
G1 X82.308 Y68.883 E9.84203
G1 X81.837 Y68.591 E9.85308
G1 X81.311 Y68.389 E9.86433
G1 X80.777 Y68.289 E9.87517
G1 X80.223 Y68.289 E9.88623
G1 X79.669 Y68.394 E9.89748
G1 X79.153 Y68.596 E9.90854
G1 X78.692 Y68.883 E9.91937
G1 X78.276 Y69.264 E9.93063
G1 X77.948 Y69.697 E9.94147
G1 X77.699 Y70.204 E9.95274
G1 X77.551 Y70.726 E9.96357
G1 X77.499 Y71.277 E9.97462
G1 X77.551 Y71.829 E9.98568
G1 X77.706 Y72.371 E9.99693
G1 X77.948 Y72.857 E10.00777
G1 X78.29 Y73.307 E10.01904
G1 X78.692 Y73.672 E10.02988
G1 X79.163 Y73.964 E10.04094
G1 X79.69 Y74.165 E10.0522
G1 X80.223 Y74.265 E10.06302
G1 X80.777 Y74.265 E10.07407
G0 F6000 X80.818 Y74.703
G1 F1500 E3.57407
G0 F6000 X81.737 Y74.275
G0 X84.23 Y72.708
G0 X82.492 Y72.039
G0 X91.936 Y66.835
G0 X91.936 Y68.67
G0 X96 Y68.5
;TYPE:WALL-INNER
G1 F1500 E10.07407
G1 F1200 X96 Y61.5 E10.21377
G1 X89 Y61.5 E10.35346
G1 X89 Y68.5 E10.49315
G1 X96 Y68.5 E10.63284
G0 F6000 X95.6 Y68.1
G1 F1200 X95.6 Y61.9 E10.75657
G1 X89.4 Y61.9 E10.8803
G1 X89.4 Y68.1 E11.00403
G1 X95.6 Y68.1 E11.12775
G0 F6000 X95.2 Y67.7
;TYPE:WALL-OUTER
G1 F1200 X95.2 Y62.3 E11.23552
G1 X89.8 Y62.3 E11.34328
G1 X89.8 Y67.7 E11.45104
G1 X95.2 Y67.7 E11.55881
G1 F1500 E5.05881
G0 F6000 X95.5 Y67.7
G0 X96.17 Y65.564
G0 X94.335 Y65.564
G0 X110.267 Y54.113
G0 X109.889 Y55.93
G0 X112.213 Y55.997
;TYPE:WALL-INNER
G1 F1500 E11.55881
G1 F1200 X113.362 Y55.974 E11.58174
G1 X114.506 Y55.846 E11.60471
G1 X115.634 Y55.618 E11.62768
G1 X116.735 Y55.292 E11.65059
G1 X117.805 Y54.87 E11.67355
G1 X118.834 Y54.355 E11.69651
G1 X119.812 Y53.75 E11.71946
G1 X120.735 Y53.062 E11.74243
G1 X121.591 Y52.294 E11.76538
G1 X122.376 Y51.453 E11.78834
G1 X123.085 Y50.549 E11.81127
G1 X123.711 Y49.583 E11.83424
G1 X124.249 Y48.567 E11.85718
G1 X124.696 Y47.507 E11.88014
G1 X125.045 Y46.412 E11.90307
G1 X125.298 Y45.288 E11.92607
G1 X125.45 Y44.149 E11.949
G1 X125.5 Y43 E11.97195
G1 X125.45 Y41.851 E11.9949
G1 X125.298 Y40.712 E12.01783
G1 X125.045 Y39.588 E12.04082
G1 X124.696 Y38.493 E12.06376
G1 X124.249 Y37.433 E12.08671
G1 X123.711 Y36.417 E12.10966
G1 X123.085 Y35.451 E12.13263
G1 X122.376 Y34.547 E12.15556
G1 X121.591 Y33.706 E12.17851
G1 X120.735 Y32.938 E12.20146
G1 X119.812 Y32.25 E12.22444
G1 X118.834 Y31.645 E12.24739
G1 X117.805 Y31.13 E12.27035
G1 X116.735 Y30.708 E12.2933
G1 X115.634 Y30.382 E12.31622
G1 X114.506 Y30.154 E12.33918
G1 X113.362 Y30.026 E12.36216
G1 X112.213 Y30.003 E12.38509
