;FLAVOR:Marlin
;TIME:22319
;Filament used: 28.6703m
;Layer height: 0.2
;MINX:0
;MINY:2.394
;MINZ:0.2
;MAXX:216.916
;MAXY:220
;MAXZ:4
;TARGET_MACHINE.NAME:Creality Ender-3 S1
;Generated with Cura_SteamEngine 5.5.0
M82 ;absolute extrusion mode
; Ender 3 S1 Start G-code
; M413 S0 ; Disable power loss recovery
G92 E0 ; Reset Extruder

; Prep surfaces before auto home for better accuracy
M140 S60
M104 S200

G28 ; Home all axes
G1 Z10.0 F3000 ; Move Z Axis up little to prevent scratching of Heat Bed
G1 X0 Y0

M190 S60
M109 S200

G1 X0.1 Y20 Z0.3 F5000.0 ; Move to start position
G1 X0.1 Y200.0 Z0.3 F1500.0 E15 ; Draw the first line
G1 X0.4 Y200.0 Z0.3 F5000.0 ; Move to side a little
G1 X0.4 Y20 Z0.3 F1500.0 E30 ; Draw the second line
G92 E0 ; Reset Extruder
G1 Z2.0 F3000 ; Move Z Axis up little to prevent scratching of Heat Bed
G1 X5 Y20 Z0.3 F5000.0 ; Move over to prevent blob squish

G92 E0
G92 E0
G1 F2400 E-0.8
;LAYER_COUNT:20
;LAYER:0
M107
M204 S2000
G0 F7500 X0.00 Y71.257 Z0.2
M204 S500
;TYPE:SKIRT
G1 F2400 E0
G1 F1500 X3.677 Y63.397 E0.28862
G1 X4.049 Y62.627 E0.31706
G1 X4.347 Y62.058 E0.33842
G1 X4.621 Y61.58 E0.35675
G1 X9.621 Y53.253 E0.6798
G1 X9.988 Y52.658 E0.70305
G1 X10.347 Y52.115 E0.7247
G1 X10.691 Y51.635 E0.74434
G1 X16.483 Y43.915 E1.06534
G1 X16.953 Y43.306 E1.09093
G1 X17.397 Y42.769 E1.1141
G1 X17.84 Y42.271 E1.13627
G1 X24.337 Y35.254 E1.45433
G1 X24.82 Y34.747 E1.47762
G1 X25.301 Y34.275 E1.50004
G1 X25.823 Y33.797 E1.52358
G1 X32.992 Y27.498 E1.84099
G1 X33.55 Y27.022 E1.86538
G1 X34.041 Y26.628 E1.88632
G1 X34.592 Y26.218 E1.90916
G1 X42.287 Y20.748 E2.22317
G1 X43.021 Y20.241 E2.25285
G1 X43.632 Y19.851 E2.27695
G1 X44.186 Y19.526 E2.29832
G1 X52.347 Y14.906 E2.61023
G1 X53.093 Y14.498 E2.63851
G1 X53.733 Y14.174 E2.66237
G1 X54.396 Y13.87 E2.68663
G1 X63.035 Y10.097 E3.00017
G1 X63.75 Y9.798 E3.02595
G1 X64.29 Y9.589 E3.04521
G1 X64.914 Y9.373 E3.06717
G1 X74.132 Y6.429 E3.38902
G1 X74.828 Y6.218 E3.41321
G1 X75.509 Y6.037 E3.43664
G1 X75.998 Y5.924 E3.45334
G1 X85.444 Y3.95 E3.7743
G1 X86.189 Y3.805 E3.79954
G1 X86.82 Y3.702 E3.82081
G1 X87.38 Y3.632 E3.83958
G1 X97.083 Y2.629 E4.16402
G1 X97.748 Y2.57 E4.18622
G1 X98.214 Y2.539 E4.20176
G1 X98.983 Y2.507 E4.22736
G1 X103.008 Y2.404 E4.36127
G1 X104.343 Y2.394 E4.40568
G1 X108.793 Y2.503 E4.55373
G1 X109.674 Y2.538 E4.58305
G1 X110.147 Y2.567 E4.59882
G1 X110.838 Y2.627 E4.62188
G1 X120.091 Y3.585 E4.93129
G1 X120.966 Y3.687 E4.96059
G1 X121.688 Y3.797 E4.98488
G1 X122.184 Y3.889 E5.00165
G1 X131.612 Y5.86 E5.32201
G1 X132.37 Y6.029 E5.34784
G1 X133.058 Y6.209 E5.37149
G1 X133.664 Y6.389 E5.39252
G1 X142.656 Y9.26 E5.70647
G1 X143.458 Y9.529 E5.7346
G1 X143.994 Y9.725 E5.75359
G1 X144.579 Y9.963 E5.77459
G1 X153.309 Y13.777 E6.09145
G1 X154.141 Y14.155 E6.12185
G1 X154.754 Y14.459 E6.14461
G1 X155.383 Y14.799 E6.16839
G1 X163.675 Y19.493 E6.4853
G1 X164.281 Y19.85 E6.5087
G1 X164.743 Y20.138 E6.52681
G1 X165.3 Y20.513 E6.54914
G1 X173.176 Y26.111 E6.87052
G1 X173.77 Y26.546 E6.89501
G1 X174.249 Y26.919 E6.9152
G1 X174.722 Y27.316 E6.93574
G1 X181.876 Y33.601 E7.25247
G1 X182.587 Y34.245 E7.28437
G1 X183.087 Y34.731 E7.30756
G1 X183.527 Y35.189 E7.32869
G1 X190.022 Y42.21 E7.64681
G1 X190.508 Y42.753 E7.67104
G1 X190.951 Y43.282 E7.69399
G1 X191.361 Y43.81 E7.71623
G1 X196.972 Y51.288 E8.02718
G1 X197.464 Y51.962 E8.05493
G1 X197.849 Y52.529 E8.07772
G1 X198.267 Y53.191 E8.10376
G1 X203.127 Y61.287 E8.41783
G1 X203.511 Y61.948 E8.44326
G1 X203.794 Y62.472 E8.46306
G1 X204.064 Y63.014 E8.4832
G1 X208.121 Y71.681 E8.80149
G1 X208.46 Y72.429 E8.8288
G1 X208.68 Y72.956 E8.8478
G1 X208.925 Y73.604 E8.87084
G1 X212.11 Y82.758 E9.1932
G1 X212.341 Y83.457 E9.21769
G1 X212.536 Y84.123 E9.24077
G1 X212.648 Y84.556 E9.25565
G1 X214.883 Y94.024 E9.57921
G1 X215.041 Y94.73 E9.60327
G1 X215.15 Y95.292 E9.62231
G1 X215.248 Y95.932 E9.64385
G1 X216.475 Y105.409 E9.96168
G1 X216.577 Y106.28 E9.99085
G1 X216.633 Y106.954 E10.01335
G1 X216.664 Y107.639 E10.03615
G1 X216.907 Y117.067 E10.34983
G1 X216.916 Y117.912 E10.37794
G1 X216.906 Y118.472 E10.39657
G1 X216.875 Y119.093 E10.41725
G1 X216.138 Y128.62 E10.73506
G1 X216.058 Y129.505 E10.76462
G1 X215.965 Y130.234 E10.78906
G1 X215.846 Y130.961 E10.81356
G1 X214.157 Y140.217 E11.1265
G1 X214.005 Y140.982 E11.15244
G1 X213.838 Y141.696 E11.17683
G1 X213.66 Y142.349 E11.19934
G1 X211.064 Y151.267 E11.50827
G1 X210.797 Y152.138 E11.53857
G1 X210.614 Y152.678 E11.55753
G1 X210.386 Y153.285 E11.5791
G1 X206.748 Y162.23 E11.90028
G1 X206.451 Y162.934 E11.92569
G1 X206.142 Y163.595 E11.94996
G1 X205.819 Y164.229 E11.97362
G1 X201.438 Y172.459 E12.28372
G1 X201.021 Y173.216 E12.31247
G1 X200.725 Y173.72 E12.33191
G1 X200.408 Y174.217 E12.35151
G1 X195.071 Y182.153 E12.6696
G1 X194.563 Y182.885 E12.69924
G1 X194.14 Y183.453 E12.72279
G1 X193.676 Y184.028 E12.74737
G1 X187.641 Y191.262 E13.06071
G1 X187.135 Y191.851 E13.08653
G1 X186.724 Y192.302 E13.10683
G1 X186.301 Y192.732 E13.12689
G1 X179.357 Y199.502 E13.44945
G1 X178.825 Y200.004 E13.47378
G1 X178.381 Y200.4 E13.49356
G1 X177.928 Y200.776 E13.51314
G1 X170.308 Y206.807 E13.83636
G1 X169.748 Y207.236 E13.85983
G1 X169.295 Y207.566 E13.87847
G1 X168.757 Y207.927 E13.90002
G1 X160.72 Y213.043 E14.21689
G1 X159.931 Y213.527 E14.24768
G1 X159.411 Y213.828 E14.26766
G1 X158.906 Y214.095 E14.28666
G1 X150.244 Y218.425 E14.60875
G1 X149.565 Y218.753 E14.63383
G1 X148.898 Y219.047 E14.65807
G1 X148.278 Y219.292 E14.68025
G1 X146.399 Y220 E14.74703
M204 S2000
G1 F2400 E13.94703
G0 F7500 X103.96 Y218.049
G0 X93.405 Y217.504
G0 X82.96 Y215.878
G0 X72.739 Y213.186
G0 X62.847 Y209.456
G0 X53.394 Y204.731
G0 X44.474 Y199.058
G0 X36.186 Y192.498
G0 X28.616 Y185.121
G0 X21.845 Y177.005
G0 X15.943 Y168.234
G0 X10.976 Y158.903
G0 X6.995 Y149.113
G0 X4.04 Y138.964
G0 X2.145 Y128.565
G0 X1.329 Y118.026
G0 X0.00 Y72.199
M204 S500
G1 F2400 E14.74703
G1 F1500 X4.037 Y63.571 E15.06386
G1 X4.404 Y62.812 E15.0919
G1 X4.694 Y62.257 E15.11273
G1 X4.964 Y61.786 E15.13078
G1 X9.961 Y53.463 E15.45367
G1 X10.322 Y52.878 E15.47653
G1 X10.672 Y52.348 E15.49766
G1 X11.011 Y51.875 E15.51701
G1 X16.8 Y44.159 E15.83785
G1 X17.261 Y43.561 E15.86296
G1 X17.696 Y43.035 E15.88566
G1 X18.134 Y42.543 E15.90757
G1 X24.627 Y35.53 E16.22545
G1 X25.11 Y35.023 E16.24874
G1 X25.571 Y34.57 E16.27023
G1 X26.087 Y34.097 E16.29352
G1 X33.252 Y27.802 E16.61074
G1 X33.8 Y27.334 E16.6347
G1 X34.28 Y26.949 E16.65517
G1 X34.824 Y26.544 E16.67773
G1 X42.514 Y21.077 E16.99155
G1 X43.237 Y20.578 E17.02076
G1 X43.834 Y20.196 E17.04434
G1 X44.383 Y19.874 E17.06551
G1 X52.539 Y15.257 E17.37722
G1 X53.273 Y14.855 E17.40506
G1 X53.9 Y14.538 E17.42843
G1 X54.556 Y14.237 E17.45243
G1 X63.19 Y10.466 E17.7658
G1 X63.894 Y10.171 E17.79118
G1 X64.421 Y9.967 E17.80998
G1 X65.036 Y9.754 E17.83163
G1 X74.248 Y6.812 E18.15326
G1 X74.931 Y6.605 E18.177
G1 X75.612 Y6.424 E18.20044
G1 X76.08 Y6.316 E18.21641
G1 X85.52 Y4.343 E18.53717
G1 X86.254 Y4.2 E18.56205
G1 X86.87 Y4.099 E18.58281
G1 X87.421 Y4.03 E18.60128
G1 X97.118 Y3.027 E18.92552
G1 X97.774 Y2.969 E18.94742
G1 X98.231 Y2.939 E18.96266
G1 X98.993 Y2.907 E18.98802
G1 X103.011 Y2.804 E19.12171
G1 X104.333 Y2.794 E19.16568
G1 X108.777 Y2.903 E19.31353
G1 X109.649 Y2.937 E19.34256
G1 X110.113 Y2.966 E19.35802
G1 X110.797 Y3.025 E19.38085
G1 X120.045 Y3.982 E19.69008
G1 X120.906 Y4.082 E19.71891
G1 X121.615 Y4.19 E19.74277
G1 X122.102 Y4.281 E19.75925
G1 X131.525 Y6.25 E20.07942
G1 X132.269 Y6.416 E20.10478
G1 X132.944 Y6.592 E20.12798
G1 X133.542 Y6.77 E20.14873
G1 X142.529 Y9.639 E20.4625
G1 X143.32 Y9.904 E20.49025
G1 X143.843 Y10.096 E20.50878
G1 X144.419 Y10.33 E20.52946
G1 X153.144 Y14.141 E20.84613
G1 X153.963 Y14.513 E20.87605
G1 X154.564 Y14.811 E20.89836
G1 X155.186 Y15.147 E20.92187
G1 X163.472 Y19.838 E21.23856
G1 X164.07 Y20.19 E21.26164
G1 X164.52 Y20.47 E21.27927
G1 X165.068 Y20.839 E21.30125
G1 X172.94 Y26.434 E21.62246
G1 X173.524 Y26.862 E21.64655
G1 X173.992 Y27.226 E21.66627
G1 X174.458 Y27.616 E21.68648
G1 X181.607 Y33.897 E22.00299
G1 X182.308 Y34.532 E22.03445
G1 X182.798 Y35.008 E22.05717
G1 X183.233 Y35.461 E22.07806
G1 X189.724 Y42.477 E22.39596
G1 X190.201 Y43.01 E22.41975
G1 X190.635 Y43.528 E22.44223
G1 X191.041 Y44.05 E22.46422
G1 X196.649 Y51.524 E22.77501
G1 X197.133 Y52.187 E22.80231
G1 X197.511 Y52.742 E22.82464
G1 X197.924 Y53.397 E22.8504
G1 X202.781 Y61.488 E23.16427
G1 X203.159 Y62.138 E23.18928
G1 X203.436 Y62.65 E23.20864
G1 X203.702 Y63.184 E23.22848
G1 X207.757 Y71.846 E23.54659
G1 X208.091 Y72.583 E23.5735
G1 X208.306 Y73.097 E23.59203
G1 X208.547 Y73.735 E23.61471
G1 X211.73 Y82.883 E23.93687
G1 X211.957 Y83.57 E23.96093
G1 X212.149 Y84.223 E23.98357
G1 X212.259 Y84.648 E23.99817
G1 X214.493 Y94.111 E24.32157
G1 X214.648 Y94.806 E24.34525
G1 X214.757 Y95.368 E24.36429
G1 X214.851 Y95.983 E24.38498
G1 X216.078 Y105.455 E24.70265
G1 X216.178 Y106.313 E24.73139
G1 X216.233 Y106.972 E24.75338
G1 X216.264 Y107.649 E24.77592
G1 X216.507 Y117.071 E25.0894
G1 X216.516 Y117.905 E25.11714
G1 X216.507 Y118.452 E25.13534
G1 X216.476 Y119.062 E25.15565
G1 X215.74 Y128.584 E25.4733
G1 X215.661 Y129.454 E25.50236
G1 X215.57 Y130.169 E25.52633
G1 X215.452 Y130.889 E25.5506
G1 X213.765 Y140.139 E25.86333
G1 X213.616 Y140.891 E25.88882
G1 X213.452 Y141.591 E25.91274
G1 X213.276 Y142.237 E25.93501
G1 X210.681 Y151.15 E26.24376
G1 X210.418 Y152.01 E26.27367
G1 X210.24 Y152.537 E26.29217
G1 X210.015 Y153.134 E26.31339
G1 X206.38 Y162.074 E26.63438
G1 X206.088 Y162.765 E26.65933
G1 X205.786 Y163.413 E26.68311
G1 X205.466 Y164.041 E26.70655
G1 X201.088 Y172.266 E27.01646
G1 X200.676 Y173.014 E27.04486
G1 X200.388 Y173.505 E27.06379
G1 X200.076 Y173.994 E27.08308
G1 X194.742 Y181.925 E27.40098
G1 X194.242 Y182.646 E27.43016
G1 X193.828 Y183.202 E27.45322
G1 X193.369 Y183.772 E27.47756
G1 X187.338 Y191.001 E27.79068
G1 X186.839 Y191.582 E27.81616
G1 X186.438 Y192.022 E27.83596
G1 X186.022 Y192.446 E27.85571
G1 X179.082 Y199.211 E28.17806
G1 X178.558 Y199.706 E28.20204
G1 X178.126 Y200.092 E28.2213
G1 X177.68 Y200.462 E28.24058
G1 X170.065 Y206.49 E28.5636
G1 X169.513 Y206.913 E28.58673
G1 X169.072 Y207.234 E28.60488
G1 X168.542 Y207.59 E28.62611
G1 X160.511 Y212.702 E28.94275
G1 X159.731 Y213.181 E28.97319
G1 X159.224 Y213.474 E28.99267
G1 X158.727 Y213.737 E29.01137
G1 X150.07 Y218.065 E29.33328
G1 X149.404 Y218.387 E29.35788
G1 X148.751 Y218.675 E29.38162
G1 X148.137 Y218.918 E29.40358
G1 X145.266 Y220 E29.50563
M204 S2000
G1 F2400 E28.70563
G0 F7500 X93.405 Y217.504
G0 X82.96 Y215.878
G0 X72.739 Y213.186
G0 X62.847 Y209.456
G0 X53.394 Y204.731
G0 X44.474 Y199.058
G0 X36.186 Y192.498
G0 X28.616 Y185.121
G0 X21.845 Y177.005
G0 X15.943 Y168.234
G0 X10.976 Y158.903
G0 X6.995 Y149.113
G0 X4.04 Y138.964
G0 X2.145 Y128.565
G0 X1.329 Y118.026
G0 X0.00 Y73.221
M204 S500
G1 F2400 E29.50563
G1 F1500 X0.126 Y72.905 E29.51695
G1 X0.39 Y72.305 E29.53875
G1 X4.397 Y63.745 E29.8531
G1 X4.759 Y62.997 E29.88074
G1 X5.041 Y62.456 E29.90103
G1 X5.307 Y61.992 E29.91882
G1 X10.301 Y53.673 E30.24154
G1 X10.656 Y53.098 E30.26402
G1 X10.997 Y52.581 E30.28462
G1 X11.331 Y52.115 E30.30369
G1 X17.117 Y44.403 E30.62435
G1 X17.57 Y43.816 E30.64902
G1 X17.995 Y43.301 E30.67122
G1 X18.428 Y42.815 E30.69287
G1 X24.916 Y35.806 E31.01054
G1 X25.391 Y35.308 E31.03343
G1 X25.841 Y34.865 E31.05443
G1 X26.351 Y34.397 E31.07745
G1 X33.511 Y28.106 E31.39446
G1 X34.051 Y27.646 E31.41805
G1 X34.519 Y27.27 E31.43802
G1 X35.056 Y26.87 E31.46029
G1 X42.741 Y21.406 E31.77392
G1 X43.453 Y20.915 E31.80268
G1 X44.037 Y20.541 E31.82575
G1 X44.58 Y20.222 E31.84669
G1 X52.732 Y15.608 E32.15825
G1 X53.453 Y15.212 E32.18561
G1 X54.067 Y14.902 E32.20848
G1 X54.716 Y14.604 E32.23224
G1 X63.345 Y10.835 E32.54542
G1 X64.038 Y10.544 E32.57042
G1 X64.552 Y10.345 E32.58875
G1 X65.158 Y10.135 E32.61008
G1 X74.364 Y7.195 E32.93151
G1 X75.034 Y6.992 E32.9548
G1 X75.702 Y6.814 E32.97779
G1 X76.162 Y6.708 E32.99349
G1 X85.597 Y4.736 E33.31408
G1 X86.319 Y4.595 E33.33855
G1 X86.92 Y4.496 E33.35881
G1 X87.462 Y4.428 E33.37698
G1 X97.153 Y3.425 E33.70102
G1 X97.8 Y3.368 E33.72262
G1 X98.248 Y3.339 E33.73756
G1 X99.003 Y3.307 E33.76269
G1 X103.014 Y3.204 E33.89614
G1 X104.323 Y3.194 E33.93968
G1 X108.762 Y3.303 E34.08737
G1 X109.624 Y3.336 E34.11606
G1 X110.078 Y3.364 E34.13119
G1 X110.756 Y3.423 E34.15382
G1 X119.999 Y4.379 E34.46288
G1 X120.846 Y4.478 E34.49125
G1 X121.541 Y4.583 E34.51463
G1 X122.02 Y4.673 E34.53084
G1 X131.438 Y6.64 E34.85084
G1 X132.168 Y6.803 E34.87572
G1 X132.83 Y6.975 E34.89847
G1 X133.42 Y7.151 E34.91894
G1 X142.402 Y10.018 E35.23254
G1 X143.183 Y10.28 E35.25993
G1 X143.692 Y10.466 E35.27796
G1 X144.259 Y10.697 E35.29832
G1 X152.979 Y14.505 E35.6148
G1 X153.785 Y14.871 E35.64424
G1 X154.374 Y15.163 E35.66611
G1 X154.989 Y15.495 E35.68935
G1 X163.269 Y20.183 E36.00582
G1 X163.859 Y20.53 E36.02859
G1 X164.297 Y20.802 E36.04574
G1 X164.836 Y21.165 E36.06735
G1 X172.704 Y26.757 E36.3884
G1 X173.279 Y27.178 E36.41211
G1 X173.735 Y27.532 E36.43131
G1 X174.194 Y27.917 E36.45123
G1 X181.338 Y34.193 E36.76751
G1 X182.029 Y34.819 E36.79852
G1 X182.509 Y35.285 E36.82077
G1 X182.939 Y35.733 E36.84143
G1 X189.426 Y42.744 E37.15912
G1 X189.894 Y43.267 E37.18246
G1 X190.319 Y43.774 E37.20446
G1 X190.721 Y44.29 E37.22622
G1 X196.326 Y51.76 E37.53684
G1 X196.803 Y52.413 E37.56373
G1 X197.173 Y52.955 E37.58556
G1 X197.581 Y53.603 E37.61103
G1 X202.435 Y61.689 E37.92471
G1 X202.807 Y62.329 E37.94933
G1 X203.078 Y62.829 E37.96824
G1 X203.34 Y63.354 E37.98776
G1 X207.393 Y72.011 E38.30569
G1 X207.722 Y72.738 E38.33223
G1 X207.932 Y73.238 E38.35026
G1 X208.169 Y73.866 E38.37259
G1 X211.35 Y83.009 E38.69457
G1 X211.573 Y83.683 E38.71818
G1 X211.762 Y84.324 E38.7404
G1 X211.87 Y84.74 E38.7547
G1 X214.103 Y94.198 E39.07792
G1 X214.255 Y94.882 E39.10123
G1 X214.364 Y95.444 E39.12027
G1 X214.454 Y96.034 E39.14012
G1 X215.681 Y105.501 E39.45763
G1 X215.779 Y106.346 E39.48592
G1 X215.833 Y106.991 E39.50745
G1 X215.864 Y107.659 E39.52969
G1 X216.107 Y117.075 E39.84297
G1 X216.116 Y117.899 E39.87038
G1 X216.108 Y118.431 E39.88807
G1 X216.077 Y119.031 E39.90806
G1 X215.342 Y128.548 E40.22554
G1 X215.264 Y129.404 E40.25413
G1 X215.175 Y130.104 E40.27759
G1 X215.058 Y130.817 E40.30163
G1 X213.373 Y140.061 E40.61415
G1 X213.227 Y140.8 E40.6392
G1 X213.066 Y141.486 E40.66264
G1 X212.892 Y142.125 E40.68467
G1 X210.299 Y151.033 E40.99325
G1 X210.039 Y151.882 E41.02278
G1 X209.866 Y152.396 E41.04082
G1 X209.644 Y152.983 E41.06169
G1 X206.012 Y161.918 E41.38248
G1 X205.725 Y162.596 E41.40697
G1 X205.43 Y163.231 E41.43026
G1 X205.113 Y163.853 E41.45348
G1 X200.737 Y172.073 E41.7632
G1 X200.331 Y172.812 E41.79125
G1 X200.051 Y173.29 E41.80967
G1 X199.744 Y173.771 E41.82865
G1 X194.413 Y181.697 E42.14635
G1 X193.921 Y182.407 E42.17508
G1 X193.516 Y182.951 E42.19764
G1 X193.062 Y183.516 E42.22175
G1 X187.035 Y190.74 E42.53466
G1 X186.543 Y191.313 E42.55978
G1 X186.152 Y191.742 E42.57909
G1 X185.743 Y192.16 E42.59854
G1 X178.807 Y198.92 E42.92067
G1 X178.291 Y199.408 E42.94429
G1 X177.871 Y199.784 E42.96304
G1 X177.432 Y200.148 E42.98201
G1 X169.821 Y206.173 E43.30487
G1 X169.278 Y206.59 E43.32764
G1 X168.849 Y206.902 E43.34528
G1 X168.327 Y207.253 E43.36621
G1 X160.301 Y212.361 E43.68263
G1 X159.531 Y212.835 E43.7127
G1 X159.037 Y213.12 E43.73167
G1 X158.54 Y213.383 E43.75037
G1 X149.896 Y217.705 E44.07181
G1 X149.242 Y218.021 E44.09597
G1 X148.604 Y218.303 E44.11917
G1 X147.996 Y218.544 E44.14092
G1 X144.133 Y220 E44.27823
M204 S2000
G1 F2400 E43.47823
G0 F7500 X61.519 Y220
M204 S500
G1 F2400 E44.27823
G1 F1500 X59.715 Y219.32 E44.34235
G1 X59.064 Y219.063 E44.36563
G1 X58.536 Y218.837 E44.38473
G1 X57.981 Y218.577 E44.40512
G1 X49.352 Y214.265 E44.72596
G1 X48.634 Y213.894 E44.75284
G1 X47.93 Y213.495 E44.77975
G1 X47.339 Y213.131 E44.80284
G1 X39.586 Y208.199 E45.10846
G1 X38.801 Y207.685 E45.13967
G1 X38.212 Y207.269 E45.16365
G1 X37.659 Y206.845 E45.18683
G1 X30.264 Y200.991 E45.50052
G1 X29.648 Y200.489 E45.52695
