;FLAVOR:Marlin
;TIME:10187
;Filament used: 11.0805m
;Layer height: 0.32
;MINX:3.012
;MINY:88.058
;MINZ:0.2
;MAXX:225.612
;MAXY:154.008
;MAXZ:4.04
;Generated with Cura_SteamEngine 5.4.0
M140 S60
M105
M190 S60
M104 S200
M105
M109 S200
M82 ;absolute extrusion mode
; Ender 3 Custom Start G-code
G92 E0 ; Reset Extruder
G28 ; Home all axes
G1 Z2.0 F3000 ; Move Z Axis up little to prevent scratching of Heat Bed
G1 X0.1 Y20 Z0.3 F5000.0 ; Move to start position
G1 X0.1 Y200.0 Z0.3 F1500.0 E15 ; Draw the first line
G1 X0.4 Y200.0 Z0.3 F5000.0 ; Move to side a little
G1 X0.4 Y20 Z0.3 F1500.0 E30 ; Draw the second line
G92 E0 ; Reset Extruder
G1 Z2.0 F3000 ; Move Z Axis up little to prevent scratching of Heat Bed
G1 X5 Y20 Z0.3 F5000.0 ; Move over to prevent blob squish
G92 E0
G92 E0
G1 F2700 E-20
;LAYER_COUNT:13
;LAYER:0
M107
;MESH:antenn.stl
G0 F6000 X8.856 Y92.893 Z0.2
;TYPE:WALL-INNER
G1 F2700 E0
G1 F1200 X8.681 Y93.159 E0.01059
G1 X7.724 Y93.957 E0.05203
G1 X7.482 Y94.049 E0.06065
G1 X6.099 Y94.056 E0.10664
G1 X5.844 Y93.915 E0.11634
G1 X4.954 Y93.168 E0.15498
G1 X4.748 Y92.813 E0.16863
G1 X4.532 Y91.59 E0.20994
G1 X4.6 Y91.297 E0.21994
G1 X5.259 Y90.156 E0.26377
G1 X5.466 Y90.012 E0.27216
G1 X6.674 Y89.568 E0.31496
G1 X7.019 Y89.593 E0.32647
G1 X8.111 Y89.993 E0.36515
G1 X8.424 Y90.256 E0.37874
G1 X9.062 Y91.357 E0.42107
G1 X9.091 Y91.591 E0.42891
G1 X8.856 Y92.893 E0.47292
G1 F2700 E-19.52708
G0 F6000 X8.898 Y93.212
G0 X21.332 Y105.66
G0 X23.363 Y108.24
G1 F2700 E0.47292
G1 F781.8 X23.289 Y108.24 E0.47669
G1 X23.25 Y108.305 E0.48056
G1 X23.288 Y108.37 E0.48441
G1 X23.363 Y108.37 E0.48824
G1 X23.402 Y108.305 E0.49211
G1 F2700 E-19.50789
G0 F6000 X23.368 Y108.305
G0 X29.589 Y114.669
G0 X27.67 Y116.79
G0 X38.075 Y127.397
G0 X36.155 Y129.518
G0 X42.216 Y135.681
G0 X42.216 Y135.68
G1 F2700 E0.49211
G1 F1200 X42.298 Y136.011 E0.50345
G1 X42.155 Y136.287 E0.51379
G1 X40.679 Y137.764 E0.58324
G1 X40.337 Y137.895 E0.59542
G1 X40.009 Y137.772 E0.60707
G1 X40.011 Y138.121 E0.61868
G1 X39.939 Y138.241 E0.62333
G1 X39.749 Y138.403 E0.63164
G1 X39.047 Y138.709 E0.65711
G1 X38.287 Y139.002 E0.6842
G1 X37.614 Y139.231 E0.70784
G1 X37.392 Y139.262 E0.7153
G1 X37.207 Y139.224 E0.72158
G1 X36.995 Y139.087 E0.72997
G1 F1118.9 X36.197 Y138.284 E0.77036
G1 F892.2 X36.054 Y138.064 E0.7821
G1 X35.911 Y138.284 E0.79383
G1 F1118.9 X34.367 Y139.835 E0.8719
G1 F1200 X34.2 Y139.954 E0.87872
G1 X33.913 Y140.011 E0.88845
G1 X33.703 Y139.962 E0.89563
G1 X33.519 Y139.838 E0.90301
G1 X32.949 Y139.273 E0.9297
G1 X32.981 Y139.543 E0.93874
G1 X32.821 Y139.891 E0.95148
G1 X32.658 Y140.041 E0.95885
G1 X32.333 Y140.132 E0.97007
G1 X31.226 Y140.12 E1.0069
G1 X30.969 Y140.036 E1.01589
G1 X30.804 Y139.888 E1.02326
G1 X30.643 Y139.539 E1.03604
G1 X30.674 Y139.28 E1.04472
G1 X30.116 Y139.843 E1.07108
G1 X29.933 Y139.968 E1.07846
G1 X29.587 Y140.01 E1.09005
G1 F1159.4 X29.32 Y139.897 E1.10003
G1 F1083.5 X27.713 Y138.285 E1.18387
G1 F892.2 X27.569 Y138.064 E1.19567
G1 X27.425 Y138.285 E1.20747
G1 F1118.9 X26.628 Y139.087 E1.24781
G1 F1200 X26.414 Y139.224 E1.25626
G1 X26.23 Y139.262 E1.26251
G1 X26.009 Y139.231 E1.26993
G1 X25.359 Y139.01 E1.29276
G1 X24.554 Y138.699 E1.32147
G1 X23.874 Y138.404 E1.34612
G1 X23.683 Y138.241 E1.35447
G1 X23.611 Y138.121 E1.35912
G1 X23.612 Y137.773 E1.3707
G1 X23.286 Y137.895 E1.38228
G1 X22.967 Y137.787 E1.39348
G1 X21.476 Y136.296 E1.46361
G1 X21.326 Y136.016 E1.47418
G1 X21.408 Y135.678 E1.48574
G1 X21.071 Y135.761 E1.49729
G1 X20.836 Y135.65 E1.50593
G1 X19.325 Y134.14 E1.57698
G1 X19.206 Y133.9 E1.58589
G1 X19.288 Y133.556 E1.59765
G1 X18.945 Y133.639 E1.60939
G1 X18.714 Y133.528 E1.61791
G1 X17.245 Y132.064 E1.68689
G1 X17.128 Y131.899 E1.69362
G1 X17.078 Y131.741 E1.69913
G1 X17.159 Y131.443 E1.7094
G1 X16.861 Y131.525 E1.71968
G1 X16.568 Y131.386 E1.73047
G1 X15.074 Y129.887 E1.80086
G1 X14.951 Y129.583 E1.81177
G1 X15.076 Y129.227 E1.82432
G1 X14.699 Y129.22 E1.83686
G1 X14.456 Y128.997 E1.84783
G1 X14.113 Y128.218 E1.87614
G1 X13.852 Y127.533 E1.90052
G1 X13.574 Y126.717 E1.92919
G1 X13.62 Y126.429 E1.93889
G1 X13.757 Y126.216 E1.94732
G1 X14.515 Y125.459 E1.98295
G1 X14.841 Y125.383 E1.99408
G1 X14.968 Y125.403 E1.99836
G1 X14.968 Y125.149 E2.0068
G1 X14.841 Y125.169 E2.01108
G1 X14.573 Y125.106 E2.02024
G1 X14.417 Y124.994 E2.02662
G1 X12.971 Y123.536 E2.09492
G1 X12.877 Y123.377 E2.10107
G1 X12.835 Y123.105 E2.11022
G1 X12.888 Y122.902 E2.1172
G1 X13.008 Y122.729 E2.1242
G1 X13.594 Y122.142 E2.15179
G1 X13.303 Y122.202 E2.16167
G1 X12.96 Y122.043 E2.17424
G1 X12.817 Y121.888 E2.18126
G1 X12.722 Y121.642 E2.19003
G1 X12.715 Y120.441 E2.22998
G1 X12.809 Y120.177 E2.2393
G1 X12.956 Y120.022 E2.2464
G1 X13.3 Y119.863 E2.25901
G1 X13.56 Y119.894 E2.26771
G1 X13.007 Y119.344 E2.29366
G1 X12.885 Y119.168 E2.30078
G1 X12.834 Y118.979 E2.30729
G1 X12.875 Y118.694 E2.31687
G1 X12.968 Y118.537 E2.32294
G1 X14.416 Y117.07 E2.39149
G1 X14.572 Y116.958 E2.39788
G1 X14.841 Y116.896 E2.40706
G1 X14.968 Y116.917 E2.41134
G1 X14.968 Y116.663 E2.41979
G1 X14.841 Y116.683 E2.42407
G1 X14.515 Y116.607 E2.4352
G1 X13.757 Y115.849 E2.47085
G1 X13.619 Y115.634 E2.47935
G1 X13.573 Y115.346 E2.48905
G1 X13.842 Y114.558 E2.51675
G1 X14.13 Y113.809 E2.54344
G1 X14.456 Y113.068 E2.57036
G1 X14.699 Y112.844 E2.58135
G1 X15.076 Y112.838 E2.59389
G1 X14.951 Y112.482 E2.60644
G1 X15.074 Y112.179 E2.61732
G1 X16.591 Y110.661 E2.6887
G1 X16.861 Y110.541 E2.69853
G1 X17.179 Y110.642 E2.70962
G1 X17.078 Y110.324 E2.72072
G1 X17.198 Y110.054 E2.73055
G1 X18.714 Y108.538 E2.80186
G1 X18.945 Y108.427 E2.81038
G1 X19.31 Y108.531 E2.823
G1 X19.206 Y108.166 E2.83563
G1 X19.317 Y107.935 E2.84415
G1 X20.827 Y106.424 E2.9152
G1 X21.07 Y106.305 E2.9242
G1 X21.429 Y106.408 E2.93662
G1 X21.326 Y106.049 E2.94904
G1 X21.476 Y105.77 E2.95958
G1 X22.962 Y104.291 E3.02931
G1 X23.285 Y104.17 E3.04078
G1 X23.612 Y104.293 E3.0524
G1 X23.611 Y103.944 E3.06401
G1 X23.683 Y103.824 E3.06867
G1 X23.874 Y103.661 E3.07702
G1 X24.59 Y103.35 E3.10298
G1 X25.359 Y103.055 E3.13038
G1 X26.009 Y102.834 E3.15321
G1 X26.231 Y102.803 E3.16067
G1 X26.415 Y102.841 E3.16691
G1 X26.628 Y102.978 E3.17534
G1 X27.387 Y103.737 E3.21104
G1 X27.463 Y104.063 E3.22217
G1 X27.443 Y104.189 E3.22642
G1 X27.695 Y104.189 E3.2348
G1 X27.675 Y104.063 E3.23904
G1 X27.738 Y103.793 E3.24826
G1 X27.85 Y103.637 E3.25465
G1 X29.312 Y102.185 E3.32318
G1 X29.584 Y102.062 E3.33311
G1 X29.928 Y102.103 E3.34463
G1 X30.112 Y102.228 E3.35203
G1 X30.703 Y102.815 E3.37974
G1 X30.642 Y102.522 E3.38969
G1 X30.802 Y102.179 E3.40228
G1 X30.966 Y102.03 E3.40965
G1 X31.166 Y101.952 E3.41679
G1 X31.562 Y101.934 E3.42997
G1 X32.4 Y101.945 E3.45785
G1 X32.657 Y102.031 E3.46686
G1 X32.822 Y102.181 E3.47428
G1 X32.981 Y102.526 E3.48691
G1 X32.922 Y102.808 E3.4965
G1 X33.501 Y102.228 E3.52375
G1 X33.686 Y102.102 E3.5312
G1 X34.009 Y102.058 E3.54204
G1 X34.796 Y102.168 E3.56847
G1 X35.636 Y102.319 E3.59686
G1 X36.335 Y102.478 E3.6207
G1 X36.554 Y102.626 E3.62949
G1 X36.701 Y102.879 E3.63922
G1 X36.755 Y103.066 E3.6457
G1 X36.702 Y103.272 E3.65277
G1 X37.009 Y102.964 E3.66724
G1 X37.266 Y102.822 E3.677
G1 X37.53 Y102.812 E3.68579
G1 X38.285 Y103.063 E3.71225
G1 X39.044 Y103.354 E3.73929
G1 X39.749 Y103.662 E3.76488
G1 X39.939 Y103.823 E3.77316
G1 X40.011 Y103.943 E3.77781
G1 X40.009 Y104.293 E3.78946
G1 X40.336 Y104.17 E3.80108
G1 X40.528 Y104.214 E3.80763
G1 X40.675 Y104.297 E3.81324
G1 X42.173 Y105.8 E3.88382
G1 X42.299 Y106.055 E3.89328
G1 X42.196 Y106.407 E3.90548
G1 X42.548 Y106.304 E3.91768
G1 X42.823 Y106.447 E3.92799
G1 X44.298 Y107.925 E3.99744
G1 X44.417 Y108.162 E4.00626
G1 X44.314 Y108.531 E4.019
G1 X44.683 Y108.428 E4.03174
G1 X44.946 Y108.569 E4.04167
G1 X46.418 Y110.044 E4.11098
G1 X46.545 Y110.314 E4.1209
G1 X46.443 Y110.644 E4.13239
G1 X46.773 Y110.543 E4.14387
G1 X47.043 Y110.669 E4.15378
G1 X48.546 Y112.168 E4.22438
G1 X48.672 Y112.482 E4.23563
G1 X48.547 Y112.837 E4.24815
G1 X48.923 Y112.843 E4.26066
G1 X49.147 Y113.015 E4.27005
G1 X49.493 Y113.81 E4.29889
G1 X49.787 Y114.579 E4.32627
G1 X50.029 Y115.3 E4.35157
G1 X50.003 Y115.636 E4.36278
G1 X49.866 Y115.849 E4.3712
G1 F1121.5 X49.063 Y116.646 E4.41146
G1 F895.5 X48.842 Y116.789 E4.42319
G1 X49.063 Y116.934 E4.43497
G1 F1086 X50.697 Y118.57 E4.51996
G1 F1159.4 X50.79 Y118.943 E4.53319
G1 F1200 X50.737 Y119.159 E4.54059
G1 X50.616 Y119.333 E4.54763
G1 X50.031 Y119.923 E4.57527
G1 X50.321 Y119.863 E4.58512
G1 X50.669 Y120.022 E4.59784
G1 X50.814 Y120.176 E4.60488
G1 X50.913 Y120.433 E4.61404
G1 X50.9 Y121.672 E4.65525
G1 X50.807 Y121.888 E4.66307
G1 X50.663 Y122.043 E4.67011
G1 X50.321 Y122.201 E4.68264
G1 X50.058 Y122.17 E4.69145
G1 X50.616 Y122.724 E4.7176
G1 X50.737 Y122.897 E4.72462
G1 X50.792 Y123.149 E4.7332
G1 X50.758 Y123.348 E4.73992
G1 X50.656 Y123.529 E4.74683
G1 X49.206 Y124.994 E4.81538
G1 X49.05 Y125.106 E4.82177
G1 X48.782 Y125.169 E4.83093
G1 X48.655 Y125.149 E4.8352
G1 X48.655 Y125.403 E4.84365
G1 X48.782 Y125.383 E4.84793
G1 X49.108 Y125.459 E4.85906
G1 X49.866 Y126.216 E4.89469
G1 X50.003 Y126.43 E4.90314
G1 X50.031 Y126.774 E4.91462
G1 X49.781 Y127.507 E4.94038
G1 X49.509 Y128.219 E4.96573
G1 X49.147 Y129.051 E4.99591
G1 X48.923 Y129.223 E5.0053
G1 X48.547 Y129.229 E5.01781
G1 X48.672 Y129.583 E5.0303
G1 X48.582 Y129.861 E5.04002
G1 X47.043 Y131.396 E5.11231
G1 X46.773 Y131.522 E5.12222
G1 X46.463 Y131.441 E5.13288
G1 X46.544 Y131.751 E5.14354
G1 X46.418 Y132.021 E5.15345
G1 X44.92 Y133.52 E5.22393
G1 X44.682 Y133.638 E5.23277
G1 X44.335 Y133.556 E5.24462
G1 X44.417 Y133.903 E5.25648
G1 X44.299 Y134.141 E5.26532
G1 X42.802 Y135.637 E5.33571
G1 X42.547 Y135.762 E5.34516
G1 X42.216 Y135.68 E5.3565
G0 F6000 X42.216 Y135.681
G0 X40.338 Y133.761
G0 X40.373 Y133.761
G1 F781.8 X40.334 Y133.826 E5.36037
G1 X40.259 Y133.826 E5.3642
G1 X40.221 Y133.761 E5.36804
G1 X40.26 Y133.696 E5.37191
G1 X40.334 Y133.696 E5.37569
G0 F6000 X40.297 Y133.72
G0 X38.217 Y131.639
G0 X38.252 Y131.64
G1 F781.8 X38.213 Y131.705 E5.37956
G1 X38.138 Y131.705 E5.38339
G1 X38.1 Y131.64 E5.38723
G1 X38.139 Y131.575 E5.3911
G1 X38.213 Y131.575 E5.39488
G0 F6000 X38.176 Y131.598
G0 X36.095 Y129.518
G0 X36.13 Y129.518
G1 F781.8 X36.091 Y129.583 E5.39875
G1 X36.016 Y129.583 E5.40258
G1 X35.978 Y129.518 E5.40642
G1 X36.017 Y129.453 E5.41029
G1 X36.091 Y129.453 E5.41407
G0 F6000 X36.054 Y129.477
G0 X33.974 Y127.397
G0 X34.009 Y127.397
G1 F781.8 X33.97 Y127.462 E5.41794
G1 X33.895 Y127.462 E5.42177
G1 X33.857 Y127.397 E5.42561
G1 X33.896 Y127.332 E5.42948
G1 X33.97 Y127.332 E5.43326
G0 F6000 X33.933 Y127.356
G0 X31.853 Y125.275
G0 X31.888 Y125.276
G1 F781.8 X31.849 Y125.341 E5.43713
G1 X31.774 Y125.341 E5.44096
G1 X31.736 Y125.276 E5.44481
G1 X31.775 Y125.211 E5.44868
G1 X31.849 Y125.211 E5.45245
G0 F6000 X31.812 Y125.234
G0 X29.732 Y123.154
G0 X29.766 Y123.154
G1 F781.8 X29.727 Y123.219 E5.45632
G1 X29.652 Y123.219 E5.46015
G1 X29.614 Y123.154 E5.464
G1 X29.653 Y123.089 E5.46787
G1 X29.727 Y123.089 E5.47164
G0 F6000 X29.69 Y123.113
G0 X27.61 Y121.033
G0 X27.645 Y121.033
G1 F781.8 X27.606 Y121.098 E5.47551
G1 X27.531 Y121.098 E5.47934
G1 X27.493 Y121.033 E5.48319
G1 X27.532 Y120.968 E5.48706
G1 X27.606 Y120.968 E5.49084
G0 F6000 X27.569 Y120.992
G0 X25.489 Y118.911
G0 X25.524 Y118.912
G1 F781.8 X25.485 Y118.977 E5.49471
G1 X25.41 Y118.977 E5.49853
G1 X25.372 Y118.912 E5.50238
G1 X25.411 Y118.847 E5.50625
G1 X25.485 Y118.847 E5.51003
G0 F6000 X25.448 Y118.87
G0 X23.368 Y116.79
G0 X23.402 Y116.79
G1 F781.8 X23.363 Y116.855 E5.5139
G1 X23.288 Y116.855 E5.51773
G1 X23.25 Y116.79 E5.52157
G1 X23.289 Y116.725 E5.52544
G1 X23.363 Y116.725 E5.52922
G0 F6000 X23.326 Y116.749
G0 X21.246 Y114.669
G0 X21.281 Y114.669
G1 F781.8 X21.242 Y114.734 E5.53309
G1 X21.167 Y114.734 E5.53692
G1 X21.129 Y114.669 E5.54076
G1 X21.168 Y114.604 E5.54463
G1 X21.242 Y114.604 E5.54841
G0 F6000 X21.205 Y114.628
G0 X19.125 Y112.548
G0 X19.16 Y112.548
G1 F781.8 X19.121 Y112.613 E5.55228
G1 X19.046 Y112.613 E5.55611
G1 X19.008 Y112.548 E5.55995
G1 X19.047 Y112.483 E5.56382
G1 X19.121 Y112.483 E5.5676
G0 F6000 X19.084 Y112.506
G0 X21.246 Y110.426
G0 X21.281 Y110.426
G1 F781.8 X21.242 Y110.491 E5.57147
G1 X21.167 Y110.491 E5.5753
G1 X21.129 Y110.426 E5.57914
G1 X21.168 Y110.361 E5.58301
G1 X21.242 Y110.361 E5.58679
G0 F6000 X21.205 Y110.385
G0 X23.326 Y112.506
G0 X23.364 Y112.481
G1 F779.2 X23.288 Y112.481 E5.59068
G1 X23.249 Y112.547 E5.59461
G1 X23.288 Y112.613 E5.59854
G1 X23.364 Y112.613 E5.60243
G1 X23.403 Y112.547 E5.60636
G0 F6000 X23.368 Y112.548
G0 X25.448 Y114.628
G0 X25.485 Y114.604
G1 F781.8 X25.411 Y114.604 E5.61014
G1 X25.372 Y114.669 E5.61401
G1 X25.41 Y114.734 E5.61785
G1 X25.485 Y114.734 E5.62168
G1 X25.524 Y114.669 E5.62555
G0 F6000 X25.489 Y114.669
G0 X27.569 Y116.749
G0 X27.606 Y116.725
G1 F781.8 X27.532 Y116.725 E5.62933
G1 X27.493 Y116.79 E5.6332
G1 X27.531 Y116.855 E5.63704
G1 X27.606 Y116.855 E5.64087
G1 X27.645 Y116.79 E5.64474
G0 F6000 X27.61 Y116.79
G0 X29.69 Y118.87
G0 X29.728 Y118.845
G1 F779.2 X29.652 Y118.845 E5.64863
G1 X29.613 Y118.911 E5.65256
G1 X29.652 Y118.977 E5.65649
G1 X29.728 Y118.977 E5.66038
G1 X29.767 Y118.911 E5.6643
G0 F6000 X29.732 Y118.911
G0 X31.812 Y120.992
G0 X31.849 Y120.968
G1 F781.8 X31.775 Y120.968 E5.66808
G1 X31.736 Y121.033 E5.67195
G1 X31.774 Y121.098 E5.6758
G1 X31.849 Y121.098 E5.67963
G1 X31.888 Y121.033 E5.6835
G0 F6000 X31.853 Y121.033
G0 X33.933 Y123.113
G0 X33.97 Y123.089
G1 F781.8 X33.896 Y123.089 E5.68727
G1 X33.857 Y123.154 E5.69114
G1 X33.895 Y123.219 E5.69499
G1 X33.97 Y123.219 E5.69882
G1 X34.009 Y123.154 E5.70269
G0 F6000 X33.974 Y123.154
G0 X36.054 Y125.234
G0 X36.091 Y125.211
G1 F781.8 X36.017 Y125.211 E5.70647
G1 X35.978 Y125.276 E5.71034
G1 X36.016 Y125.341 E5.71418
G1 X36.091 Y125.341 E5.71801
G1 X36.13 Y125.276 E5.72188
G0 F6000 X36.095 Y125.275
G0 X38.176 Y127.356
G0 X38.213 Y127.332
G1 F781.8 X38.139 Y127.332 E5.72566
G1 X38.1 Y127.397 E5.72953
G1 X38.138 Y127.462 E5.73337
G1 X38.213 Y127.462 E5.7372
G1 X38.252 Y127.397 E5.74107
G0 F6000 X38.217 Y127.397
G0 X40.297 Y129.477
G0 X40.334 Y129.453
G1 F781.8 X40.26 Y129.453 E5.74485
G1 X40.221 Y129.518 E5.74872
G1 X40.259 Y129.583 E5.75256
G1 X40.334 Y129.583 E5.75639
G1 X40.373 Y129.518 E5.76026
G0 F6000 X40.338 Y129.518
G0 X42.418 Y131.598
G0 X42.455 Y131.575
G1 F781.8 X42.381 Y131.575 E5.76404
G1 X42.342 Y131.64 E5.76791
G1 X42.38 Y131.705 E5.77175
G1 X42.455 Y131.705 E5.77558
G1 X42.494 Y131.64 E5.77945
G0 F6000 X42.459 Y131.639
G0 X44.581 Y129.518
G0 X44.616 Y129.518
G1 F781.8 X44.577 Y129.583 E5.78332
G1 X44.502 Y129.583 E5.78715
G1 X44.464 Y129.518 E5.791
G1 X44.503 Y129.453 E5.79487
G1 X44.577 Y129.453 E5.79864
G0 F6000 X44.54 Y129.477
G0 X42.459 Y127.397
G0 X42.494 Y127.397
G1 F781.8 X42.455 Y127.462 E5.80251
G1 X42.38 Y127.462 E5.80634
G1 X42.342 Y127.397 E5.81019
G1 X42.381 Y127.332 E5.81406
G1 X42.455 Y127.332 E5.81783
G0 F6000 X42.418 Y127.356
G0 X40.338 Y125.275
G0 X40.373 Y125.276
G1 F781.8 X40.334 Y125.341 E5.8217
G1 X40.259 Y125.341 E5.82553
G1 X40.221 Y125.276 E5.82938
G1 X40.26 Y125.211 E5.83325
G1 X40.334 Y125.211 E5.83703
G0 F6000 X40.297 Y125.234
G0 X38.217 Y123.154
G0 X38.252 Y123.154
G1 F781.8 X38.213 Y123.219 E5.8409
G1 X38.138 Y123.219 E5.84472
G1 X38.1 Y123.154 E5.84857
G1 X38.139 Y123.089 E5.85244
G1 X38.213 Y123.089 E5.85622
G0 F6000 X38.176 Y123.113
G0 X36.095 Y121.033
G0 X36.13 Y121.033
G1 F781.8 X36.091 Y121.098 E5.86009
G1 X36.016 Y121.098 E5.86392
G1 X35.978 Y121.033 E5.86776
G1 X36.017 Y120.968 E5.87163
G1 X36.091 Y120.968 E5.87541
G0 F6000 X36.054 Y120.992
G0 X33.974 Y118.911
G0 X34.009 Y118.912
G1 F781.8 X33.97 Y118.977 E5.87928
G1 X33.895 Y118.977 E5.88311
G1 X33.857 Y118.912 E5.88695
G1 X33.896 Y118.847 E5.89082
G1 X33.97 Y118.847 E5.8946
G0 F6000 X33.933 Y118.87
G0 X31.853 Y116.79
G0 X31.888 Y116.79
G1 F781.8 X31.849 Y116.855 E5.89847
G1 X31.774 Y116.855 E5.9023
G1 X31.736 Y116.79 E5.90614
G1 X31.775 Y116.725 E5.91001
G1 X31.849 Y116.725 E5.91379
G0 F6000 X31.812 Y116.749
G0 X29.732 Y114.669
G0 X29.766 Y114.669
