;FLAVOR:Marlin
;TIME:17502
;Filament used: 10.5252m
;Layer height: 0.2
;MINX:96.503
;MINY:50.5
;MINZ:0.2
;MAXX:138.497
;MAXY:184.5
;MAXZ:155
;Generated with Cura_SteamEngine 5.2.2
M140 S50
M105
M190 S50
M104 S200
M105
M109 S200
M82 ;absolute extrusion mode
; Ender 3 Custom Start G-code
G92 E0 ; Reset Extruder
G28 ; Home all axes
G1 Z2.0 F3000 ; Move Z Axis up little to prevent scratching of Heat Bed
G1 X0.1 Y20 Z0.3 F5000.0 ; Move to start position
G1 X0.1 Y200.0 Z0.3 F1500.0 E15 ; Draw the first line
G1 X0.4 Y200.0 Z0.3 F5000.0 ; Move to side a little
G1 X0.4 Y20 Z0.3 F1500.0 E30 ; Draw the second line
G92 E0 ; Reset Extruder
G1 Z2.0 F3000 ; Move Z Axis up little to prevent scratching of Heat Bed
G1 X5 Y20 Z0.3 F5000.0 ; Move over to prevent blob squish
G92 E0
G92 E0
G1 F2700 E-5
;LAYER_COUNT:775
;LAYER:0
M107
G0 F6000 X98.366 Y56.947 Z0.2
;TYPE:SKIRT
G1 F2700 E0
G1 F1200 X98.84 Y56.138 E0.03119
G1 X99.38 Y55.371 E0.06238
G1 X99.985 Y54.654 E0.09359
G1 X100.648 Y53.991 E0.12477
G1 X101.365 Y53.387 E0.15595
G1 X102.131 Y52.846 E0.18715
G1 X102.94 Y52.372 E0.21833
G1 X103.779 Y51.972 E0.24925
G1 X104.554 Y51.642 E0.27726
G1 X105.44 Y51.287 E0.30901
G1 X106.325 Y50.978 E0.34019
G1 X107.234 Y50.746 E0.37139
G1 X108.159 Y50.592 E0.40258
G1 X109.315 Y50.512 E0.44112
G1 X110.095 Y50.5 E0.46706
G1 X124.973 Y50.503 E0.96191
G1 X125.672 Y50.513 E0.98516
G1 X126.609 Y50.567 E1.01638
G1 X127.537 Y50.699 E1.04755
G1 X128.451 Y50.911 E1.07876
G1 X129.603 Y51.3 E1.1192
G1 X130.629 Y51.715 E1.15601
G1 X131.274 Y51.994 E1.17938
G1 X132.118 Y52.403 E1.21058
G1 X132.924 Y52.882 E1.24176
G1 X133.687 Y53.428 E1.27297
G1 X134.4 Y54.037 E1.30416
G1 X135.059 Y54.705 E1.33537
G1 X135.658 Y55.426 E1.36654
G1 X136.194 Y56.195 E1.39772
G1 X136.663 Y57.008 E1.42894
G1 X137.024 Y57.772 E1.45704
G1 X137.444 Y58.764 E1.49287
G1 X137.712 Y59.438 E1.51699
G1 X138.021 Y60.323 E1.54817
G1 X138.253 Y61.232 E1.57938
G1 X138.407 Y62.157 E1.61056
G1 X138.488 Y63.302 E1.64874
G1 X138.497 Y64.12 E1.67595
G1 X138.488 Y64.677 E1.69448
G1 X138.432 Y65.613 E1.72567
G1 X138.298 Y66.541 E1.75685
G1 X138.008 Y67.716 E1.79711
G1 X137.665 Y68.837 E1.8361
G1 X136.945 Y71.316 E1.92196
G1 X136.309 Y73.757 E2.00585
G1 X135.742 Y76.218 E2.08985
G1 X135.242 Y78.712 E2.17445
G1 X134.786 Y81.365 E2.26399
G1 X134.465 Y82.716 E2.31017
G1 X134.195 Y83.6 E2.34091
G1 X133.912 Y84.483 E2.37175
G1 X133.202 Y86.92 E2.45618
G1 X132.569 Y89.351 E2.53973
G1 X132.001 Y91.812 E2.62374
G1 X131.503 Y94.294 E2.70793
G1 X131.082 Y96.742 E2.79055
G1 X130.726 Y99.246 E2.87467
G1 X130.438 Y101.759 E2.9588
G1 X130.227 Y104.246 E3.04181
G1 X130.082 Y106.779 E3.1262
G1 X130.01 Y109.285 E3.20958
G1 X130 Y110.658 E3.25525
G1 X130 Y118.348 E3.51102
G1 X130.037 Y120.957 E3.59781
G1 X130.144 Y123.479 E3.68176
G1 X130.321 Y125.973 E3.76492
G1 X130.569 Y128.471 E3.84842
G1 X130.887 Y130.96 E3.93187
G1 X131.281 Y133.469 E4.01635
G1 X131.745 Y135.964 E4.10075
G1 X132.262 Y138.372 E4.18267
G1 X132.866 Y140.833 E4.26695
G1 X133.54 Y143.281 E4.3514
G1 X134.407 Y146.092 E4.44924
G1 X134.66 Y146.995 E4.48043
G1 X134.834 Y147.917 E4.51164
G1 X134.943 Y149.165 E4.55331
G1 X134.958 Y149.829 E4.5754
G1 X134.956 Y163.921 E5.0441
G1 X134.946 Y164.647 E5.06825
G1 X134.893 Y165.583 E5.09943
G1 X134.761 Y166.511 E5.1306
G1 X134.55 Y167.425 E5.1618
G1 X134.261 Y168.318 E5.19302
G1 X133.898 Y169.182 E5.22419
G1 X133.391 Y170.136 E5.26012
G1 X131.906 Y172.622 E5.35644
G1 X130.686 Y174.805 E5.43961
G1 X129.495 Y177.087 E5.52523
G1 X128.826 Y178.421 E5.57486
G1 X128.37 Y179.24 E5.60604
G1 X127.846 Y180.018 E5.63724
G1 X127.258 Y180.749 E5.66844
G1 X126.61 Y181.426 E5.69961
G1 X125.906 Y182.046 E5.73081
G1 X125.152 Y182.604 E5.76201
G1 X124.353 Y183.096 E5.79322
G1 X123.516 Y183.517 E5.82438
G1 X122.645 Y183.866 E5.85559
G1 X121.748 Y184.139 E5.88678
G1 X120.831 Y184.335 E5.91797
G1 X119.9 Y184.453 E5.94918
G1 X119.333 Y184.485 E5.96807
G1 X118.67 Y184.5 E5.99012
G1 X116.55 Y184.499 E6.06064
G1 X115.85 Y184.489 E6.08392
G1 X114.914 Y184.436 E6.1151
G1 X113.985 Y184.303 E6.14632
G1 X113.071 Y184.091 E6.17752
G1 X112.179 Y183.802 E6.20871
G1 X111.315 Y183.439 E6.23988
G1 X110.484 Y183.003 E6.27109
G1 X109.694 Y182.498 E6.30228
G1 X108.949 Y181.927 E6.3335
G1 X108.256 Y181.296 E6.36467
G1 X107.62 Y180.607 E6.39586
G1 X107.044 Y179.867 E6.42705
G1 X106.533 Y179.08 E6.45825
G1 X106.185 Y178.443 E6.4824
G1 X104.963 Y176.02 E6.57266
G1 X103.763 Y173.802 E6.65653
G1 X102.523 Y171.654 E6.73902
G1 X102.272 Y171.248 E6.7549
G1 X101.608 Y170.137 E6.79795
G1 X101.162 Y169.312 E6.82914
G1 X100.788 Y168.452 E6.86033
G1 X100.488 Y167.563 E6.89154
G1 X100.266 Y166.652 E6.92273
G1 X100.122 Y165.725 E6.95393
G1 X100.059 Y164.868 E6.98251
G1 X100.042 Y164.17 E7.00573
G1 X100.044 Y150.046 E7.4755
G1 X100.054 Y149.346 E7.49878
G1 X100.107 Y148.41 E7.52996
G1 X100.24 Y147.481 E7.56118
G1 X100.535 Y146.284 E7.60218
G1 X100.868 Y145.199 E7.63993
G1 X101.108 Y144.452 E7.66602
G1 X101.812 Y142.027 E7.75001
G1 X102.442 Y139.606 E7.83321
G1 X103.007 Y137.146 E7.91716
G1 X103.511 Y134.629 E8.00254
G1 X103.922 Y132.223 E8.08373
G1 X104.283 Y129.686 E8.16896
G1 X104.564 Y127.206 E8.25197
G1 X104.778 Y124.69 E8.33595
G1 X104.917 Y122.217 E8.41834
G1 X105 Y118.277 E8.54941
G1 X105 Y110.652 E8.80302
G1 X104.963 Y108.043 E8.8898
G1 X104.856 Y105.521 E8.97376
G1 X104.679 Y103.027 E9.05692
G1 X104.432 Y100.532 E9.14031
G1 X104.112 Y98.031 E9.22417
G1 X103.721 Y95.542 E9.30797
G1 X103.254 Y93.03 E9.39295
G1 X102.738 Y90.628 E9.47467
G1 X102.131 Y88.156 E9.55933
G1 X101.47 Y85.751 E9.64228
G1 X100.54 Y82.74 E9.7471
G1 X100.302 Y81.833 E9.77829
G1 X100.203 Y81.32 E9.79566
G1 X99.939 Y79.751 E9.84858
G1 X99.478 Y77.288 E9.93192
G1 X98.945 Y74.82 E10.0159
G1 X98.341 Y72.37 E10.09983
G1 X97.667 Y69.932 E10.18396
G1 X96.989 Y67.71 E10.26123
G1 X96.754 Y66.802 E10.29242
G1 X96.597 Y65.877 E10.32363
G1 X96.514 Y64.785 E10.36005
G1 X96.503 Y63.971 E10.38713
G1 X96.514 Y63.308 E10.40918
G1 X96.569 Y62.371 E10.4404
G1 X96.704 Y61.443 E10.47159
G1 X96.918 Y60.53 E10.50278
G1 X97.273 Y59.471 E10.53993
G1 X97.597 Y58.656 E10.5691
G1 X97.963 Y57.794 E10.60025
G1 X98.366 Y56.947 E10.63145
G0 F6000 X98.727 Y57.119
G1 F1200 X99.194 Y56.326 E10.66206
G1 X99.728 Y55.576 E10.69268
G1 X100.325 Y54.875 E10.7233
G1 X100.981 Y54.229 E10.75393
G1 X101.69 Y53.642 E10.78454
G1 X102.448 Y53.118 E10.81519
G1 X103.248 Y52.663 E10.8458
G1 X103.935 Y52.34 E10.87105
G1 X104.71 Y52.01 E10.89906
G1 X105.587 Y51.659 E10.93048
G1 X106.457 Y51.356 E10.96112
G1 X107.349 Y51.13 E10.99173
G1 X108.258 Y50.983 E11.02236
G1 X109.322 Y50.912 E11.05782
G1 X110.095 Y50.9 E11.08354
G1 X124.968 Y50.903 E11.57821
G1 X125.667 Y50.913 E11.60147
G1 X126.586 Y50.966 E11.63208
G1 X127.497 Y51.099 E11.6627
G1 X128.393 Y51.31 E11.69332
G1 X129.454 Y51.671 E11.7306
G1 X130.201 Y51.97 E11.75736
G1 X131.115 Y52.361 E11.79042
G1 X131.944 Y52.763 E11.82107
G1 X132.734 Y53.235 E11.85167
G1 X133.48 Y53.774 E11.88228
G1 X134.177 Y54.376 E11.91292
G1 X134.819 Y55.036 E11.94354
G1 X135.401 Y55.749 E11.97415
G1 X135.919 Y56.51 E12.00477
G1 X136.37 Y57.313 E12.0354
G1 X136.656 Y57.929 E12.05799
G1 X137.072 Y58.911 E12.09346
G1 X137.34 Y59.585 E12.11759
G1 X137.643 Y60.455 E12.14823
G1 X137.869 Y61.347 E12.17883
G1 X138.017 Y62.256 E12.20947
G1 X138.088 Y63.309 E12.24457
G1 X138.097 Y64.113 E12.27131
G1 X138.088 Y64.67 E12.28984
G1 X138.033 Y65.589 E12.32046
G1 X137.898 Y66.5 E12.35109
G1 X137.626 Y67.599 E12.38875
G1 X137.263 Y68.786 E12.43003
G1 X136.56 Y71.209 E12.51394
G1 X135.918 Y73.672 E12.5986
G1 X135.354 Y76.122 E12.68222
G1 X134.849 Y78.637 E12.76754
G1 X134.392 Y81.297 E12.85731
G1 X134.083 Y82.599 E12.90181
G1 X133.766 Y83.633 E12.93778
G1 X133.524 Y84.386 E12.96409
G1 X132.817 Y86.812 E13.04814
G1 X132.178 Y89.266 E13.13248
G1 X131.614 Y91.709 E13.21587
G1 X131.11 Y94.22 E13.30105
G1 X130.685 Y96.695 E13.38458
G1 X130.331 Y99.176 E13.46793
G1 X130.041 Y101.714 E13.55289
G1 X129.827 Y104.229 E13.63685
G1 X129.684 Y106.744 E13.72063
G1 X129.61 Y109.319 E13.80631
G1 X129.6 Y110.655 E13.85075
G1 X129.6 Y118.354 E14.10682
G1 X129.637 Y120.979 E14.19413
G1 X129.744 Y123.488 E14.27766
G1 X129.922 Y126.004 E14.36155
G1 X130.172 Y128.528 E14.44591
G1 X130.493 Y131.036 E14.53001
G1 X130.88 Y133.498 E14.6129
G1 X131.354 Y136.049 E14.6992
G1 X131.869 Y138.447 E14.78077
G1 X132.487 Y140.963 E14.86694
G1 X133.149 Y143.368 E14.94991
G1 X134.027 Y146.216 E15.04903
G1 X134.274 Y147.103 E15.07966
G1 X134.443 Y148.008 E15.11028
G1 X134.543 Y149.177 E15.1493
G1 X134.558 Y149.829 E15.17099
G1 X134.556 Y163.915 E15.6395
G1 X134.546 Y164.641 E15.66364
G1 X134.493 Y165.56 E15.69426
G1 X134.361 Y166.471 E15.72488
G1 X134.15 Y167.367 E15.75549
G1 X133.863 Y168.242 E15.78612
G1 X133.5 Y169.088 E15.81674
G1 X133.047 Y169.931 E15.84857
G1 X131.571 Y172.402 E15.9443
G1 X130.325 Y174.631 E16.02924
G1 X129.152 Y176.878 E16.11354
G1 X128.469 Y178.241 E16.16425
G1 X128.021 Y179.046 E16.19489
G1 X127.504 Y179.808 E16.22552
G1 X126.924 Y180.523 E16.25614
G1 X126.284 Y181.184 E16.28674
G1 X125.589 Y181.788 E16.31737
G1 X124.844 Y182.329 E16.34799
G1 X124.055 Y182.803 E16.3786
G1 X123.228 Y183.207 E16.40922
G1 X122.368 Y183.538 E16.43986
G1 X121.484 Y183.793 E16.47047
G1 X120.58 Y183.97 E16.5011
G1 X119.321 Y184.085 E16.54315
G1 X118.67 Y184.1 E16.56481
G1 X116.556 Y184.099 E16.63512
G1 X115.856 Y184.089 E16.65841
G1 X114.936 Y184.036 E16.68906
G1 X114.025 Y183.903 E16.71968
G1 X113.129 Y183.692 E16.75029
G1 X112.255 Y183.404 E16.7809
G1 X111.409 Y183.041 E16.81152
G1 X110.597 Y182.606 E16.84216
G1 X109.827 Y182.102 E16.87277
G1 X109.103 Y181.533 E16.90339
G1 X108.431 Y180.904 E16.93401
G1 X107.816 Y180.218 E16.96465
G1 X107.263 Y179.482 E16.99527
G1 X106.776 Y178.701 E17.02588
G1 X106.542 Y178.263 E17.0424
G1 X105.314 Y175.829 E17.13307
G1 X104.119 Y173.618 E17.21667
G1 X102.843 Y171.41 E17.30149
G1 X102.527 Y170.897 E17.32153
G1 X101.951 Y169.932 E17.3589
G1 X101.514 Y169.122 E17.38952
G1 X101.149 Y168.276 E17.42016
G1 X100.858 Y167.403 E17.45077
G1 X100.645 Y166.507 E17.4814
G1 X100.51 Y165.597 E17.512
G1 X100.459 Y164.854 E17.53677
G1 X100.442 Y164.17 E17.55952
G1 X100.444 Y150.052 E18.02909
G1 X100.454 Y149.352 E18.05238
G1 X100.507 Y148.432 E18.08303
G1 X100.64 Y147.521 E18.11365
G1 X100.917 Y146.401 E18.15202
G1 X101.248 Y145.322 E18.18956
G1 X101.496 Y144.549 E18.21656
G1 X102.195 Y142.143 E18.29989
G1 X102.833 Y139.691 E18.38416
G1 X103.395 Y137.241 E18.46777
G1 X103.905 Y134.697 E18.55406
G1 X104.318 Y132.281 E18.63559
G1 X104.683 Y129.716 E18.72176
G1 X104.963 Y127.249 E18.80434
G1 X105.178 Y124.712 E18.88902
G1 X105.317 Y122.247 E18.97114
G1 X105.4 Y118.283 E19.10301
G1 X105.4 Y110.646 E19.35702
G1 X105.363 Y108.021 E19.44433
G1 X105.256 Y105.512 E19.52786
G1 X105.078 Y102.992 E19.61188
G1 X104.829 Y100.478 E19.69591
G1 X104.51 Y97.989 E19.77937
G1 X104.109 Y95.437 E19.86529
G1 X103.653 Y92.986 E19.94821
G1 X103.131 Y90.553 E20.03097
G1 X102.519 Y88.061 E20.11632
G1 X101.841 Y85.595 E20.20138
G1 X100.923 Y82.622 E20.30487
G1 X100.689 Y81.732 E20.33548
G1 X100.598 Y81.253 E20.3517
G1 X100.342 Y79.73 E20.40306
G1 X99.869 Y77.202 E20.4886
G1 X99.337 Y74.737 E20.57248
G1 X98.723 Y72.249 E20.65771
G1 X98.05 Y69.814 E20.74174
G1 X97.372 Y67.593 E20.81897
G1 X97.141 Y66.702 E20.84959
G1 X96.989 Y65.794 E20.88021
G1 X96.914 Y64.775 E20.91419
G1 X96.902 Y63.977 E20.94074
G1 X96.913 Y63.314 E20.96279
G1 X96.969 Y62.395 E20.99341
G1 X97.103 Y61.484 E21.02404
G1 X97.317 Y60.589 E21.05465
G1 X97.645 Y59.617 E21.08877
G1 X97.965 Y58.812 E21.11758
G1 X98.331 Y57.95 E21.14873
G1 X98.727 Y57.119 E21.17934
G0 F6000 X99.089 Y57.292
G1 F1200 X99.549 Y56.515 E21.20937
G1 X100.076 Y55.781 E21.23943
G1 X100.665 Y55.097 E21.26945
G1 X101.313 Y54.468 E21.29949
G1 X102.014 Y53.899 E21.32952
G1 X102.763 Y53.393 E21.35958
G1 X103.553 Y52.957 E21.38959
G1 X104.092 Y52.708 E21.40934
G1 X104.867 Y52.378 E21.43736
G1 X105.735 Y52.03 E21.46846
G1 X106.588 Y51.734 E21.49849
G1 X107.464 Y51.515 E21.52852
G1 X108.356 Y51.374 E21.55856
G1 X109.328 Y51.311 E21.59096
G1 X109.922 Y51.301 E21.61071
G1 X124.962 Y51.303 E22.11095
G1 X125.661 Y51.313 E22.1342
G1 X126.562 Y51.366 E22.16422
G1 X127.456 Y51.498 E22.19427
G1 X128.334 Y51.709 E22.22431
G1 X129.305 Y52.042 E22.25845
G1 X130.052 Y52.341 E22.28521
G1 X130.956 Y52.728 E22.31792
G1 X131.769 Y53.123 E22.34798
G1 X132.543 Y53.588 E22.37801
G1 X133.273 Y54.12 E22.40806
G1 X133.953 Y54.714 E22.43809
G1 X134.577 Y55.367 E22.46813
G1 X135.142 Y56.071 E22.49815
G1 X135.642 Y56.823 E22.52819
G1 X136.074 Y57.617 E22.55825
G1 X136.288 Y58.086 E22.5754
G1 X136.7 Y59.059 E22.61054
G1 X136.968 Y59.733 E22.63467
G1 X137.264 Y60.586 E22.6647
G1 X137.484 Y61.462 E22.69474
G1 X137.625 Y62.354 E22.72477
G1 X137.688 Y63.317 E22.75687
G1 X137.697 Y64.107 E22.78315
G1 X137.688 Y64.664 E22.80168
G1 X137.633 Y65.565 E22.8317
G1 X137.499 Y66.458 E22.86173
G1 X137.243 Y67.482 E22.89684
G1 X136.898 Y68.61 E22.93607
G1 X136.174 Y71.101 E23.02235
G1 X135.527 Y73.587 E23.10779
G1 X134.967 Y76.018 E23.19077
G1 X134.456 Y78.563 E23.2771
G1 X133.998 Y81.23 E23.3671
G1 X133.7 Y82.483 E23.40994
G1 X133.385 Y83.511 E23.4457
G1 X133.142 Y84.267 E23.47211
G1 X132.432 Y86.705 E23.55657
G1 X131.787 Y89.181 E23.64167
G1 X131.225 Y91.612 E23.72466
G1 X130.717 Y94.145 E23.81059
G1 X130.289 Y96.637 E23.89468
G1 X129.932 Y99.146 E23.97897
G1 X129.643 Y101.671 E24.0635
G1 X129.427 Y104.206 E24.14812
G1 X129.284 Y106.712 E24.23161
G1 X129.21 Y109.304 E24.31785
G1 X129.2 Y110.652 E24.36269
G1 X129.2 Y118.36 E24.61906
G1 X129.237 Y120.966 E24.70574
G1 X129.346 Y123.532 E24.79117
G1 X129.524 Y126.039 E24.87476
G1 X129.772 Y128.548 E24.95862
G1 X130.1 Y131.111 E25.04456
G1 X130.491 Y133.596 E25.12823
G1 X130.956 Y136.1 E25.21293
G1 X131.484 Y138.561 E25.29665
G1 X132.088 Y141.016 E25.38074
G1 X132.778 Y143.527 E25.46735
G1 X133.547 Y146.034 E25.55457
G1 X133.647 Y146.34 E25.56527
G1 X133.888 Y147.21 E25.5953
G1 X134.051 Y148.098 E25.62533
G1 X134.143 Y149.189 E25.66174
G1 X134.158 Y149.829 E25.68304
G1 X134.156 Y163.909 E26.15134
G1 X134.146 Y164.635 E26.17549
G1 X134.094 Y165.537 E26.20554
G1 X133.962 Y166.43 E26.23556
G1 X133.751 Y167.309 E26.26563
G1 X133.464 Y168.165 E26.29566
G1 X133.102 Y168.992 E26.32568
G1 X132.704 Y169.726 E26.35345
G1 X131.206 Y172.233 E26.45059
G1 X129.994 Y174.403 E26.53326
G1 X128.773 Y176.741 E26.62099
G1 X128.111 Y178.062 E26.67013
G1 X127.671 Y178.851 E26.70018
G1 X127.163 Y179.597 E26.7302
G1 X126.59 Y180.296 E26.76026
G1 X125.959 Y180.941 E26.79027
G1 X125.272 Y181.528 E26.82032
G1 X124.537 Y182.052 E26.85035
G1 X123.758 Y182.509 E26.88039
G1 X122.941 Y182.895 E26.91044
G1 X122.094 Y183.207 E26.94046
G1 X121.222 Y183.443 E26.97051
G1 X120.333 Y183.602 E27.00054
G1 X119.309 Y183.685 E27.03471
G1 X118.67 Y183.7 E27.05597
G1 X116.561 Y183.699 E27.12612
G1 X115.861 Y183.689 E27.1494
G1 X114.96 Y183.636 E27.17942
G1 X114.066 Y183.504 E27.20948
G1 X113.188 Y183.293 E27.23951
G1 X112.332 Y183.005 E27.26955
G1 X111.505 Y182.643 E27.29958
G1 X110.713 Y182.209 E27.32962
G1 X109.963 Y181.706 E27.35965
G1 X109.26 Y181.139 E27.38969
G1 X108.609 Y180.513 E27.41973
G1 X108.017 Y179.831 E27.44977
G1 X107.488 Y179.099 E27.47981
G1 X106.9 Y178.083 E27.51885
G1 X105.673 Y175.65 E27.60948
G1 X104.468 Y173.422 E27.69373
G1 X103.202 Y171.23 E27.77792
G1 X102.871 Y170.692 E27.79893
G1 X102.295 Y169.727 E27.83631
G1 X101.866 Y168.932 E27.86635
G1 X101.51 Y168.102 E27.89639
G1 X101.229 Y167.243 E27.92645
G1 X101.025 Y166.364 E27.95646
G1 X100.899 Y165.469 E27.98653
G1 X100.859 Y164.841 E28.00746
G1 X100.842 Y164.17 E28.02978
G1 X100.844 Y150.057 E28.49918
G1 X100.854 Y149.357 E28.52247
G1 X100.907 Y148.456 E28.55248
G1 X101.039 Y147.562 E28.58254
G1 X101.3 Y146.518 E28.61833
G1 X101.629 Y145.444 E28.65569
G1 X101.878 Y144.668 E28.6828
G1 X102.58 Y142.25 E28.76654
G1 X103.224 Y139.776 E28.85157
G1 X103.791 Y137.304 E28.93593
G1 X104.291 Y134.812 E29.02046
G1 X104.721 Y132.294 E29.10542
G1 X105.073 Y129.821 E29.1885
G1 X105.36 Y127.292 E29.27316
