;FLAVOR:Marlin
;TIME:6301
;Filament used: 7.13932m
;Layer height: 0.32
;MINX:73.744
;MINY:100.45
;MINZ:0.12
;MAXX:151.256
;MAXY:134.55
;MAXZ:33.28
;Generated with Cura_SteamEngine 4.12.1
M82 ;absolute extrusion mode
; Ender 3 Custom Start G-code
G92 E0 ; Reset Extruder
M900 K0.7
M140 S60 ; Нагреваем стол до заданной температуры.
M104 S200 T0 ; Нагреваем ХОТЕНД до заданной температуры.
M190 S60 ; Ждем нагрева стола.
M109 S200 T0 ; Ждем нагрева ХОТЕНДА. 
G28 ; Home all axes
G1 Z2.0 F3000 ; Move Z Axis up little to prevent scratching of Heat Bed
G1 X0.1 Y20 Z0.3 F5000.0 ; Move to start position
G1 X0.1 Y200.0 Z0.3 F1500.0 E15 ; Draw the first line
G1 X0.4 Y200.0 Z0.3 F5000.0 ; Move to side a little
G1 X0.4 Y20 Z0.3 F1500.0 E30 ; Draw the second line
G92 E0 ; Reset Extruder
G1 Z2.0 F3000 ; Move Z Axis up little to prevent scratching of Heat Bed
G1 X5 Y20 Z0.3 F5000.0 ; Move over to prevent blob squish
G92 E0
G92 E0
G1 F1500 E-6.5
;LAYER_COUNT:104
;LAYER:0
M107
M204 S500
G1 F300 Z0.32
;MESH:AKB_UPPER_H.stl
G0 F6000 X146.394 Y120.157 Z0.32
;TYPE:WALL-INNER
G1 F300 Z0.12
G1 F1500 E0
G1 F1200 X147.606 Y120.157 E0.02419
G1 X148.7 Y119.631 E0.04841
G1 X149.457 Y118.683 E0.07262
G1 X149.725 Y117.5 E0.09683
G1 X149.457 Y116.317 E0.12103
G1 X148.7 Y115.369 E0.14524
G1 X147.606 Y114.843 E0.16947
G1 X146.394 Y114.843 E0.19365
G1 X145.3 Y115.369 E0.21788
G1 X144.543 Y116.317 E0.24209
G1 X144.397 Y116.96 E0.25525
G1 X144.275 Y117.5 E0.2663
G1 X144.397 Y118.04 E0.27734
G1 X144.543 Y118.683 E0.2905
G1 X145.3 Y119.631 E0.31471
G1 X146.394 Y120.157 E0.33894
G0 F6000 X146.485 Y119.757
G1 F1200 X147.515 Y119.757 E0.35949
G1 X148.444 Y119.31 E0.38006
G1 X149.087 Y118.505 E0.40062
G1 X149.315 Y117.5 E0.42119
G1 X149.087 Y116.495 E0.44176
G1 X148.444 Y115.69 E0.46232
G1 X147.515 Y115.243 E0.48289
G1 X146.485 Y115.243 E0.50344
G1 X145.556 Y115.69 E0.52402
G1 X144.913 Y116.495 E0.54458
G1 X144.685 Y117.5 E0.56514
G1 X144.913 Y118.505 E0.58571
G1 X145.556 Y119.31 E0.60627
G1 X146.485 Y119.757 E0.62684
G0 F6000 X146.576 Y119.357
;TYPE:WALL-OUTER
G1 F1200 X147.424 Y119.357 E0.64377
G1 X148.188 Y118.989 E0.66069
G1 X148.717 Y118.327 E0.6776
G1 X148.905 Y117.5 E0.69452
G1 X148.717 Y116.673 E0.71145
G1 X148.188 Y116.011 E0.72836
G1 X147.424 Y115.643 E0.74528
G1 X146.576 Y115.643 E0.76221
G1 X145.812 Y116.011 E0.77913
G1 X145.283 Y116.673 E0.79604
G1 X145.095 Y117.5 E0.81296
G1 X145.283 Y118.327 E0.82989
G1 X145.812 Y118.989 E0.8468
G1 X146.576 Y119.357 E0.86372
G0 F6000 X146.479 Y119.785
G1 F1500 E-5.63628
G1 F300 Z0.32
G0 F6000 X78.606 Y120.157 Z0.32
;TYPE:WALL-INNER
G1 F300 Z0.12
G1 F1500 E0.86372
G1 F1200 X79.7 Y119.631 E0.88795
G1 X80.457 Y118.683 E0.91216
G1 X80.603 Y118.04 E0.92531
G1 X80.725 Y117.5 E0.93636
G1 X80.603 Y116.96 E0.94741
G1 X80.457 Y116.317 E0.96057
G1 X79.7 Y115.369 E0.98478
G1 X78.606 Y114.843 E1.009
G1 X77.394 Y114.843 E1.03319
G1 X76.3 Y115.369 E1.05741
G1 X75.543 Y116.317 E1.08162
G1 X75.275 Y117.5 E1.10583
G1 X75.543 Y118.683 E1.13004
G1 X76.3 Y119.631 E1.15425
G1 X77.394 Y120.157 E1.17847
G1 X78.606 Y120.157 E1.20266
G0 F6000 X78.515 Y119.757
G1 F1200 X79.444 Y119.31 E1.22323
G1 X80.087 Y118.505 E1.24379
G1 X80.315 Y117.5 E1.26436
G1 X80.087 Y116.495 E1.28492
G1 X79.444 Y115.69 E1.30548
G1 X78.515 Y115.243 E1.32606
G1 X77.485 Y115.243 E1.34661
G1 X76.556 Y115.69 E1.36719
G1 X75.913 Y116.495 E1.38775
G1 X75.685 Y117.5 E1.40831
G1 X75.913 Y118.505 E1.42888
G1 X76.556 Y119.31 E1.44944
G1 X77.485 Y119.757 E1.47001
G1 X78.515 Y119.757 E1.49057
G0 F6000 X78.424 Y119.357
;TYPE:WALL-OUTER
G1 F1200 X79.188 Y118.989 E1.50749
G1 X79.717 Y118.327 E1.5244
G1 X79.905 Y117.5 E1.54132
G1 X79.717 Y116.673 E1.55825
G1 X79.188 Y116.011 E1.57516
G1 X78.424 Y115.643 E1.59208
G1 X77.576 Y115.643 E1.609
G1 X76.812 Y116.011 E1.62593
G1 X76.283 Y116.673 E1.64284
G1 X76.095 Y117.5 E1.65976
G1 X76.283 Y118.327 E1.67669
G1 X76.812 Y118.989 E1.6936
G1 X77.576 Y119.357 E1.71052
G1 X78.424 Y119.357 E1.72744
G0 F6000 X78.521 Y119.785
G1 F1500 E-4.77256
G1 F300 Z0.32
G0 F6000 X81 Y133.5 Z0.32
;TYPE:WALL-INNER
G1 F300 Z0.12
G1 F1500 E1.72744
G1 F1200 X144 Y133.5 E2.98468
G1 X144 Y118.054 E3.29292
G1 X144 Y117.5 E3.30227
G1 X144 Y116.946 E3.31162
G1 X144 Y101.5 E3.61986
G1 X81 Y101.5 E4.87709
G1 X81 Y116.946 E5.18534
G1 X81 Y117.5 E5.19469
G1 X81 Y118.054 E5.20404
G1 X81 Y133.5 E5.51228
G0 F6000 X81.4 Y133.1
G1 F1200 X143.6 Y133.1 E6.75355
G1 X143.6 Y101.9 E7.37618
G1 X81.4 Y101.9 E8.61744
G1 X81.4 Y133.1 E9.24007
G0 F6000 X81.8 Y132.7
;TYPE:WALL-OUTER
G1 F1200 X143.2 Y132.7 E10.46538
G1 X143.2 Y102.3 E11.07204
G1 X81.8 Y102.3 E12.29735
G1 X81.8 Y132.7 E12.90401
G0 F6000 X80.6 Y133.35
;TYPE:WALL-INNER
G1 F1200 X80.111 Y133.35 E12.91377
G1 X79.447 Y133.245 E12.92718
G1 X78.953 Y132.993 E12.93825
G1 X78.557 Y132.597 E12.94943
G1 X78.305 Y132.103 E12.96049
G1 X78.2 Y131.439 E12.97391
G1 X78.2 Y123.602 E13.13031
G1 X77.987 Y122.299 E13.15665
G1 X77.314 Y121.035 E13.18523
G1 X76.411 Y120.182 E13.21002
G1 X76.284 Y120.067 E13.21344
G1 X77.303 Y120.557 E13.2264
G1 X78.697 Y120.557 E13.25422
G1 X79.956 Y119.952 E13.28209
G1 X80.245 Y119.589 E13.29135
G1 X80.6 Y119.145 E13.3027
G1 X80.6 Y119.714 E13.3087
G1 X80.6 Y133.35 E13.58082
G1 F1500 E7.08082
G1 F300 Z0.32
G0 F6000 X75.755 Y119.59 Z0.32
G1 F300 Z0.12
G1 F1500 E13.58082
G1 F1200 X75.633 Y119.48 E13.5841
G1 X75.51 Y119.283 E13.58873
G1 X75.755 Y119.59 E13.5912
G1 F1500 E7.0912
G1 F300 Z0.32
G0 F6000 X75.027 Y118.217 Z0.32
G1 F300 Z0.12
G1 F1500 E13.5912
G1 F1200 X74.944 Y117.926 E13.59724
G1 X74.944 Y117.849 E13.59878
G1 X75.027 Y118.217 E13.59966
G0 F6000 X74.944 Y117.151
G1 F1200 X74.944 Y117.075 E13.60118
G1 X75.027 Y116.783 E13.60724
G1 X74.944 Y117.151 E13.60862
G1 F1500 E7.10862
G1 F300 Z0.32
G0 F6000 X75.758 Y115.406 Z0.32
G1 F300 Z0.12
G1 F1500 E13.60862
G1 F1200 X75.509 Y115.718 E13.61659
G1 X75.634 Y115.518
G1 X75.758 Y115.406
G1 F1500 E7.11659
G1 F300 Z0.32
G0 F6000 X80.6 Y115.855 Z0.32
G1 F300 Z0.12
G1 F1500 E13.61659
G1 F1200 X80.245 Y115.411 E13.62793
G1 X79.956 Y115.048 E13.63719
G1 X78.697 Y114.443 E13.66507
G1 X77.303 Y114.443 E13.69289
G1 X76.281 Y114.934 E13.71551
G1 X76.443 Y114.788 E13.71987
G1 X77.314 Y113.965 E13.73842
G1 X77.987 Y112.701 E13.76699
G1 X78.2 Y111.398 E13.79334
G1 X78.2 Y103.561 E13.94974
G1 X78.305 Y102.897 E13.96315
G1 X78.557 Y102.403 E13.97422
G1 X78.953 Y102.007 E13.9854
G1 X79.447 Y101.755 E13.99646
G1 X80.111 Y101.65 E14.00988
G1 X80.6 Y101.65 E14.01964
G1 X80.6 Y115.286 E14.29176
G1 X80.6 Y115.855 E14.29776
G1 F1500 E7.79776
G1 F300 Z0.32
G0 F6000 X144.4 Y115.855 Z0.32
G1 F300 Z0.12
G1 F1500 E14.29776
G1 F1200 X144.4 Y115.286 E14.30911
G1 X144.4 Y101.65 E14.58124
G1 X144.889 Y101.65 E14.59099
G1 X145.553 Y101.755 E14.60441
G1 X146.047 Y102.007 E14.61548
G1 X146.443 Y102.403 E14.62665
G1 X146.695 Y102.897 E14.63772
G1 X146.8 Y103.561 E14.65114
G1 X146.8 Y111.398 E14.80753
G1 X147.013 Y112.701 E14.83388
G1 X147.686 Y113.965 E14.86246
G1 X148.589 Y114.818 E14.88725
G1 X148.716 Y114.933 E14.89066
G1 X147.697 Y114.443 E14.90363
G1 X146.303 Y114.443 E14.93144
G1 X145.044 Y115.048 E14.95932
G1 X144.755 Y115.411 E14.96858
G1 X144.4 Y115.855 E14.97457
G1 F1500 E8.47457
G1 F300 Z0.32
G0 F6000 X149.49 Y115.717 Z0.32
G1 F300 Z0.12
G1 F1500 E14.97457
G1 F1200 X149.245 Y115.41 E14.9824
G1 X149.367 Y115.52
G1 X149.49 Y115.717
G1 F1500 E8.4824
G1 F300 Z0.32
G0 F6000 X150.056 Y117.151 Z0.32
G1 F300 Z0.12
G1 F1500 E14.9824
G1 F1200 X149.973 Y116.783 E14.98993
G1 X150.056 Y117.075
G1 X150.056 Y117.151
G0 F6000 X149.973 Y118.217
G1 F1200 X150.056 Y117.849 E14.99746
G1 X150.056 Y117.926
G1 X149.973 Y118.217
G1 F1500 E8.49746
G1 F300 Z0.32
G0 F6000 X149.242 Y119.594 Z0.32
G1 F300 Z0.12
G1 F1500 E14.99746
G1 F1200 X149.491 Y119.282 E15.00543
G1 X149.366 Y119.482
G1 X149.242 Y119.594
G1 F1500 E8.50543
G1 F300 Z0.32
G0 F6000 X144.889 Y133.35 Z0.32
G1 F300 Z0.12
G1 F1500 E15.00543
G1 F1200 X144.4 Y133.35 E15.01519
G1 X144.4 Y119.714 E15.28731
G1 X144.4 Y119.145 E15.29866
G1 X144.755 Y119.589 E15.30465
G1 X145.044 Y119.952 E15.31391
G1 X146.303 Y120.557 E15.34178
G1 X147.697 Y120.557 E15.3696
G1 X148.719 Y120.066 E15.39223
G1 X148.557 Y120.212 E15.39658
G1 X147.686 Y121.035 E15.41513
G1 X147.013 Y122.299 E15.44371
G1 X146.8 Y123.602 E15.47006
G1 X146.8 Y131.439 E15.62645
G1 X146.695 Y132.103 E15.63987
G1 X146.443 Y132.597 E15.65093
G1 X146.047 Y132.993 E15.66211
G1 X145.553 Y133.245 E15.67318
G1 X144.889 Y133.35 E15.68659
G0 F6000 X144.92 Y133.75
G1 F1200 X144 Y133.75 E15.70495
G1 X81 Y133.75 E16.49269
G1 X80.08 Y133.75 E16.51105
G1 X79.322 Y133.63 E16.52637
G1 X78.714 Y133.32 E16.53999
G1 X78.23 Y132.836 E16.55364
G1 X77.92 Y132.228 E16.56726
G1 X77.8 Y131.47 E16.58258
G1 X77.8 Y123.634 E16.73896
G1 X77.603 Y122.429 E16.76332
G1 X76.992 Y121.281 E16.78927
G1 X76.14 Y120.476 E16.81267
G1 X75.324 Y119.74 E16.83459
G1 X74.812 Y118.921 E16.85387
G1 X74.544 Y117.983 E16.87334
G1 X74.544 Y117.017 E16.89262
G1 X74.812 Y116.079 E16.91208
G1 X75.325 Y115.258 E16.9314
G1 X76.172 Y114.494 E16.95417
G1 X76.992 Y113.719 E16.97668
G1 X77.603 Y112.571 E17.00263
G1 X77.8 Y111.366 E17.027
G1 X77.8 Y103.53 E17.18338
G1 X77.92 Y102.772 E17.19869
G1 X78.23 Y102.164 E17.21231
G1 X78.714 Y101.68 E17.22597
G1 X79.322 Y101.37 E17.23959
G1 X80.08 Y101.25 E17.2549
G1 X81 Y101.25 E17.27326
G1 X144 Y101.25 E18.061
G1 X144.92 Y101.25 E18.07936
G1 X145.678 Y101.37 E18.09468
G1 X146.286 Y101.68 E18.1083
G1 X146.77 Y102.164 E18.12196
G1 X147.08 Y102.772 E18.13558
G1 X147.2 Y103.53 E18.15089
G1 X147.2 Y111.366 E18.30727
G1 X147.397 Y112.571 E18.33163
G1 X148.008 Y113.719 E18.35759
G1 X148.86 Y114.524 E18.38098
G1 X149.676 Y115.26 E18.40291
G1 X150.188 Y116.079 E18.42218
G1 X150.456 Y117.017 E18.44165
G1 X150.456 Y117.983 E18.46093
G1 X150.188 Y118.921 E18.4804
G1 X149.675 Y119.742 E18.49972
G1 X148.828 Y120.506 E18.52248
G1 X148.008 Y121.281 E18.54499
G1 X147.397 Y122.429 E18.57095
G1 X147.2 Y123.634 E18.59531
G1 X147.2 Y131.47 E18.75169
G1 X147.08 Y132.228 E18.767
G1 X146.77 Y132.836 E18.78062
G1 X146.286 Y133.32 E18.79428
G1 X145.678 Y133.63 E18.8079
G1 X144.92 Y133.75 E18.82322
G0 F6000 X144.951 Y134.15
G1 F1200 X80.049 Y134.15 E20.11841
G1 X79.197 Y134.015 E20.13562
G1 X78.475 Y133.647 E20.15179
G1 X77.903 Y133.075 E20.16794
G1 X77.535 Y132.353 E20.18411
G1 X77.4 Y131.501 E20.20132
G1 X77.4 Y123.666 E20.35768
G1 X77.219 Y122.559 E20.38006
G1 X76.67 Y121.527 E20.40339
G1 X75.869 Y120.77 E20.42539
G1 X75.015 Y120 E20.44833
G1 X74.442 Y119.083 E20.46991
G1 X74.144 Y118.041 E20.49154
G1 X74.144 Y116.959 E20.51313
G1 X74.442 Y115.917 E20.53476
G1 X75.016 Y114.998 E20.55638
G1 X75.901 Y114.2 E20.58016
G1 X76.67 Y113.473 E20.60128
G1 X77.219 Y112.441 E20.62461
G1 X77.4 Y111.334 E20.64699
G1 X77.4 Y103.499 E20.80335
G1 X77.535 Y102.647 E20.82056
G1 X77.903 Y101.925 E20.83674
G1 X78.475 Y101.353 E20.85288
G1 X79.197 Y100.985 E20.86905
G1 X80.049 Y100.85 E20.88627
G1 X144.951 Y100.85 E22.18146
G1 X145.803 Y100.985 E22.19867
G1 X146.525 Y101.353 E22.21484
G1 X147.097 Y101.925 E22.23099
G1 X147.465 Y102.647 E22.24716
G1 X147.6 Y103.499 E22.26437
G1 X147.6 Y111.334 E22.42073
G1 X147.781 Y112.441 E22.44311
G1 X148.33 Y113.473 E22.46644
G1 X149.131 Y114.23 E22.48843
G1 X149.985 Y115 E22.51138
G1 X150.558 Y115.917 E22.53296
G1 X150.856 Y116.959 E22.55459
G1 X150.856 Y118.041 E22.57618
G1 X150.558 Y119.083 E22.59781
G1 X149.984 Y120.002 E22.61943
G1 X149.099 Y120.8 E22.64321
G1 X148.33 Y121.527 E22.66433
G1 X147.781 Y122.559 E22.68766
G1 X147.6 Y123.666 E22.71004
G1 X147.6 Y131.501 E22.8664
G1 X147.465 Y132.353 E22.88361
G1 X147.097 Y133.075 E22.89978
G1 X146.525 Y133.647 E22.91593
G1 X145.803 Y134.015 E22.9321
G1 X144.951 Y134.15 E22.94931
G0 F6000 X144.982 Y134.55
;TYPE:WALL-OUTER
G1 F1200 X80.018 Y134.55 E24.24574
G1 X79.072 Y134.4 E24.26486
G1 X78.236 Y133.974 E24.28358
G1 X77.576 Y133.314 E24.30221
G1 X77.15 Y132.478 E24.32093
G1 X77 Y131.532 E24.34005
G1 X77 Y123.698 E24.49638
G1 X76.835 Y122.689 E24.51678
G1 X76.348 Y121.773 E24.53749
G1 X75.598 Y121.064 E24.55808
G1 X74.706 Y120.26 E24.58205
G1 X74.072 Y119.245 E24.60593
G1 X73.744 Y118.099 E24.62972
G1 X73.744 Y116.901 E24.65363
G1 X74.072 Y115.755 E24.67741
G1 X74.707 Y114.738 E24.70134
G1 X75.63 Y113.906 E24.72614
G1 X76.348 Y113.227 E24.74586
G1 X76.835 Y112.311 E24.76656
G1 X77 Y111.302 E24.78696
G1 X77 Y103.468 E24.9433
G1 X77.15 Y102.522 E24.96241
G1 X77.576 Y101.686 E24.98114
G1 X78.236 Y101.026 E24.99977
G1 X79.072 Y100.6 E25.01849
G1 X80.018 Y100.45 E25.0376
G1 X144.982 Y100.45 E26.33403
G1 X145.928 Y100.6 E26.35315
G1 X146.764 Y101.026 E26.37187
G1 X147.424 Y101.686 E26.3905
G1 X147.85 Y102.522 E26.40922
G1 X148 Y103.468 E26.42834
G1 X148 Y111.302 E26.58467
G1 X148.165 Y112.311 E26.60507
G1 X148.652 Y113.227 E26.62578
G1 X149.402 Y113.936 E26.64637
G1 X150.294 Y114.74 E26.67034
G1 X150.928 Y115.755 E26.69422
G1 X151.256 Y116.901 E26.71801
G1 X151.256 Y118.099 E26.74192
G1 X150.928 Y119.245 E26.7657
G1 X150.293 Y120.262 E26.78963
G1 X149.37 Y121.094 E26.81443
G1 X148.652 Y121.773 E26.83415
G1 X148.165 Y122.689 E26.85485
G1 X148 Y123.698 E26.87526
G1 X148 Y131.532 E27.03159
G1 X147.85 Y132.478 E27.05071
G1 X147.424 Y133.314 E27.06943
G1 X146.764 Y133.974 E27.08806
G1 X145.928 Y134.4 E27.10678
G1 X144.982 Y134.55 E27.1259
G0 F6000 X144.948 Y134.112
G0 X144.854 Y132.96
;TYPE:SKIN
G1 F1200 X144.79 Y132.96 E27.12717
G1 X144.79 Y120.258 E27.38065
G1 X144.795 Y120.264 E27.38081
G1 X146.214 Y120.947 E27.41224
G1 X147.291 Y120.947 E27.43373
G1 X146.639 Y122.172 E27.46142
G1 X146.41 Y123.571 E27.48971
G1 X146.41 Y131.404 E27.64603
G1 X146.318 Y131.985 E27.65777
G1 X146.124 Y132.366 E27.6663
G1 X145.816 Y132.674 E27.67499
G1 X145.435 Y132.868 E27.68353
G1 X144.854 Y132.96 E27.69526
G0 F6000 X145.189 Y132.744
G1 F1200 X144.949 Y132.504 E27.70204
G0 F6000 X144.949 Y131.938
G1 F1200 X145.61 Y132.599 E27.72069
G0 F6000 X145.92 Y132.344
G1 F1200 X144.949 Y131.372 E27.74811
G0 F6000 X144.949 Y130.806
G1 F1200 X146.135 Y131.993 E27.7816
G0 F6000 X146.228 Y131.521
G1 F1200 X144.949 Y130.241 E27.81771
G0 F6000 X144.949 Y129.675
G1 F1200 X146.249 Y130.975 E27.85439
G0 F6000 X146.249 Y130.41
G1 F1200 X144.949 Y129.109 E27.8911
G0 F6000 X144.949 Y128.544
G1 F1200 X146.249 Y129.844 E27.92779
G0 F6000 X146.249 Y129.278
G1 F1200 X144.949 Y127.978 E27.96448
G0 F6000 X144.949 Y127.412
G1 F1200 X146.249 Y128.713 E28.00118
G0 F6000 X146.249 Y128.147
G1 F1200 X144.949 Y126.847 E28.03787
G0 F6000 X144.949 Y126.281
G1 F1200 X146.249 Y127.581 E28.07456
G0 F6000 X146.249 Y127.016
G1 F1200 X144.949 Y125.715 E28.11126
G0 F6000 X144.949 Y125.15
G1 F1200 X146.249 Y126.45 E28.14795
G0 F6000 X146.249 Y125.884
G1 F1200 X144.949 Y124.584 E28.18464
G0 F6000 X144.949 Y124.018
G1 F1200 X146.249 Y125.319 E28.22134
G0 F6000 X146.249 Y124.753
G1 F1200 X144.949 Y123.453 E28.25803
G0 F6000 X144.949 Y122.887
G1 F1200 X146.249 Y124.187 E28.29472
G0 F6000 X146.249 Y123.622
G1 F1200 X144.949 Y122.321 E28.33142
G0 F6000 X144.949 Y121.756
G1 F1200 X146.319 Y123.126 E28.37008
G0 F6000 X146.399 Y122.64
G1 F1200 X144.949 Y121.19 E28.41101
G0 F6000 X144.949 Y120.624
G1 F1200 X146.479 Y122.154 E28.45419
G0 F6000 X146.667 Y121.777
G1 F1200 X145.83 Y120.94 E28.47781
G0 F6000 X146.562 Y121.106
G1 F1200 X146.863 Y121.408 E28.48632
G0 F6000 X147.602 Y120.732
;TYPE:SKIN
G1 F1200 X147.684 Y120.814 E28.48747
G1 F1500 E21.98747
G1 F300 Z0.32
G0 F6000 X144.823 Y119.933 Z0.32
G1 F300 Z0.12
G1 F1500 E28.48747
G1 F1200 X144.573 Y119.683 E28.491
G0 F6000 X144.558 Y119.951
G1 F1200 X144.707 Y120.1 E28.4931
G1 F1500 E21.9931
G1 F300 Z0.32
G0 F6000 X144.79 Y114.742 Z0.32
;TYPE:SKIN
G1 F300 Z0.12
G1 F1500 E28.4931
G1 F1200 X144.79 Y102.04 E28.74659
G1 X144.854 Y102.04 E28.74786
G1 X145.435 Y102.132 E28.7596
G1 X145.816 Y102.326 E28.76814
G1 X146.124 Y102.634 E28.77683
G1 X146.318 Y103.015 E28.78536
G1 X146.41 Y103.596 E28.7971
G1 X146.41 Y111.429 E28.95341
G1 X146.639 Y112.828 E28.9817
G1 X147.291 Y114.053 E29.0094
G1 X146.214 Y114.053 E29.03089
G1 X144.795 Y114.736 E29.06232
G1 X144.79 Y114.742 E29.06247
