;FLAVOR:Marlin
;TIME:11493
;Filament used: 13.4275m
;Layer height: 0.32
;MINX:3.7
;MINY:80.2
;MINZ:0.2
;MAXX:226.3
;MAXY:149.8
;MAXZ:4.04
;Generated with Cura_SteamEngine 5.4.0
M140 S60
M105
M190 S60
M104 S200
M105
M109 S200
M82 ;absolute extrusion mode
; Ender 3 Custom Start G-code
G92 E0 ; Reset Extruder
G28 ; Home all axes
G1 Z2.0 F3000 ; Move Z Axis up little to prevent scratching of Heat Bed
G1 X0.1 Y20 Z0.3 F5000.0 ; Move to start position
G1 X0.1 Y200.0 Z0.3 F1500.0 E15 ; Draw the first line
G1 X0.4 Y200.0 Z0.3 F5000.0 ; Move to side a little
G1 X0.4 Y20 Z0.3 F1500.0 E30 ; Draw the second line
G92 E0 ; Reset Extruder
G1 Z2.0 F3000 ; Move Z Axis up little to prevent scratching of Heat Bed
G1 X5 Y20 Z0.3 F5000.0 ; Move over to prevent blob squish
G92 E0
G92 E0
G1 F2700 E-20
;LAYER_COUNT:13
;LAYER:0
M107
;MESH:controll.stl
G0 F6000 X9.371 Y84.96 Z0.2
;TYPE:WALL-INNER
G1 F2700 E0
G1 F1200 X9.208 Y85.19 E0.00938
G1 X8.365 Y85.897 E0.04597
G1 X8.092 Y86.01 E0.0558
G1 X6.855 Y86.01 E0.09694
G1 X6.601 Y85.87 E0.10659
G1 X5.814 Y85.21 E0.14075
G1 X5.609 Y84.855 E0.15438
G1 X5.417 Y83.767 E0.19113
G1 X5.48 Y83.483 E0.2008
G1 X6.076 Y82.451 E0.24044
G1 X6.283 Y82.307 E0.24883
G1 X7.362 Y81.91 E0.28707
G1 X7.707 Y81.935 E0.29857
G1 X8.671 Y82.288 E0.33272
G1 X8.984 Y82.552 E0.34634
G1 X9.553 Y83.537 E0.38417
G1 X9.582 Y83.769 E0.39195
G1 X9.371 Y84.96 E0.43218
G1 F2700 E-19.56782
G0 F6000 X9.471 Y84.977
G0 X29.701 Y93.41
G0 X34.989 Y96.678
G1 F2700 E0.43218
G1 F1200 X33.415 Y97.141 E0.48675
G1 X33.132 Y97.148 E0.49616
G1 X31.526 Y96.677 E0.55183
G1 X31.342 Y96.574 E0.55884
G1 X30.231 Y95.289 E0.61534
G1 X30.126 Y95.077 E0.62321
G1 X29.882 Y93.397 E0.67967
G1 X29.903 Y93.176 E0.68706
G1 X30.619 Y91.613 E0.74424
G1 X30.812 Y91.411 E0.75353
G1 X32.192 Y90.526 E0.80806
G1 X32.389 Y90.463 E0.81493
G1 X34.127 Y90.464 E0.87274
G1 X34.325 Y90.527 E0.87965
G1 X35.765 Y91.457 E0.93667
G1 X35.891 Y91.593 E0.94283
G1 X36.601 Y93.157 E0.99996
G1 X36.634 Y93.371 E1.00716
G1 X36.393 Y95.067 E1.06414
G1 X36.314 Y95.261 E1.0711
G1 X35.214 Y96.528 E1.12691
G1 X34.989 Y96.678 E1.13591
G1 F2700 E-18.86409
G0 F6000 X35.276 Y96.609
G0 X36.484 Y95.341
G0 X56.442 Y96.989
G0 X61.784 Y100.256
G1 F2700 E1.13591
G1 F1200 X60.171 Y100.73 E1.19182
G1 X59.863 Y100.739 E1.20207
G1 X58.276 Y100.272 E1.25709
G1 X58.065 Y100.141 E1.26535
G1 X56.97 Y98.877 E1.32098
G1 X56.86 Y98.638 E1.32973
G1 X56.623 Y96.979 E1.38547
G1 X56.645 Y96.771 E1.39242
G1 X57.356 Y95.206 E1.44959
G1 X57.51 Y95.035 E1.45725
G1 X58.943 Y94.117 E1.51385
G1 X59.14 Y94.058 E1.52069
G1 X60.865 Y94.056 E1.57806
G1 X61.115 Y94.15 E1.58695
G1 X62.509 Y95.051 E1.64215
G1 X62.636 Y95.2 E1.64867
G1 X63.35 Y96.772 E1.70609
G1 X63.374 Y97.001 E1.71375
G1 X63.136 Y98.67 E1.76982
G1 X63.047 Y98.853 E1.77659
G1 X61.941 Y100.134 E1.83288
G1 X61.784 Y100.256 E1.83949
G1 F2700 E-18.16051
G0 F6000 X63.196 Y98.955
G0 X71.42 Y98.954
G0 X76.387 Y100.259
G1 F2700 E1.83949
G1 F1200 X74.723 Y100.749 E1.89719
G1 X74.48 Y100.739 E1.90528
G1 X72.839 Y100.256 E1.96217
G1 X72.674 Y100.133 E1.96902
G1 X71.569 Y98.852 E2.02528
G1 X71.48 Y98.669 E2.03205
G1 X71.242 Y97.002 E2.08806
G1 X71.293 Y96.7 E2.09825
G1 X71.981 Y95.199 E2.15316
G1 X72.171 Y95.003 E2.16224
G1 X73.56 Y94.117 E2.21704
G1 X73.757 Y94.058 E2.22388
G1 X75.482 Y94.056 E2.28125
G1 X75.732 Y94.15 E2.29014
G1 X77.063 Y95.004 E2.34273
G1 X77.24 Y95.167 E2.35074
G1 X77.955 Y96.735 E2.40806
G1 X77.992 Y96.996 E2.41682
G1 X77.757 Y98.629 E2.4717
G1 X77.651 Y98.872 E2.48051
G1 X76.562 Y100.13 E2.53585
G1 X76.387 Y100.259 E2.54309
G1 F2700 E-17.45691
G0 F6000 X77.847 Y98.924
G0 X102.607 Y95.647
G0 X104.313 Y95.953
G1 F2700 E2.54309
G1 F1200 X102.629 Y95.466 E2.60139
G1 X102.455 Y95.345 E2.60844
G1 X101.366 Y94.088 E2.66376
G1 X101.259 Y93.88 E2.67154
G1 X101.008 Y92.161 E2.72932
G1 X101.035 Y91.97 E2.73573
G1 X101.751 Y90.409 E2.79285
G1 X101.883 Y90.252 E2.79967
G1 X103.347 Y89.314 E2.8575
G1 X103.52 Y89.259 E2.86354
G1 X105.259 Y89.26 E2.92138
G1 X105.433 Y89.315 E2.92745
G1 X106.88 Y90.24 E2.98457
G1 X107.021 Y90.386 E2.99132
G1 X107.757 Y92.003 E3.05041
G1 X107.763 Y92.205 E3.05713
G1 X107.535 Y93.802 E3.11079
G1 X107.463 Y94.029 E3.11871
G1 X106.311 Y95.356 E3.17716
G1 X106.113 Y95.476 E3.18486
G1 X104.499 Y95.948 E3.24079
G1 X104.313 Y95.953 E3.24698
G1 F2700 E-16.75302
G0 F6000 X106.152 Y95.296
G0 X107.619 Y94.128
G0 X111.157 Y94.126
G0 X114.293 Y95.954
G1 F2700 E3.24698
G1 F1200 X112.664 Y95.475 E3.30345
G1 X112.466 Y95.355 E3.31115
G1 X111.315 Y94.029 E3.36955
G1 X111.243 Y93.801 E3.37751
G1 X111.014 Y92.205 E3.43113
G1 X111.066 Y91.903 E3.44132
G1 X111.758 Y90.385 E3.49681
G1 X111.899 Y90.239 E3.50356
G1 X113.347 Y89.314 E3.56071
G1 X113.52 Y89.259 E3.56675
G1 X115.259 Y89.26 E3.62459
G1 X115.433 Y89.315 E3.63066
G1 X116.896 Y90.253 E3.68846
G1 X117.022 Y90.388 E3.6946
G1 X117.743 Y91.97 E3.75243
G1 X117.765 Y92.171 E3.75915
G1 X117.533 Y93.815 E3.81437
G1 X117.419 Y94.079 E3.82394
G1 X116.313 Y95.354 E3.88008
G1 X116.15 Y95.461 E3.88656
G1 X114.499 Y95.948 E3.94381
G1 X114.293 Y95.954 E3.95067
G1 F2700 E-16.04933
G0 F6000 X115.046 Y95.895
G0 X116.196 Y95.641
G0 X131.129 Y105.052
G0 X133.814 Y110.72
G1 F2700 E3.95067
G1 F1200 X132.179 Y110.238 E4.00736
G1 X131.974 Y110.106 E4.01547
G1 X130.862 Y108.816 E4.07212
G1 X130.778 Y108.643 E4.07851
G1 X130.539 Y106.988 E4.13413
G1 X130.574 Y106.706 E4.14358
G1 X131.279 Y105.167 E4.19988
G1 X131.44 Y104.992 E4.20779
G1 X132.821 Y104.106 E4.26237
G1 X133.124 Y104.024 E4.27281
G1 X134.753 Y104.027 E4.32699
G1 X135.029 Y104.12 E4.33667
G1 X136.432 Y105.02 E4.39211
G1 X136.55 Y105.17 E4.39846
G1 X137.262 Y106.739 E4.45577
G1 X137.296 Y106.91 E4.46157
G1 X137.055 Y108.592 E4.51808
G1 X136.932 Y108.859 E4.52786
G1 X135.827 Y110.136 E4.58403
G1 X135.66 Y110.233 E4.59045
G1 X134.018 Y110.715 E4.64737
G1 X133.814 Y110.72 E4.65415
G1 F2700 E-15.34585
G0 F6000 X135.73 Y110.4
G0 X140.68 Y113.348
G0 X144.054 Y117.468
G1 F2700 E4.65415
G1 F1200 X142.424 Y116.989 E4.71066
G1 X142.213 Y116.846 E4.71914
G1 X141.118 Y115.579 E4.77484
G1 X141.03 Y115.371 E4.78235
G1 X140.78 Y113.65 E4.84019
G1 X140.844 Y113.425 E4.84797
G1 X141.521 Y111.942 E4.90219
G1 X141.637 Y111.782 E4.90876
G1 X143.099 Y110.847 E4.96648
G1 X143.317 Y110.782 E4.97405
G1 X145.018 Y110.783 E5.03063
G1 X145.219 Y110.84 E5.03757
G1 X146.668 Y111.763 E5.09472
G1 X146.828 Y111.97 E5.10342
G1 X147.531 Y113.514 E5.15984
G1 X147.542 Y113.732 E5.1671
G1 X147.297 Y115.398 E5.22311
G1 X147.221 Y115.566 E5.22924
G1 X146.087 Y116.879 E5.28695
G1 X145.88 Y117.001 E5.29494
G1 X144.31 Y117.462 E5.34936
G1 X144.054 Y117.468 E5.35788
G1 F2700 E-14.64212
G0 F6000 X142.403 Y116.816
G0 X141.199 Y115.426
G0 X140.938 Y113.61
G0 X141.702 Y111.934
G0 X143.093 Y111.042
G0 X144.266 Y110.603
G0 X144.304 Y103.724
G0 X144.272 Y103.546
G1 F2700 E5.35788
G1 F1200 X144.056 Y103.544 E5.36506
G1 X142.426 Y103.065 E5.42157
G1 X142.25 Y102.957 E5.42844
G1 X141.102 Y101.638 E5.4866
G1 X141.028 Y101.455 E5.49316
G1 X140.797 Y99.835 E5.54759
G1 X140.819 Y99.566 E5.55657
G1 X141.51 Y98.039 E5.61231
G1 X141.684 Y97.83 E5.62136
G1 X143.1 Y96.922 E5.6773
G1 X143.318 Y96.857 E5.68487
G1 X145.017 Y96.858 E5.74138
G1 X145.235 Y96.923 E5.74895
G1 X146.652 Y97.832 E5.80494
G1 X146.818 Y98.027 E5.81346
G1 X147.506 Y99.536 E5.86862
G1 X147.543 Y99.786 E5.87702
G1 X147.299 Y101.485 E5.93411
G1 X147.227 Y101.634 E5.93962
G1 X146.108 Y102.934 E5.99667
G1 X145.89 Y103.073 E6.00526
G1 X144.272 Y103.546 E6.06133
G1 F2700 E-13.93867
G0 F6000 X142.36 Y103.234
G0 X117.943 Y119.225
G0 X114.316 Y122.96
G1 F2700 E6.06133
G1 F1200 X112.667 Y122.476 E6.11849
G1 X112.475 Y122.371 E6.12577
G1 X111.314 Y121.029 E6.18479
G1 X111.243 Y120.801 E6.19273
G1 X111.014 Y119.205 E6.24636
G1 X111.066 Y118.903 E6.25655
G1 X111.758 Y117.385 E6.31204
G1 X111.899 Y117.239 E6.31879
G1 X113.298 Y116.339 E6.37412
G1 X113.566 Y116.259 E6.38342
G1 X115.213 Y116.26 E6.4382
G1 X115.478 Y116.338 E6.44739
G1 X116.85 Y117.219 E6.50162
G1 X117.023 Y117.389 E6.50969
G1 X117.718 Y118.918 E6.56555
G1 X117.773 Y119.136 E6.57303
G1 X117.528 Y120.841 E6.63032
G1 X117.428 Y121.067 E6.63854
G1 X116.321 Y122.347 E6.69482
G1 X116.107 Y122.478 E6.70317
G1 X114.527 Y122.942 E6.75794
G1 X114.316 Y122.96 E6.76498
G1 F2700 E-13.23502
G0 F6000 X112.625 Y122.295
G0 X111.157 Y121.125
G0 X107.619 Y121.128
G0 X104.316 Y122.96
G1 F2700 E6.76498
G1 F1200 X102.613 Y122.46 E6.82401
G1 X102.466 Y122.355 E6.83002
G1 X101.345 Y121.06 E6.88699
G1 X101.249 Y120.838 E6.89503
G1 X101.014 Y119.208 E6.94981
G1 X101.03 Y118.981 E6.95738
G1 X101.731 Y117.446 E7.0135
G1 X101.919 Y117.225 E7.02315
G1 X103.3 Y116.338 E7.07775
G1 X103.566 Y116.259 E7.08697
G1 X105.213 Y116.26 E7.14175
G1 X105.481 Y116.34 E7.15106
G1 X106.88 Y117.24 E7.20638
G1 X107.021 Y117.386 E7.21313
G1 X107.757 Y119.003 E7.27223
G1 X107.763 Y119.205 E7.27895
G1 X107.535 Y120.802 E7.3326
G1 X107.463 Y121.029 E7.34052
G1 X106.315 Y122.352 E7.39878
G1 X106.11 Y122.477 E7.40677
G1 X104.527 Y122.942 E7.46164
G1 X104.316 Y122.96 E7.46869
G1 F2700 E-12.53131
G0 F6000 X104.288 Y123.058
G0 X102.611 Y122.648
G0 X77.788 Y130.113
G0 X76.376 Y131.386
G1 F2700 E7.46869
G1 F1200 X74.722 Y131.869 E7.526
G1 X74.514 Y131.869 E7.53292
G1 X72.858 Y131.386 E7.59029
G1 X72.704 Y131.284 E7.59643
G1 X71.587 Y130 E7.65304
G1 X71.471 Y129.722 E7.66306
G1 X71.24 Y128.105 E7.71738
G1 X71.293 Y127.823 E7.72693
G1 X71.965 Y126.352 E7.78072
G1 X72.113 Y126.169 E7.78854
G1 X73.565 Y125.237 E7.84593
G1 X73.758 Y125.181 E7.85261
G1 X75.442 Y125.179 E7.90862
G1 X75.654 Y125.231 E7.91588
G1 X77.096 Y126.151 E7.97278
G1 X77.252 Y126.321 E7.98045
G1 X77.965 Y127.887 E8.03768
G1 X77.992 Y128.119 E8.04545
G1 X77.755 Y129.765 E8.10076
G1 X77.675 Y129.967 E8.10799
G1 X76.523 Y131.289 E8.16631
G1 X76.376 Y131.386 E8.17216
G1 F2700 E-11.82784
G0 F6000 X74.618 Y131.734
G0 X72.853 Y131.214
G0 X71.444 Y130.11
G0 X63.191 Y129.783
G0 X61.915 Y130.986
G1 F2700 E8.17216
G1 F1200 X61.756 Y131.085 E8.17839
G1 X60.124 Y131.563 E8.23496
G1 X59.878 Y131.563 E8.24314
G1 X58.217 Y131.075 E8.30072
G1 X58.053 Y130.95 E8.30758
G1 X56.971 Y129.699 E8.36259
G1 X56.868 Y129.519 E8.36949
G1 X56.626 Y127.832 E8.42617
G1 X56.649 Y127.582 E8.43452
G1 X57.355 Y126.035 E8.49108
G1 X57.516 Y125.851 E8.49921
G1 X58.912 Y124.954 E8.5544
G1 X59.112 Y124.876 E8.56154
G1 X60.825 Y124.877 E8.61852
G1 X61.057 Y124.935 E8.62647
G1 X62.474 Y125.845 E8.68248
G1 X62.633 Y126.017 E8.69027
G1 X63.338 Y127.557 E8.7466
G1 X63.383 Y127.767 E8.75375
G1 X63.139 Y129.458 E8.81057
G1 X63.067 Y129.656 E8.81758
G1 X61.915 Y130.986 E8.8761
G1 F2700 E-11.1239
G0 F6000 X60.001 Y131.432
G0 X58.205 Y131.259
G0 X9.746 Y145.879
G0 X9.367 Y146.987
G1 F2700 E8.8761
G1 F1200 X9.186 Y147.21 E8.88566
G1 X8.399 Y147.87 E8.91982
G1 X8.1 Y148.01 E8.9308
G1 X6.869 Y148.01 E8.97174
G1 X6.601 Y147.87 E8.9818
G1 X5.774 Y147.172 E9.01779
G1 X5.632 Y146.969 E9.02603
G1 X5.417 Y145.765 E9.06671
G1 X5.503 Y145.441 E9.07786
G1 X6.016 Y144.552 E9.112
G1 X6.202 Y144.335 E9.1215
G1 X7.385 Y143.901 E9.16341
G1 X7.631 Y143.913 E9.17161
G1 X8.746 Y144.315 E9.21103
G1 X8.932 Y144.462 E9.21891
G1 X9.524 Y145.492 E9.25843
G1 X9.568 Y145.634 E9.26337
G1 X9.568 Y145.846 E9.27042
G1 X9.367 Y146.987 E9.30896
G1 F2700 E-10.69104
G0 F6000 X9.505 Y146.784
G0 X9.746 Y145.879
G0 X176.265 Y107.868
G0 X183.075 Y106.22
G1 F2700 E9.30896
G1 F721.8 X183.076 Y106.044 E9.31869
G0 F6000 X183.202 Y105.781
G0 X182.539 Y107.908
G0 X181.337 Y109.295
G0 X179.577 Y109.812
G0 X177.919 Y109.599
G0 X177.67 Y109.366
G1 F1200 X176.562 Y108.093 E9.37482
G1 X176.443 Y107.835 E9.38427
G1 X176.199 Y106.145 E9.44106
G1 X176.244 Y105.947 E9.44782
G1 X176.941 Y104.414 E9.50383
G1 X177.097 Y104.244 E9.5115
G1 X178.558 Y103.303 E9.5693
G1 X178.79 Y103.269 E9.5771
G1 X180.365 Y103.269 E9.62948
G1 X180.595 Y103.303 E9.63722
G1 X182.096 Y104.266 E9.69653
G1 X182.241 Y104.472 E9.70491
G1 F1041.2 X182.952 Y105.882 E9.76544
G1 F805.4 X183.076 Y106.044 E9.77555
G1 X183.2 Y105.882 E9.78566
G1 F1041.2 X183.91 Y104.471 E9.84621
G1 F1200 X184.054 Y104.264 E9.8546
G1 X185.559 Y103.298 E9.91408
G1 X185.792 Y103.264 E9.92191
G1 X187.366 Y103.265 E9.97426
G1 X187.596 Y103.299 E9.98199
G1 X189.043 Y104.228 E10.03919
G1 X189.221 Y104.425 E10.04802
G1 X189.922 Y105.966 E10.10433
G1 X189.952 Y106.184 E10.11164
G1 X189.717 Y107.826 E10.16681
G1 X189.596 Y108.094 E10.17659
G1 X188.507 Y109.35 E10.23188
G1 X188.309 Y109.476 E10.23969
G1 X186.707 Y109.945 E10.29521
G1 X186.489 Y109.958 E10.30247
G1 X184.869 Y109.483 E10.35862
G1 X184.666 Y109.374 E10.36629
G1 F1118.9 X183.476 Y108 E10.43113
G1 F958.1 X183.285 Y107.13 E10.46823
G1 F816.3 X183.094 Y106.26 E10.51178
G1 F826.2 X183.069 Y106.208 E10.51457
G1 F965.8 X182.677 Y107.996 E10.59021
G1 F1111.1 X181.492 Y109.368 E10.65534
G1 F1200 X181.311 Y109.471 E10.66226
G1 X179.659 Y109.958 E10.71955
G1 X179.473 Y109.947 E10.72574
G1 X177.871 Y109.48 E10.78124
G1 X177.67 Y109.366 E10.78893
G1 F2700 E-9.21107
G0 F6000 X177.919 Y109.599
G0 X176.616 Y107.908
G0 X176.354 Y106.093
G0 X177.116 Y104.423
G0 X178.661 Y103.431
G0 X180.595 Y103.122
G0 X181.31 Y99.661
G0 X183.077 Y96.22
G1 F2700 E10.78893
G1 F716.4 X183.077 Y96.043 E10.79879
G0 F6000 X183.205 Y95.785
G0 X182.539 Y97.908
G0 X181.337 Y99.295
G0 X179.577 Y99.812
G0 X177.945 Y99.607
G0 X177.642 Y99.339
G1 F1200 X176.533 Y98.061 E10.85507
G1 X176.443 Y97.838 E10.86307
G1 X176.2 Y96.153 E10.91969
G1 X176.245 Y95.946 E10.92674
G1 X176.938 Y94.427 E10.98227
G1 X177.085 Y94.253 E10.98984
G1 X178.523 Y93.331 E11.04666
G1 X178.719 Y93.273 E11.05346
G1 X180.443 Y93.274 E11.1108
G1 X180.633 Y93.331 E11.11739
G1 X182.095 Y94.264 E11.17508
G1 X182.241 Y94.472 E11.18353
G1 X182.895 Y95.908 E11.23601
G1 F892.2 X183.077 Y96.043 E11.24615
G1 X183.26 Y95.908 E11.25632
G1 F1200 X183.915 Y94.472 E11.30882
G1 X184.06 Y94.265 E11.31722
G1 X185.496 Y93.345 E11.37395
G1 X185.712 Y93.273 E11.38152
G1 X187.436 Y93.273 E11.43886
G1 X187.632 Y93.331 E11.44566
G1 X189.076 Y94.254 E11.50266
G1 X189.229 Y94.449 E11.5109
G1 X189.932 Y95.99 E11.56724
G1 X189.948 Y96.191 E11.57395
G1 X189.705 Y97.888 E11.63096
G1 X189.607 Y98.075 E11.63799
G1 X188.514 Y99.339 E11.69356
G1 X188.261 Y99.487 E11.70331
G1 X186.681 Y99.947 E11.75805
G1 X186.473 Y99.947 E11.76496
G1 X184.894 Y99.487 E11.81966
G1 X184.675 Y99.381 E11.82776
G1 F1118.9 X183.48 Y97.998 E11.89296
G1 F954.3 X183.288 Y97.129 E11.93018
G1 F812.2 X183.095 Y96.26 E11.97392
G1 F821.9 X183.072 Y96.209 E11.97664
G1 F995.9 X182.676 Y97.998 E12.05008
G1 F1153.8 X181.482 Y99.379 E12.11322
G1 F1200 X181.261 Y99.487 E12.12141
G1 X179.681 Y99.947 E12.17614
G1 X179.473 Y99.947 E12.18306
G1 X177.894 Y99.487 E12.23776
G1 X177.642 Y99.339 E12.24748
G1 F2700 E-7.75252
G0 F6000 X177.945 Y99.607
G0 X179.413 Y99.791
G0 X181.31 Y99.661
G0 X200.322 Y102.601
G0 X201.555 Y103.748
G1 F2700 E12.24748
G1 F1200 X200.464 Y102.488 E12.30291
G1 X200.356 Y102.265 E12.31115
G1 X200.114 Y100.578 E12.36784
G1 X200.147 Y100.36 E12.37517
G1 X200.839 Y98.84 E12.43072
G1 X201.012 Y98.638 E12.43956
G1 X202.47 Y97.699 E12.49724
G1 X202.703 Y97.665 E12.50508
G1 X204.278 Y97.666 E12.55746
G1 X204.509 Y97.7 E12.56523
G1 X206.027 Y98.677 E12.62527
G1 X206.156 Y98.872 E12.63305
G1 X206.829 Y100.356 E12.68724
G1 X206.862 Y100.596 E12.6953
G1 X206.63 Y102.225 E12.75003
G1 X206.512 Y102.49 E12.75968
G1 X205.421 Y103.749 E12.81508
G1 X205.173 Y103.894 E12.82464
G1 X203.594 Y104.352 E12.87932
G1 X203.386 Y104.352 E12.88624
G1 X201.797 Y103.891 E12.94127
G1 X201.555 Y103.748 E12.95062
G1 F2700 E-7.04938
G0 F6000 X201.724 Y103.975
G0 X200.523 Y102.31
G0 X200.261 Y100.495
G0 X201.025 Y98.821
G0 X202.472 Y97.518
G0 X203.255 Y94.852
G0 X201.698 Y94.207
G1 F2700 E12.95062
G1 F1200 X201.545 Y94.085 E12.95713
G1 X200.448 Y92.813 E13.01299
G1 X200.349 Y92.58 E13.02141
G1 X200.114 Y90.931 E13.07681
G1 X200.139 Y90.73 E13.08355
G1 X200.86 Y89.149 E13.14135
G1 X200.984 Y89.001 E13.14777
G1 X202.437 Y88.068 E13.2052
G1 X202.625 Y88.012 E13.21172
G1 X204.357 Y88.013 E13.26933
G1 X204.542 Y88.068 E13.27575
