;FLAVOR:Marlin
;TIME:9976
;Filament used: 11.0706m
;Layer height: 0.32
;MINX:6.272
;MINY:13.078
;MINZ:0.2
;MAXX:207.783
;MAXY:214.588
;MAXZ:4.04
;Generated with Cura_SteamEngine 5.4.0
M140 S60
M105
M190 S60
M104 S200
M105
M109 S200
M82 ;absolute extrusion mode
; Ender 3 Custom Start G-code
G92 E0 ; Reset Extruder
G28 ; Home all axes
G1 Z2.0 F3000 ; Move Z Axis up little to prevent scratching of Heat Bed
G1 X0.1 Y20 Z0.3 F5000.0 ; Move to start position
G1 X0.1 Y200.0 Z0.3 F1500.0 E15 ; Draw the first line
G1 X0.4 Y200.0 Z0.3 F5000.0 ; Move to side a little
G1 X0.4 Y20 Z0.3 F1500.0 E30 ; Draw the second line
G92 E0 ; Reset Extruder
G1 Z2.0 F3000 ; Move Z Axis up little to prevent scratching of Heat Bed
G1 X5 Y20 Z0.3 F5000.0 ; Move over to prevent blob squish
G92 E0
G92 E0
G1 F2700 E-20
;LAYER_COUNT:13
;LAYER:0
M107
;MESH:antenn.stl
G0 F6000 X123.95 Y81.898 Z0.2
;TYPE:WALL-INNER
G1 F2700 E0
G1 F1200 X123.756 Y81.846 E0.00668
G1 X122.333 Y81.027 E0.06129
G1 X122.168 Y80.868 E0.06891
G1 X121.325 Y79.41 E0.12493
G1 X121.285 Y79.222 E0.13132
G1 X121.285 Y77.577 E0.18603
G1 X121.338 Y77.375 E0.19298
G1 X122.168 Y75.935 E0.24826
G1 X122.316 Y75.788 E0.2552
G1 X123.755 Y74.958 E0.31045
G1 X123.957 Y74.905 E0.31739
G1 X125.632 Y74.908 E0.3731
G1 X125.821 Y74.964 E0.37966
G1 X127.248 Y75.788 E0.43447
G1 X127.4 Y75.942 E0.44166
G1 X128.243 Y77.404 E0.4978
G1 X128.279 Y77.592 E0.50416
G1 X128.278 Y79.225 E0.55848
G1 X128.241 Y79.402 E0.56449
G1 X127.396 Y80.866 E0.62071
G1 X127.247 Y81.016 E0.62774
G1 X125.822 Y81.839 E0.68248
G1 X125.58 Y81.9 E0.69078
G1 X123.95 Y81.898 E0.74499
G1 F2700 E-19.25501
G0 F6000 X125.653 Y82.076
G0 X138.785 Y95.208
G0 X141.451 Y99.536
G1 F2700 E0.74499
G1 F1200 X139.962 Y98.67 E0.80228
G1 X139.846 Y98.546 E0.80793
G1 X139.008 Y97.09 E0.8638
G1 X138.963 Y96.911 E0.86994
G1 X138.962 Y95.256 E0.92499
G1 X138.999 Y95.079 E0.931
G1 X139.845 Y93.614 E0.98727
G1 X139.995 Y93.465 E0.9943
G1 X141.419 Y92.643 E1.04899
G1 X141.661 Y92.582 E1.05729
G1 X143.268 Y92.582 E1.11074
G1 X143.51 Y92.648 E1.11908
G1 X144.924 Y93.465 E1.1734
G1 X145.059 Y93.587 E1.17945
G1 X145.916 Y95.071 E1.23645
G1 X145.956 Y95.259 E1.24284
G1 X145.956 Y96.905 E1.29759
G1 X145.903 Y97.107 E1.30453
G1 X145.072 Y98.546 E1.3598
G1 X144.924 Y98.693 E1.36674
G1 X143.485 Y99.523 E1.42199
G1 X143.284 Y99.576 E1.4289
G1 X141.639 Y99.576 E1.48362
G1 X141.451 Y99.536 E1.49001
G1 F2700 E-18.50999
G0 F6000 X141.253 Y99.538
G0 X140.017 Y98.522
G0 X139.123 Y96.973
G0 X139.123 Y95.186
G0 X140.017 Y93.637
G0 X141.566 Y92.744
G0 X143.32 Y92.405
G0 X145.704 Y66.321
G0 X145.471 Y66.108
G1 F2700 E1.49001
G1 F1200 X145.243 Y65.965 E1.49896
G1 X132.813 Y53.535 E2.08363
G1 X132.695 Y53.207 E2.09522
G1 X132.713 Y53.015 E2.10164
G1 X132.813 Y52.797 E2.10962
G1 X141.354 Y44.256 E2.51136
G1 X141.536 Y44.131 E2.5187
G1 X141.737 Y44.082 E2.52558
G1 X141.921 Y44.097 E2.53172
G1 X142.152 Y44.204 E2.54019
G1 X154.618 Y56.674 E3.12665
G1 X154.721 Y56.856 E3.1336
G1 X154.754 Y57.021 E3.1392
G1 X154.731 Y57.223 E3.14596
G1 X154.641 Y57.417 E3.15307
G1 X146.061 Y65.995 E3.5566
G1 X145.928 Y66.082 E3.56189
G1 X145.727 Y66.138 E3.56883
G1 X145.471 Y66.108 E3.5774
G1 F2700 E-16.4226
G0 F6000 X145.119 Y65.983
G0 X145.668 Y66.146
G0 X154.76 Y57.055
G0 X150.489 Y52.263
G0 X156.417 Y43.49
G0 X158.219 Y44.103
G1 F2700 E3.5774
G1 F1200 X156.51 Y43.336 E3.63971
G1 X156.347 Y43.191 E3.64696
G1 X155.241 Y41.771 E3.70683
G1 X155.165 Y41.571 E3.71394
G1 X154.855 Y39.878 E3.77119
G1 X154.853 Y39.672 E3.77804
G1 X155.412 Y37.873 E3.8407
G1 X155.486 Y37.748 E3.84553
G1 X156.804 Y36.425 E3.90764
G1 X156.934 Y36.352 E3.9126
G1 X158.699 Y35.8 E3.97411
G1 X158.894 Y35.79 E3.9806
G1 X160.673 Y36.117 E4.04076
G1 X160.858 Y36.199 E4.04749
G1 X162.289 Y37.319 E4.10793
G1 X162.408 Y37.472 E4.11438
G1 X163.153 Y39.13 E4.17484
G1 X163.189 Y39.333 E4.18169
G1 X163.079 Y41.126 E4.24144
G1 X163.037 Y41.286 E4.24694
G1 X162.061 Y42.906 E4.30985
G1 X161.946 Y43.016 E4.31514
G1 X160.351 Y43.977 E4.37708
G1 X160.217 Y44.021 E4.38177
G1 X158.361 Y44.128 E4.4436
G1 X158.219 Y44.103 E4.4484
G1 F2700 E-15.5516
G0 F6000 X158.532 Y44.222
G0 X156.542 Y43.175
G0 X155.344 Y41.646
G0 X154.997 Y39.742
G0 X155.572 Y37.886
G0 X156.947 Y36.512
G0 X158.96 Y35.617
G0 X161.895 Y19.624
G0 X161.914 Y19.441
G1 F2700 E4.4484
G1 F1200 X161.685 Y19.362 E4.45645
G1 X160.61 Y18.613 E4.50003
G1 X160.468 Y18.429 E4.50776
G1 X160.138 Y17.198 E4.55015
G1 X160.174 Y16.788 E4.56384
G1 X160.694 Y15.669 E4.60488
G1 X160.955 Y15.443 E4.61636
G1 X162.114 Y14.903 E4.65889
G1 X162.418 Y14.916 E4.66901
G1 X163.579 Y15.228 E4.709
G1 X163.829 Y15.381 E4.71874
G1 X164.546 Y16.405 E4.76032
G1 X164.653 Y16.804 E4.77406
G1 X164.549 Y17.963 E4.81276
G1 X164.469 Y18.241 E4.82239
G1 X163.489 Y19.213 E4.86829
G1 X163.227 Y19.323 E4.87775
G1 X161.914 Y19.441 E4.92159
G1 F2700 E-15.07841
G0 F6000 X161.924 Y19.54
G0 X163.327 Y19.496
G0 X201.811 Y56.827
G0 X202.997 Y60.661
G1 F2700 E4.92159
G1 F1200 X201.864 Y59.869 E4.96757
G1 X201.721 Y59.67 E4.97572
G1 X201.387 Y58.413 E5.01898
G1 X201.399 Y58.118 E5.0288
G1 X201.964 Y56.924 E5.07273
G1 X202.127 Y56.745 E5.08079
G1 X203.269 Y56.211 E5.12272
G1 X203.454 Y56.159 E5.12911
G1 X203.679 Y56.176 E5.13661
G1 X204.803 Y56.477 E5.17531
G1 X205.097 Y56.653 E5.18671
G1 X205.871 Y57.76 E5.23164
G1 X205.913 Y58.02 E5.2404
G1 X205.808 Y59.223 E5.28056
G1 X205.718 Y59.511 E5.2906
G1 X204.815 Y60.414 E5.33307
G1 X204.443 Y60.587 E5.34672
G1 X203.285 Y60.69 E5.38538
G1 X202.997 Y60.661 E5.39501
G1 F2700 E-14.60499
G0 F6000 X201.831 Y60.067
G0 X119.516 Y123.415
G0 X115.77 Y129.457
G1 F2700 E5.39501
G1 F1200 X114.3 Y128.614 E5.45137
G1 X114.148 Y128.46 E5.45857
G1 X113.33 Y127.042 E5.51302
G1 X113.27 Y126.823 E5.52057
G1 X113.271 Y125.171 E5.57551
G1 X113.318 Y124.985 E5.5819
G1 X114.159 Y123.526 E5.63791
G1 X114.3 Y123.387 E5.64449
G1 X115.764 Y122.541 E5.70073
G1 X115.947 Y122.504 E5.70694
G1 X117.611 Y122.506 E5.76229
G1 X117.804 Y122.562 E5.76897
G1 X119.245 Y123.391 E5.82426
G1 X119.371 Y123.516 E5.83017
G1 X120.203 Y124.959 E5.88557
G1 X120.262 Y125.174 E5.89298
G1 X120.262 Y126.835 E5.94823
G1 X120.214 Y127.017 E5.95449
G1 X119.374 Y128.475 E6.01045
G1 X119.233 Y128.614 E6.01704
G1 X117.783 Y129.448 E6.07267
G1 X117.601 Y129.496 E6.07893
G1 X115.942 Y129.497 E6.13411
G1 X115.77 Y129.457 E6.13999
G1 F2700 E-13.86001
G0 F6000 X114.324 Y128.443
G0 X113.138 Y127.074
G0 X102.454 Y116.393
G0 X99.213 Y119.015
G1 F2700 E6.13999
G1 F1200 X98.936 Y118.885 E6.15016
G1 X85.055 Y105.006 E6.80304
G1 X84.967 Y104.834 E6.80946
G1 X84.937 Y104.567 E6.8184
G1 X85.054 Y104.273 E6.82892
G1 X93.646 Y95.673 E7.23325
G1 X93.959 Y95.552 E7.24441
G1 X94.229 Y95.587 E7.25347
G1 X94.396 Y95.677 E7.25978
G1 X108.258 Y109.541 E7.91185
G1 X108.388 Y109.784 E7.92102
G1 X108.407 Y109.967 E7.92714
G1 X108.366 Y110.159 E7.93367
G1 X108.284 Y110.311 E7.93941
G1 X99.727 Y118.868 E8.34191
G1 X99.478 Y119.004 E8.35134
G1 X99.213 Y119.015 E8.36016
G1 F2700 E-11.63984
G0 F6000 X99.21 Y119.018
G0 X87.571 Y130.723
G0 X87.507 Y165.985
G1 F2700 E8.36016
G1 F1200 X87.26 Y166.052 E8.36868
G1 X87.108 Y166.04 E8.37375
G1 X86.852 Y165.925 E8.38308
G1 X54.936 Y134.009 E9.88431
G1 X54.821 Y133.753 E9.89365
G1 X54.841 Y133.436 E9.90421
G1 X54.935 Y133.256 E9.91096
G1 X72.008 Y116.183 E10.71403
G1 X72.182 Y116.095 E10.72051
G1 X72.498 Y116.073 E10.73105
G1 X72.754 Y116.187 E10.74037
G1 X104.672 Y148.104 E12.24167
G1 X104.787 Y148.36 E12.251
G1 X104.767 Y148.677 E12.26157
G1 X104.673 Y148.857 E12.26832
G1 X87.654 Y165.877 E13.06887
G1 X87.507 Y165.985 E13.07493
G1 F2700 E-6.92507
G0 F6000 X87.726 Y165.946
G0 X87.229 Y166.058
G0 X75.306 Y154.63
G0 X65.778 Y163.242
G0 X63.767 Y166.169
G1 F2700 E13.07493
G1 F781.8 X63.728 Y166.234 E13.0788
G1 X63.653 Y166.234 E13.08263
G1 X63.615 Y166.169 E13.08648
G1 X63.654 Y166.104 E13.09035
G1 X63.728 Y166.104 E13.09413
G0 F6000 X63.721 Y166.139
G0 X63.619 Y184.084
G0 X62.349 Y184.169
G0 X62.349 Y184.264
G1 F1200 X62.607 Y184.433 E13.10438
G1 X62.735 Y184.787 E13.1169
G1 X62.724 Y185.008 E13.12426
G1 X62.569 Y185.289 E13.13494
G1 X61.759 Y186.114 E13.17339
G1 X61.534 Y186.208 E13.1815
G1 X61.308 Y186.217 E13.18902
G1 X60.952 Y186.085 E13.20165
G1 X60.791 Y185.88 E13.21032
G1 X60.791 Y186.66 E13.23627
G1 X60.749 Y186.882 E13.24378
G1 X60.616 Y187.085 E13.25185
G1 F1159.4 X60.327 Y187.257 E13.26343
G1 F1083.5 X57.992 Y187.267 E13.34944
G1 F892.2 X57.735 Y187.212 E13.3612
G1 X57.79 Y187.469 E13.37296
G1 F1118.9 X57.792 Y188.602 E13.41337
G1 F1200 X57.739 Y188.85 E13.42181
G1 X57.518 Y189.107 E13.43308
G1 X56.787 Y189.471 E13.46024
G1 X56.063 Y189.789 E13.48654
G1 X55.278 Y190.098 E13.5146
G1 X54.977 Y190.05 E13.52474
G1 X54.732 Y189.802 E13.53633
G1 X54.588 Y190.121 E13.54797
G1 X54.319 Y190.269 E13.55819
G1 X52.117 Y190.265 E13.63142
G1 X51.872 Y190.177 E13.64008
G1 X51.692 Y189.882 E13.65158
G1 X51.512 Y190.177 E13.66307
G1 X51.224 Y190.269 E13.67313
G1 X49.13 Y190.27 E13.74277
G1 X48.876 Y190.181 E13.75173
G1 X48.692 Y189.881 E13.76343
G1 X48.508 Y190.181 E13.77514
G1 X48.223 Y190.269 E13.78506
G1 X46.107 Y190.264 E13.85544
G1 X45.845 Y190.16 E13.86481
G1 X45.692 Y189.893 E13.87505
G1 X45.539 Y190.16 E13.88528
G1 X45.228 Y190.269 E13.89624
G1 X43.118 Y190.265 E13.96642
G1 X42.815 Y190.138 E13.97735
G1 X42.653 Y189.797 E13.9899
G1 X42.382 Y190.06 E14.00246
G1 X42.053 Y190.073 E14.01342
G1 X41.402 Y189.829 E14.03654
G1 X40.598 Y189.469 E14.06584
G1 X39.847 Y189.094 E14.09376
G1 X39.644 Y188.849 E14.10434
G1 X39.592 Y188.602 E14.11274
G1 F1118.9 X39.594 Y187.469 E14.15315
G1 F892.2 X39.649 Y187.212 E14.16491
G1 X39.392 Y187.267 E14.17667
G1 F1118.9 X37.146 Y187.267 E14.25678
G1 F1200 X36.887 Y187.18 E14.26587
G1 X36.747 Y187.061 E14.27198
G1 X36.64 Y186.879 E14.279
G1 X36.603 Y186.673 E14.28597
G1 X36.599 Y185.869 E14.31271
G1 X36.431 Y186.084 E14.32178
G1 X36.073 Y186.217 E14.33448
G1 X35.861 Y186.211 E14.34154
G1 X35.608 Y186.092 E14.35084
G1 X34.75 Y185.225 E14.39141
G1 X34.656 Y184.996 E14.39964
G1 X34.648 Y184.784 E14.4067
G1 X34.777 Y184.43 E14.41923
G1 X34.982 Y184.269 E14.4279
G1 X34.201 Y184.269 E14.45387
G1 X33.992 Y184.232 E14.46093
G1 X33.745 Y184.061 E14.47093
G1 X33.649 Y183.905 E14.47702
G1 X33.603 Y183.727 E14.48313
G1 F1118.9 X33.593 Y181.468 E14.56372
G1 F892.2 X33.648 Y181.212 E14.57543
G1 X33.392 Y181.267 E14.58714
G1 F1118.9 X32.259 Y181.269 E14.62756
G1 F1200 X32.01 Y181.216 E14.63603
G1 X31.764 Y181.009 E14.64672
G1 X31.407 Y180.297 E14.67321
G1 X31.067 Y179.528 E14.70118
G1 X30.788 Y178.811 E14.72677
G1 X30.802 Y178.479 E14.73782
G1 X31.064 Y178.208 E14.75035
G1 X30.724 Y178.045 E14.7629
G1 X30.592 Y177.783 E14.77265
G1 X30.597 Y175.584 E14.84579
G1 X30.701 Y175.322 E14.85517
G1 X30.968 Y175.169 E14.8654
G1 X30.701 Y175.016 E14.87564
G1 X30.592 Y174.705 E14.8866
G1 X30.598 Y172.577 E14.95738
G1 X30.68 Y172.353 E14.96531
G1 X30.98 Y172.169 E14.97702
G1 X30.68 Y171.985 E14.98872
G1 X30.592 Y171.697 E14.99874
G1 X30.596 Y169.594 E15.06868
G1 X30.683 Y169.35 E15.0773
G1 X30.979 Y169.169 E15.08884
G1 X30.683 Y168.988 E15.10038
G1 X30.592 Y168.701 E15.11039
G1 X30.597 Y166.588 E15.18067
G1 X30.74 Y166.273 E15.19218
G1 X31.059 Y166.129 E15.20382
G1 X30.81 Y165.883 E15.21546
G1 X30.777 Y165.747 E15.22012
G1 X30.797 Y165.496 E15.22849
G1 X31.077 Y164.787 E15.25384
G1 X31.418 Y164.02 E15.28176
G1 X31.748 Y163.346 E15.30672
G1 X32.011 Y163.122 E15.31821
G1 X32.259 Y163.069 E15.32665
G1 X33.333 Y163.069 E15.36237
G1 X33.617 Y163.243 E15.37345
G1 X33.692 Y163.348 E15.37774
G1 X33.871 Y163.168 E15.38618
G1 X33.767 Y163.093 E15.39045
G1 X33.623 Y162.858 E15.39961
G1 X33.593 Y162.668 E15.40601
G1 X33.599 Y160.606 E15.47459
G1 X33.678 Y160.367 E15.48297
G1 X33.771 Y160.247 E15.48801
G1 X33.976 Y160.113 E15.49616
G1 X34.195 Y160.072 E15.50357
G1 X35.025 Y160.071 E15.53118
G1 X34.775 Y159.907 E15.54112
G1 X34.646 Y159.553 E15.55365
G1 X34.657 Y159.329 E15.56111
G1 X34.764 Y159.097 E15.56961
G1 X35.38 Y158.47 E15.59884
G1 X35.632 Y158.233 E15.61035
G1 X35.853 Y158.135 E15.61839
G1 X36.078 Y158.124 E15.62588
G1 X36.43 Y158.254 E15.63836
G1 X36.592 Y158.5 E15.64816
G1 X36.592 Y157.678 E15.6755
G1 X36.633 Y157.457 E15.68298
G1 X36.767 Y157.253 E15.69109
G1 X37.469 Y156.714 E15.72053
G1 X38.185 Y156.217 E15.74952
G1 X38.789 Y155.849 E15.77304
G1 X39.03 Y155.802 E15.78121
G1 X39.313 Y155.877 E15.79095
G1 X39.483 Y155.971 E15.79741
G1 X39.592 Y156.157 E15.80458
G1 X39.592 Y155.718 E15.81918
G1 X39.672 Y155.436 E15.82893
G1 X39.851 Y155.243 E15.83769
G1 X40.573 Y154.882 E15.86453
G1 X41.427 Y154.5 E15.89565
G1 X42.024 Y154.273 E15.91689
G1 X42.27 Y154.254 E15.9251
G1 X42.406 Y154.288 E15.92976
G1 X42.651 Y154.536 E15.94136
G1 X42.795 Y154.217 E15.953
G1 X42.91 Y154.138 E15.95764
G1 X43.146 Y154.07 E15.96581
G1 X45.227 Y154.069 E16.03502
G1 X45.516 Y154.163 E16.04513
G1 X45.692 Y154.486 E16.05736
G1 X45.868 Y154.163 E16.0696
G1 X46.115 Y154.073 E16.07834
G1 X48.265 Y154.073 E16.14985
G1 X48.505 Y154.156 E16.1583
G1 X48.692 Y154.49 E16.17103
G1 X48.879 Y154.156 E16.18376
G1 X49.165 Y154.069 E16.1937
G1 X51.192 Y154.068 E16.26112
G1 X51.531 Y154.173 E16.27293
G1 X51.692 Y154.479 E16.28443
G1 X51.853 Y154.173 E16.29593
G1 X52.162 Y154.069 E16.30677
G1 X54.239 Y154.07 E16.37585
G1 X54.57 Y154.201 E16.38769
G1 X54.732 Y154.541 E16.40022
G1 X55.002 Y154.28 E16.41271
G1 X55.338 Y154.262 E16.4239
G1 X55.942 Y154.494 E16.44542
G1 X56.827 Y154.89 E16.47767
G1 X57.537 Y155.245 E16.50407
G1 X57.739 Y155.489 E16.5146
G1 X57.793 Y155.737 E16.52305
G1 X57.792 Y156.81 E16.55873
G1 X57.618 Y157.094 E16.56981
G1 X57.513 Y157.169 E16.5741
G1 X57.693 Y157.348 E16.58255
G1 X57.768 Y157.244 E16.58681
G1 X58.003 Y157.1 E16.59598
G1 X58.193 Y157.07 E16.60238
G1 X60.248 Y157.076 E16.67073
G1 X60.448 Y157.132 E16.67763
G1 X60.575 Y157.214 E16.68266
G1 X60.711 Y157.378 E16.68975
G1 X60.788 Y157.672 E16.69986
G1 X60.789 Y158.503 E16.7275
G1 X60.954 Y158.252 E16.73749
G1 X61.309 Y158.121 E16.75007
G1 X61.522 Y158.127 E16.75716
G1 X61.776 Y158.242 E16.76643
G1 X62.604 Y159.088 E16.80581
G1 X62.727 Y159.341 E16.81516
G1 X62.735 Y159.554 E16.82225
G1 X62.608 Y159.904 E16.83463
G1 X62.399 Y160.069 E16.84349
G1 X63.182 Y160.069 E16.86953
G1 X63.519 Y160.171 E16.88125
G1 X63.674 Y160.324 E16.88849
G1 X63.752 Y160.478 E16.89423
G1 X63.782 Y160.665 E16.90053
G1 X63.792 Y162.67 E16.96722
G1 X63.761 Y162.859 E16.97359
G1 X63.616 Y163.094 E16.98277
G1 X63.512 Y163.169 E16.98704
G1 X63.691 Y163.349 E16.99548
G1 X63.766 Y163.244 E16.99977
G1 X64.05 Y163.069 E17.01087
G1 X65.124 Y163.069 E17.04659
G1 X65.373 Y163.122 E17.05505
G1 X65.627 Y163.34 E17.06619
G1 X65.999 Y164.088 E17.09397
G1 X66.296 Y164.76 E17.11841
G1 X66.587 Y165.497 E17.14476
G1 X66.581 Y165.859 E17.15681
G1 X66.319 Y166.129 E17.16932
G1 X66.659 Y166.292 E17.18186
G1 X66.79 Y166.622 E17.19367
G1 X66.791 Y168.704 E17.26292
G1 X66.687 Y169.008 E17.2736
G1 X66.381 Y169.169 E17.2851
G1 X66.687 Y169.33 E17.2966
G1 X66.791 Y169.639 E17.30745
G1 X66.787 Y171.742 E17.37739
G1 X66.704 Y171.982 E17.38584
G1 X66.37 Y172.169 E17.39857
G1 X66.704 Y172.356 E17.4113
G1 X66.791 Y172.642 E17.42125
G1 X66.787 Y174.746 E17.49123
G1 X66.697 Y174.993 E17.49997
G1 X66.374 Y175.169 E17.5122
G1 X66.697 Y175.345 E17.52444
G1 X66.787 Y175.592 E17.53318
G1 X66.79 Y177.715 E17.60379
G1 X66.722 Y177.95 E17.61193
G1 X66.643 Y178.065 E17.61657
G1 X66.324 Y178.209 E17.62821
G1 X66.572 Y178.454 E17.63981
G1 X66.598 Y178.82 E17.65201
G1 X66.302 Y179.561 E17.67855
G1 X65.984 Y180.284 E17.70482
G1 X65.629 Y180.995 E17.73125
G1 X65.371 Y181.217 E17.74257
G1 X65.124 Y181.269 E17.75097
G1 F1118.9 X63.991 Y181.267 E17.79138
G1 F892.2 X63.734 Y181.212 E17.80314
G1 X63.789 Y181.469 E17.8149
G1 F1118.9 X63.788 Y183.724 E17.89534
G1 F1200 X63.709 Y183.963 E17.90371
G1 X63.616 Y184.083 E17.90876
G1 X63.411 Y184.217 E17.9169
G1 X63.195 Y184.258 E17.92422
G1 X62.349 Y184.264 E17.95235
G0 F6000 X62.349 Y184.169
G0 X60.767 Y184.169
G1 F781.8 X60.728 Y184.234 E17.95623
G1 X60.653 Y184.234 E17.96005
G1 X60.615 Y184.169 E17.9639
