;FLAVOR:Marlin
;TIME:8099
;Filament used: 9.62374m
;Layer height: 0.32
;MINX:8.7
;MINY:91.331
;MINZ:0.2
;MAXX:231.3
;MAXY:150.929
;MAXZ:4.04
;Generated with Cura_SteamEngine 5.4.0
M140 S60
M105
M190 S60
M104 S200
M105
M109 S200
M82 ;absolute extrusion mode
; Ender 3 Custom Start G-code
G92 E0 ; Reset Extruder
G28 ; Home all axes
G1 Z2.0 F3000 ; Move Z Axis up little to prevent scratching of Heat Bed
G1 X0.1 Y20 Z0.3 F5000.0 ; Move to start position
G1 X0.1 Y200.0 Z0.3 F1500.0 E15 ; Draw the first line
G1 X0.4 Y200.0 Z0.3 F5000.0 ; Move to side a little
G1 X0.4 Y20 Z0.3 F1500.0 E30 ; Draw the second line
G92 E0 ; Reset Extruder
G1 Z2.0 F3000 ; Move Z Axis up little to prevent scratching of Heat Bed
G1 X5 Y20 Z0.3 F5000.0 ; Move over to prevent blob squish
G92 E0
G92 E0
G1 F2700 E-20
;LAYER_COUNT:13
;LAYER:0
M107
;MESH:PGS.stl
G0 F6000 X14.37 Y96.093 Z0.2
;TYPE:WALL-INNER
G1 F2700 E0
G1 F1200 X14.244 Y96.284 E0.00761
G1 X13.317 Y97.065 E0.04793
G1 X13.084 Y97.139 E0.05606
G1 X11.855 Y97.139 E0.09693
G1 X11.601 Y96.999 E0.10658
G1 X10.815 Y96.34 E0.1407
G1 X10.609 Y95.985 E0.15435
G1 X10.417 Y94.896 E0.19113
G1 X10.48 Y94.613 E0.20077
G1 X11.076 Y93.578 E0.24049
G1 X11.283 Y93.434 E0.24888
G1 X12.362 Y93.04 E0.28709
G1 X12.705 Y93.064 E0.29852
G1 X13.669 Y93.414 E0.33263
G1 X13.985 Y93.679 E0.34635
G1 X14.552 Y94.664 E0.38415
G1 X14.582 Y94.899 E0.39203
G1 X14.37 Y96.093 E0.43236
G1 F2700 E-19.56764
G0 F6000 X14.361 Y96.429
G0 X23.592 Y101.231
G0 X35.385 Y113.96
G1 F2700 E0.43236
G1 F1200 X32.62 Y114.909 E0.52959
G1 X29.691 Y114.909 E0.62701
G1 X26.935 Y113.96 E0.72396
G1 X24.642 Y112.174 E0.82063
G1 X23.046 Y109.723 E0.91791
G1 X22.336 Y106.915 E1.01424
G1 X22.572 Y104.006 E1.11132
G1 X23.745 Y101.332 E1.20843
G1 X25.65 Y99.258 E1.3021
G1 X25.806 Y99.137 E1.30866
G1 X28.287 Y97.795 E1.40248
G1 X31.156 Y97.317 E1.49922
G1 X34.037 Y97.797 E1.59636
G1 X36.515 Y99.137 E1.69006
G1 X36.671 Y99.258 E1.69663
G1 X38.57 Y101.322 E1.78991
G1 X39.748 Y104.009 E1.88749
G1 X39.988 Y106.896 E1.98385
G1 X39.272 Y109.736 E2.08126
G1 X37.677 Y112.175 E2.17819
G1 X35.385 Y113.96 E2.27481
G1 F2700 E-17.72519
G0 F6000 X35.448 Y114.04
G0 X32.649 Y115.089
G0 X31.14 Y127.046
G0 X35.379 Y143.875
G1 F2700 E2.27481
G1 F1200 X32.621 Y144.822 E2.3718
G1 X29.802 Y144.822 E2.46556
G1 X29.607 Y144.79 E2.47213
G1 X26.942 Y143.875 E2.56585
G1 X24.723 Y142.146 E2.65941
G1 X24.589 Y142.001 E2.66598
G1 X23.051 Y139.648 E2.75948
G1 X22.336 Y136.824 E2.85637
G1 X22.578 Y133.897 E2.95405
G1 X23.745 Y131.238 E3.05063
G1 X25.717 Y129.097 E3.14745
G1 X28.294 Y127.704 E3.24488
G1 X31.157 Y127.229 E3.3414
G1 X34.039 Y127.711 E3.43859
G1 X36.602 Y129.093 E3.53544
G1 X38.569 Y131.232 E3.63209
G1 X39.744 Y133.898 E3.72899
G1 X39.988 Y136.805 E3.82602
G1 X39.267 Y139.652 E3.9237
G1 X37.732 Y142.001 E4.01703
G1 X37.598 Y142.146 E4.0236
G1 X35.379 Y143.875 E4.11716
G1 F2700 E-15.88284
G0 F6000 X35.442 Y143.954
G0 X32.591 Y144.661
G0 X29.73 Y144.661
G0 X26.855 Y144.037
G0 X14.764 Y146.899
G0 X14.367 Y148.117
G1 F2700 E4.11716
G1 F1200 X14.185 Y148.341 E4.12676
G1 X13.399 Y149 E4.16087
G1 X13.1 Y149.139 E4.17184
G1 X11.869 Y149.139 E4.21278
G1 X11.601 Y148.999 E4.22284
G1 X10.774 Y148.302 E4.25881
G1 X10.632 Y148.099 E4.26705
G1 X10.417 Y146.894 E4.30777
G1 X10.502 Y146.57 E4.31891
G1 X11.016 Y145.679 E4.35312
G1 X11.163 Y145.508 E4.36062
G1 X11.331 Y145.414 E4.36702
G1 X12.38 Y145.034 E4.40413
G1 X12.705 Y145.064 E4.41499
G1 X13.726 Y145.438 E4.45115
G1 X13.969 Y145.653 E4.46194
G1 X14.542 Y146.646 E4.50007
G1 X14.583 Y146.892 E4.50837
G1 X14.367 Y148.117 E4.54974
G1 F2700 E-15.45026
G0 F6000 X14.187 Y148.47
G0 X14.764 Y146.899
G0 X58.578 Y141.016
G0 X71.606 Y143.08
G1 F2700 E4.54974
G1 F1200 X69.038 Y144.468 E4.64683
G1 X66.167 Y144.948 E4.74365
G1 X63.284 Y144.468 E4.84085
G1 X60.802 Y143.126 E4.9347
G1 X60.646 Y143.005 E4.94127
G1 X58.746 Y140.94 E5.0346
G1 X57.567 Y138.249 E5.13232
G1 X57.334 Y135.443 E5.22596
G1 X57.351 Y135.256 E5.23221
G1 X58.039 Y132.537 E5.32549
G1 X59.641 Y130.08 E5.42305
G1 X61.934 Y128.293 E5.51974
G1 X64.7 Y127.344 E5.617
G1 X67.633 Y127.345 E5.71455
G1 X70.391 Y128.295 E5.81158
G1 X72.685 Y130.085 E5.90835
G1 X74.279 Y132.529 E6.0054
G1 X74.993 Y135.353 E6.10228
G1 X74.749 Y138.26 E6.19931
G1 X73.574 Y140.941 E6.29667
G1 X71.606 Y143.08 E6.39334
G1 F2700 E-13.60666
G0 F6000 X71.68 Y143.148
G0 X73.444 Y140.843
G0 X74.594 Y138.218
G0 X74.831 Y135.366
G0 X74.129 Y132.589
G0 X72.563 Y130.193
G0 X70.302 Y128.431
G0 X67.666 Y127.165
G0 X66.179 Y115.22
G0 X69.029 Y114.56
G1 F2700 E6.39334
G1 F1200 X66.162 Y115.037 E6.49001
G1 X63.279 Y114.553 E6.58724
G1 X60.713 Y113.169 E6.68421
G1 X58.732 Y111.007 E6.78174
G1 X57.571 Y108.359 E6.87791
G1 X57.326 Y105.444 E6.9752
G1 X58.048 Y102.603 E7.0727
G1 X59.585 Y100.254 E7.16606
G1 X59.719 Y100.109 E7.17263
G1 X61.94 Y98.378 E7.26629
G1 X64.702 Y97.431 E7.3634
G1 X67.523 Y97.432 E7.45723
G1 X67.717 Y97.464 E7.46377
G1 X70.382 Y98.379 E7.55749
G1 X72.603 Y100.11 E7.65114
G1 X72.737 Y100.255 E7.65771
G1 X74.273 Y102.605 E7.75109
G1 X74.993 Y105.444 E7.8485
G1 X74.751 Y108.35 E7.94549
G1 X73.578 Y111.027 E8.0427
G1 X71.615 Y113.162 E8.13916
G1 X69.029 Y114.56 E8.23694
G1 F2700 E-11.76306
G0 F6000 X69.046 Y114.66
G0 X71.726 Y113.305
G0 X95.602 Y113.315
G0 X101.162 Y115.037
G1 F2700 E8.23694
G1 F1200 X98.279 Y114.553 E8.33417
G1 X95.713 Y113.169 E8.43114
G1 X93.741 Y111.024 E8.52805
G1 X92.569 Y108.349 E8.62518
G1 X92.328 Y105.435 E8.72243
G1 X93.048 Y102.603 E8.81962
G1 X94.585 Y100.254 E8.91299
G1 X94.719 Y100.109 E8.91956
G1 X96.94 Y98.378 E9.01321
G1 X99.702 Y97.431 E9.11033
G1 X102.523 Y97.432 E9.20415
G1 X102.717 Y97.464 E9.21069
G1 X105.382 Y98.379 E9.30441
G1 X107.603 Y100.11 E9.39807
G1 X107.737 Y100.255 E9.40463
G1 X109.273 Y102.605 E9.49801
G1 X109.993 Y105.444 E9.59542
G1 X109.751 Y108.35 E9.69241
G1 X108.578 Y111.027 E9.78962
G1 X106.615 Y113.162 E9.88609
G1 X104.029 Y114.56 E9.98386
G1 X101.162 Y115.037 E10.08053
G1 F2700 E-9.91947
G0 F6000 X101.18 Y115.139
G0 X101.174 Y127.165
G0 X104.038 Y144.468
G1 F2700 E10.08053
G1 F1200 X101.167 Y144.948 E10.17734
G1 X98.284 Y144.468 E10.27455
G1 X95.802 Y143.126 E10.3684
G1 X95.646 Y143.005 E10.37497
G1 X93.746 Y140.94 E10.4683
G1 X92.571 Y138.259 E10.56566
G1 X92.328 Y135.344 E10.66294
G1 X93.042 Y132.528 E10.75957
G1 X94.633 Y130.09 E10.8564
G1 X96.933 Y128.293 E10.95347
G1 X99.7 Y127.344 E11.05077
G1 X102.633 Y127.345 E11.14832
G1 X105.391 Y128.295 E11.24534
G1 X107.685 Y130.085 E11.34212
G1 X109.279 Y132.529 E11.43917
G1 X109.993 Y135.353 E11.53605
G1 X109.749 Y138.26 E11.63308
G1 X108.574 Y140.941 E11.73044
G1 X106.606 Y143.08 E11.82711
G1 X104.038 Y144.468 E11.9242
G1 F2700 E-8.0758
G0 F6000 X104.087 Y144.556
G0 X106.718 Y143.225
G0 X130.6 Y143.223
G0 X133.284 Y144.468
G1 F2700 E11.9242
G1 F1200 X130.802 Y143.126 E12.01805
G1 X130.646 Y143.005 E12.02461
G1 X128.746 Y140.94 E12.11794
G1 X127.571 Y138.259 E12.2153
G1 X127.328 Y135.344 E12.31259
G1 X128.042 Y132.528 E12.40922
G1 X129.633 Y130.09 E12.50604
G1 X131.933 Y128.293 E12.60312
G1 X134.7 Y127.344 E12.70041
G1 X137.633 Y127.345 E12.79797
G1 X140.389 Y128.294 E12.89491
G1 X142.674 Y130.075 E12.99127
G1 X144.278 Y132.524 E13.08864
G1 X144.992 Y135.36 E13.18591
G1 X144.752 Y138.258 E13.28263
G1 X143.574 Y140.941 E13.38009
G1 X141.606 Y143.08 E13.47676
G1 X139.038 Y144.468 E13.57385
G1 X136.167 Y144.948 E13.67067
G1 X133.284 Y144.468 E13.76788
G1 F2700 E-6.23212
G0 F6000 X132.525 Y144.172
G0 X130.816 Y142.949
G0 X128.876 Y140.842
G0 X127.726 Y138.217
G0 X127.49 Y135.368
G0 X128.193 Y132.588
G0 X129.76 Y130.191
G0 X132.02 Y128.43
G0 X134.457 Y127.595
G0 X136.174 Y127.165
G0 X136.179 Y115.22
G0 X136.162 Y115.037
G1 F2700 E13.76788
G1 F1200 X133.279 Y114.553 E13.86511
G1 X130.713 Y113.169 E13.96207
G1 X128.741 Y111.024 E14.05899
G1 X127.569 Y108.349 E14.15612
G1 X127.328 Y105.435 E14.25337
G1 X128.048 Y102.603 E14.35056
G1 X129.585 Y100.254 E14.44393
G1 X129.719 Y100.109 E14.45049
G1 X131.94 Y98.378 E14.54415
G1 X134.702 Y97.431 E14.64127
G1 X137.523 Y97.432 E14.73509
G1 X137.717 Y97.464 E14.74163
G1 X140.382 Y98.379 E14.83535
G1 X142.603 Y100.11 E14.92901
G1 X142.737 Y100.255 E14.93557
G1 X144.273 Y102.605 E15.02895
G1 X144.993 Y105.453 E15.12665
G1 X144.752 Y108.348 E15.22327
G1 X143.58 Y111.023 E15.32041
G1 X141.615 Y113.162 E15.41702
G1 X139.029 Y114.56 E15.51479
G1 X136.162 Y115.037 E15.61146
G1 F2700 E-4.38854
G0 F6000 X136.18 Y115.139
G0 X139.083 Y114.736
G0 X168.354 Y124.761
G0 X172.414 Y128.918
G1 F2700 E15.61146
G1 F1200 X170.115 Y127.13 E15.70833
G1 X168.521 Y124.688 E15.80532
G1 X167.804 Y121.847 E15.90278
G1 X168.046 Y118.95 E15.99947
G1 X169.213 Y116.294 E16.09596
G1 X171.188 Y114.141 E16.19313
G1 X173.743 Y112.759 E16.28974
G1 X176.632 Y112.273 E16.38718
G1 X179.511 Y112.754 E16.48427
G1 X182.073 Y114.138 E16.58112
G1 X184.057 Y116.301 E16.67874
G1 X185.221 Y118.955 E16.77513
G1 X185.453 Y121.761 E16.86877
G1 X185.436 Y121.959 E16.87538
G1 X184.744 Y124.687 E16.96899
G1 X183.149 Y127.13 E17.06603
G1 X180.854 Y128.917 E17.16277
G1 X178.094 Y129.866 E17.25985
G1 X175.17 Y129.866 E17.3571
G1 X172.414 Y128.918 E17.45404
G1 F2700 E-2.54596
G0 F6000 X172.352 Y129
G0 X175.201 Y129.706
G0 X178.063 Y129.706
G0 X180.771 Y128.777
G0 X183.287 Y127.249
G0 X193.352 Y124.761
G0 X195.115 Y127.13
G1 F2700 E17.45404
G1 F1200 X193.52 Y124.687 E17.55107
G1 X192.803 Y121.86 E17.64808
G1 X193.036 Y119.054 E17.74173
G1 X193.085 Y118.863 E17.74829
G1 X194.223 Y116.277 E17.84226
G1 X196.189 Y114.14 E17.93884
G1 X198.743 Y112.759 E18.03541
G1 X201.632 Y112.273 E18.13284
G1 X204.511 Y112.754 E18.22993
G1 X207.075 Y114.14 E18.32687
G1 X209.051 Y116.287 E18.42392
G1 X210.218 Y118.951 E18.52065
G1 X210.461 Y121.856 E18.61761
G1 X209.742 Y124.689 E18.71482
G1 X208.152 Y127.124 E18.81155
G1 X205.854 Y128.917 E18.90849
G1 X203.094 Y129.866 E19.00557
G1 X200.17 Y129.866 E19.10282
G1 X197.414 Y128.918 E19.19976
G1 X195.115 Y127.13 E19.29662
G1 F2700 E-0.70338
G0 F6000 X195.432 Y127.504
G0 X197.287 Y128.649
G0 X200.142 Y130.047
G0 X225.237 Y146.911
G0 X225.633 Y148.116
G1 F2700 E19.29662
G1 F1200 X225.432 Y146.975 E19.33516
G1 X225.432 Y146.764 E19.34218
G1 X225.476 Y146.621 E19.34715
G1 X226.041 Y145.641 E19.38478
G1 X226.272 Y145.441 E19.39494
G1 X227.369 Y145.042 E19.43376
G1 X227.615 Y145.03 E19.44196
G1 X228.798 Y145.464 E19.48387
G1 X228.984 Y145.681 E19.49337
G1 X229.497 Y146.57 E19.52751
G1 X229.584 Y146.892 E19.5386
G1 X229.37 Y148.096 E19.57928
G1 X229.226 Y148.302 E19.58764
G1 X228.399 Y148.999 E19.62361
G1 X228.135 Y149.139 E19.63355
G1 X226.987 Y149.139 E19.67173
G1 X226.601 Y148.999 E19.68539
G1 X225.815 Y148.339 E19.71952
G1 X225.633 Y148.116 E19.7291
G1 F2700 E-0.2709
G0 F6000 X225.496 Y147.915
G0 X226.828 Y148.976
G0 X228.17 Y149.32
G0 X228.17 Y150.329
G0 X228.422 Y150.529
G1 F2700 E19.7291
G1 F1200 X229.686 Y150.191 E19.77262
G1 X230.561 Y149.315 E19.8138
G1 X230.9 Y148.051 E19.85732
G1 X230.9 Y94.208 E21.64815
G1 X230.561 Y92.944 E21.69167
G1 X229.686 Y92.068 E21.73286
G1 X228.422 Y91.731 E21.77637
G1 X11.578 Y91.731 E28.98863
G1 X10.314 Y92.067 E29.03213
G1 X9.439 Y92.944 E29.07333
G1 X9.1 Y94.208 E29.11686
G1 X9.101 Y148.052 E30.90772
G1 X9.438 Y149.316 E30.95123
G1 X10.314 Y150.191 E30.99241
G1 X11.578 Y150.529 E31.03592
G1 X228.422 Y150.529 E38.24819
G1 F2700 E18.24819
G0 F6000 X229.582 Y150.012
G0 X226.529 Y97.172
G0 X225.738 Y96.275
G1 F2700 E38.24819
G1 F1200 X225.627 Y96.057 E38.25632
G1 X225.418 Y94.899 E38.29546
G1 X225.448 Y94.664 E38.30334
G1 X226.015 Y93.679 E38.34114
G1 X226.331 Y93.414 E38.35486
G1 X227.362 Y93.04 E38.39133
G1 X227.705 Y93.064 E38.40277
G1 X228.717 Y93.432 E38.43859
G1 X228.925 Y93.578 E38.44704
G1 X229.52 Y94.613 E38.48675
G1 X229.583 Y94.894 E38.49632
G1 X229.39 Y95.985 E38.53317
G1 X229.185 Y96.34 E38.54681
G1 X228.399 Y96.999 E38.58092
G1 X228.145 Y97.139 E38.59057
G1 X226.915 Y97.139 E38.63148
G1 X226.654 Y97.044 E38.64072
G1 X225.738 Y96.275 E38.6805
G0 F6000 X226.009 Y95.939
;TYPE:WALL-OUTER
G1 F1200 X225.816 Y94.827 E38.71804
G1 X226.362 Y93.879 E38.75442
G1 X226.467 Y93.79 E38.759
G1 X227.505 Y93.417 E38.79569
G1 X228.549 Y93.796 E38.83263
G1 X228.629 Y93.863 E38.8361
G1 X229.185 Y94.831 E38.87323
G1 X228.996 Y95.915 E38.90982
G1 X228.928 Y96.034 E38.91438
G1 X228.087 Y96.739 E38.95088
G1 X226.912 Y96.737 E38.98996
G1 X226.059 Y96.022 E39.02698
G1 X226.009 Y95.939 E39.03021
G1 F2700 E19.03021
G0 F6000 X225.713 Y95.99
G0 X225.699 Y96.48
G0 X207.252 Y114.066
G0 X195.424 Y126.863
G1 F2700 E39.03021
G1 F1200 X193.895 Y124.527 E39.12306
G1 X193.21 Y121.829 E39.21565
G1 X193.438 Y119.053 E39.30829
G1 X194.56 Y116.504 E39.40092
G1 X196.428 Y114.471 E39.49275
G1 X198.892 Y113.136 E39.58595
G1 X201.632 Y112.678 E39.67835
G1 X204.372 Y113.136 E39.77075
G1 X206.824 Y114.458 E39.8634
G1 X208.704 Y116.501 E39.95574
G1 X209.828 Y119.069 E40.04898
G1 X210.057 Y121.827 E40.14103
G1 X209.372 Y124.526 E40.23364
G1 X207.842 Y126.861 E40.32649
G1 X205.657 Y128.564 E40.41863
G1 X203.018 Y129.466 E40.51139
G1 X200.233 Y129.464 E40.60402
G1 X197.608 Y128.564 E40.69632
G1 X195.424 Y126.863 E40.78839
G1 F2700 E20.78839
G0 F6000 X195.432 Y127.504
G0 X193.352 Y124.761
G0 X184.912 Y124.761
G0 X172.608 Y128.563
G1 F2700 E40.78839
G1 F1200 X170.414 Y126.853 E40.88091
G1 X168.897 Y124.532 E40.97313
G1 X168.207 Y121.825 E41.06604
G1 X168.44 Y119.056 E41.15847
G1 X169.556 Y116.504 E41.25111
G1 X171.445 Y114.457 E41.34375
G1 X173.892 Y113.136 E41.43624
G1 X176.632 Y112.678 E41.52864
G1 X179.372 Y113.136 E41.62104
G1 X181.824 Y114.458 E41.71369
G1 X183.706 Y116.504 E41.80615
G1 X184.824 Y119.053 E41.89872
G1 X185.054 Y121.829 E41.99137
G1 X184.369 Y124.527 E42.08395
G1 X182.84 Y126.863 E42.17681
G1 X180.657 Y128.564 E42.26886
G1 X178.018 Y129.466 E42.36162
G1 X175.233 Y129.464 E42.45425
G1 X172.608 Y128.563 E42.54656
G1 F2700 E22.54656
G0 F6000 X172.301 Y128.96
G0 X170.442 Y127.214
G0 X168.354 Y124.761
G0 X139.083 Y114.736
G0 X136.15 Y114.631
G1 F2700 E42.54656
G1 F1200 X133.403 Y114.168 E42.63921
G1 X130.959 Y112.843 E42.73168
G1 X129.083 Y110.803 E42.82385
G1 X127.963 Y108.25 E42.91658
G1 X127.733 Y105.477 E43.00913
G1 X128.42 Y102.769 E43.10205
G1 X129.937 Y100.447 E43.1943
G1 X132.135 Y98.737 E43.28692
G1 X134.769 Y97.833 E43.37955
G1 X137.558 Y97.832 E43.47231
G1 X140.186 Y98.734 E43.56472
G1 X142.382 Y100.449 E43.6574
G1 X143.901 Y102.77 E43.74965
G1 X144.587 Y105.467 E43.84221
G1 X144.358 Y108.248 E43.93502
G1 X143.241 Y110.802 E44.02774
G1 X141.361 Y112.844 E44.12006
G1 X138.916 Y114.169 E44.21255
G1 X136.15 Y114.631 E44.30582
G1 F2700 E24.30582
G0 F6000 X136.234 Y115.13
G0 X136.174 Y127.165
G0 X133.415 Y144.082
G1 F2700 E44.30582
G1 F1200 X130.964 Y142.756 E44.39851
G1 X129.087 Y140.717 E44.49069
G1 X127.96 Y138.148 E44.58399
G1 X127.733 Y135.386 E44.67617
G1 X128.413 Y132.694 E44.76851
G1 X129.933 Y130.365 E44.86102
G1 X132.146 Y128.64 E44.95434
G1 X134.756 Y127.745 E45.04611
G1 X137.567 Y127.746 E45.1396
G1 X140.176 Y128.641 E45.23134
G1 X142.383 Y130.354 E45.32427
G1 X143.902 Y132.68 E45.41666
G1 X144.589 Y135.401 E45.51001
G1 X144.358 Y138.157 E45.60199
G1 X143.242 Y140.711 E45.69469
G1 X141.356 Y142.757 E45.78724
G1 X138.906 Y144.082 E45.87989
G1 X136.166 Y144.543 E45.9723
G1 X133.415 Y144.082 E46.06507
G1 F2700 E26.06507
G0 F6000 X133.271 Y144.347
G0 X130.6 Y143.223
G0 X106.718 Y143.225
G0 X103.906 Y144.082
G1 F2700 E46.06507
G1 F1200 X101.166 Y144.543 E46.15749
G1 X98.415 Y144.082 E46.25026
G1 X95.964 Y142.756 E46.34295
G1 X94.087 Y140.717 E46.43512
G1 X92.96 Y138.148 E46.52843
G1 X92.733 Y135.386 E46.6206
G1 X93.413 Y132.694 E46.71295
G1 X94.933 Y130.365 E46.80545
G1 X97.146 Y128.64 E46.89878
G1 X99.756 Y127.745 E46.99055
G1 X102.567 Y127.746 E47.08404
G1 X105.176 Y128.641 E47.17578
G1 X107.384 Y130.357 E47.26879
G1 X108.899 Y132.675 E47.36089
G1 X109.586 Y135.368 E47.45333
G1 X109.36 Y138.149 E47.54613
G1 X108.242 Y140.711 E47.63911
G1 X106.356 Y142.757 E47.73166
G1 X103.906 Y144.082 E47.8243
G1 F2700 E27.8243
G0 F6000 X103.955 Y144.38
G0 X106.504 Y142.95
