;FLAVOR:Marlin
;TIME:8062
;Filament used: 9.62203m
;Layer height: 0.32
;MINX:1.253
;MINY:80.508
;MINZ:0.2
;MAXX:223.853
;MAXY:140.108
;MAXZ:4.04
;Generated with Cura_SteamEngine 5.4.0
M140 S60
M105
M190 S60
M104 S200
M105
M109 S200
M82 ;absolute extrusion mode
; Ender 3 Custom Start G-code
G92 E0 ; Reset Extruder
G28 ; Home all axes
G1 Z2.0 F3000 ; Move Z Axis up little to prevent scratching of Heat Bed
G1 X0.1 Y20 Z0.3 F5000.0 ; Move to start position
G1 X0.1 Y200.0 Z0.3 F1500.0 E15 ; Draw the first line
G1 X0.4 Y200.0 Z0.3 F5000.0 ; Move to side a little
G1 X0.4 Y20 Z0.3 F1500.0 E30 ; Draw the second line
G92 E0 ; Reset Extruder
G1 Z2.0 F3000 ; Move Z Axis up little to prevent scratching of Heat Bed
G1 X5 Y20 Z0.3 F5000.0 ; Move over to prevent blob squish
G92 E0
G92 E0
G1 F2700 E-20
;LAYER_COUNT:13
;LAYER:0
M107
;MESH:PGS.stl
G0 F6000 X5.679 Y86.318 Z0.2
;TYPE:WALL-INNER
G1 F2700 E0
G1 F1200 X4.408 Y86.318 E0.04227
G1 X4.154 Y86.178 E0.05192
G1 X3.367 Y85.518 E0.08608
G1 X3.162 Y85.163 E0.09972
G1 X2.97 Y84.075 E0.13646
G1 X3.033 Y83.791 E0.14614
G1 X3.629 Y82.759 E0.18578
G1 X3.836 Y82.615 E0.19416
G1 X4.915 Y82.218 E0.2324
G1 X5.26 Y82.243 E0.24391
G1 X6.224 Y82.596 E0.27805
G1 X6.537 Y82.86 E0.29167
G1 X7.106 Y83.845 E0.32951
G1 X7.135 Y84.078 E0.33731
G1 X6.924 Y85.267 E0.37748
G1 X6.797 Y85.462 E0.38522
G1 X5.898 Y86.224 E0.42442
G1 X5.679 Y86.318 E0.43234
G1 F2700 E-19.56766
G0 F6000 X6.385 Y85.945
G0 X6.915 Y85.607
G0 X16.145 Y90.41
G0 X27.938 Y103.139
G1 F2700 E0.43234
G1 F1200 X25.173 Y104.088 E0.52957
G1 X22.244 Y104.088 E0.62699
G1 X19.488 Y103.139 E0.72394
G1 X17.195 Y101.352 E0.82063
G1 X15.598 Y98.902 E0.9179
G1 X14.885 Y96.08 E1.01471
G1 X15.125 Y93.185 E1.11133
G1 X16.298 Y90.511 E1.20845
G1 X18.203 Y88.436 E1.30213
G1 X18.359 Y88.315 E1.3087
G1 X20.84 Y86.974 E1.4025
G1 X23.709 Y86.496 E1.49924
G1 X26.59 Y86.976 E1.59638
G1 X29.068 Y88.315 E1.69007
G1 X29.224 Y88.436 E1.69663
G1 X31.123 Y90.501 E1.78994
G1 X32.301 Y93.188 E1.88752
G1 X32.541 Y96.075 E1.98388
G1 X31.83 Y98.898 E2.0807
G1 X30.23 Y101.353 E2.17817
G1 X27.938 Y103.139 E2.27481
G1 F2700 E-17.72519
G0 F6000 X28.001 Y103.219
G0 X25.202 Y104.268
G0 X23.693 Y116.225
G0 X27.932 Y133.054
G1 F2700 E2.27481
G1 F1200 X25.174 Y134 E2.37179
G1 X22.355 Y134 E2.46555
G1 X22.16 Y133.968 E2.47212
G1 X19.495 Y133.054 E2.56583
G1 X17.276 Y131.325 E2.65939
G1 X17.142 Y131.18 E2.66596
G1 X15.604 Y128.827 E2.75945
G1 X14.885 Y125.989 E2.85683
G1 X15.131 Y123.076 E2.95406
G1 X16.298 Y120.417 E3.05064
G1 X18.27 Y118.276 E3.14745
G1 X20.847 Y116.883 E3.24488
G1 X23.71 Y116.408 E3.34141
G1 X26.592 Y116.89 E3.4386
G1 X29.142 Y118.265 E3.53496
G1 X31.121 Y120.409 E3.632
G1 X32.297 Y123.077 E3.72898
G1 X32.541 Y125.984 E3.826
G1 X31.82 Y128.831 E3.92368
G1 X30.285 Y131.18 E4.01701
G1 X30.151 Y131.325 E4.02358
G1 X27.932 Y133.054 E4.11714
G1 F2700 E-15.88286
G0 F6000 X27.995 Y133.133
G0 X25.144 Y133.839
G0 X22.283 Y133.839
G0 X19.408 Y133.216
G0 X7.299 Y135.907
G0 X6.92 Y137.295
G1 F2700 E4.11714
G1 F1200 X6.739 Y137.518 E4.1267
G1 X5.952 Y138.178 E4.16086
G1 X5.653 Y138.318 E4.17184
G1 X4.423 Y138.318 E4.21275
G1 X4.154 Y138.178 E4.22284
G1 X3.327 Y137.481 E4.25881
G1 X3.185 Y137.277 E4.26707
G1 X2.97 Y136.073 E4.30775
G1 X3.056 Y135.749 E4.3189
G1 X3.569 Y134.86 E4.35304
G1 X3.755 Y134.643 E4.36255
G1 X4.938 Y134.209 E4.40446
G1 X5.184 Y134.221 E4.41265
G1 X6.279 Y134.619 E4.4514
G1 X6.522 Y134.834 E4.46219
G1 X7.082 Y135.812 E4.49968
G1 X7.121 Y136.154 E4.51112
G1 X6.92 Y137.295 E4.54966
G1 F2700 E-15.45034
G0 F6000 X7.058 Y137.092
G0 X7.299 Y136.187
G0 X53.153 Y132.402
G0 X64.159 Y132.259
G1 F2700 E4.54966
G1 F1200 X61.591 Y133.647 E4.64675
G1 X58.715 Y134.128 E4.74373
G1 X55.835 Y133.646 E4.84085
G1 X53.355 Y132.305 E4.93463
G1 X53.199 Y132.184 E4.94119
G1 X51.299 Y130.119 E5.03452
G1 X50.12 Y127.428 E5.13224
G1 X49.887 Y124.622 E5.22589
G1 X49.904 Y124.435 E5.23213
G1 X50.596 Y121.699 E5.326
G1 X52.194 Y119.258 E5.42304
G1 X54.487 Y117.472 E5.51971
G1 X57.253 Y116.523 E5.61697
G1 X60.186 Y116.524 E5.71452
G1 X62.942 Y117.473 E5.81147
G1 X65.237 Y119.262 E5.90825
G1 X66.832 Y121.708 E6.00538
G1 X67.546 Y124.532 E6.10226
G1 X67.302 Y127.439 E6.19928
G1 X66.127 Y130.12 E6.29664
G1 X64.159 Y132.259 E6.39332
G1 F2700 E-13.60668
G0 F6000 X64.233 Y132.327
G0 X65.997 Y130.022
G0 X67.147 Y127.397
G0 X67.384 Y124.545
G0 X66.682 Y121.768
G0 X65.115 Y119.37
G0 X62.855 Y117.61
G0 X60.219 Y116.344
G0 X58.732 Y104.399
G0 X61.58 Y103.739
G1 F2700 E6.39332
G1 F1200 X58.715 Y104.216 E6.48992
G1 X55.832 Y103.732 E6.58715
G1 X53.268 Y102.349 E6.68404
G1 X51.285 Y100.186 E6.78164
G1 X50.124 Y97.538 E6.87781
G1 X49.887 Y94.713 E6.9721
G1 X49.904 Y94.526 E6.97834
G1 X50.601 Y91.783 E7.07248
G1 X52.138 Y89.433 E7.16587
G1 X52.272 Y89.288 E7.17244
G1 X54.493 Y87.557 E7.26609
G1 X57.255 Y86.61 E7.36321
G1 X60.076 Y86.611 E7.45704
G1 X60.27 Y86.643 E7.46358
G1 X62.935 Y87.558 E7.55729
G1 X65.156 Y89.289 E7.65095
G1 X65.29 Y89.434 E7.65752
G1 X66.826 Y91.784 E7.75089
G1 X67.546 Y94.623 E7.84831
G1 X67.303 Y97.53 E7.94533
G1 X66.132 Y100.203 E8.04239
G1 X64.167 Y102.341 E8.13897
G1 X61.58 Y103.739 E8.23678
G1 F2700 E-11.76322
G0 F6000 X61.598 Y103.839
G0 X64.278 Y102.484
G0 X88.253 Y102.547
G0 X96.58 Y103.739
G1 F2700 E8.23678
G1 F1200 X93.715 Y104.216 E8.33338
G1 X90.832 Y103.732 E8.43061
G1 X88.268 Y102.349 E8.52751
G1 X86.294 Y100.203 E8.62449
G1 X85.122 Y97.529 E8.72159
G1 X84.881 Y94.614 E8.81887
G1 X85.601 Y91.783 E8.91603
G1 X87.138 Y89.433 E9.00943
G1 X87.272 Y89.288 E9.01599
G1 X89.493 Y87.557 E9.10965
G1 X92.255 Y86.61 E9.20676
G1 X95.076 Y86.611 E9.30059
G1 X95.27 Y86.643 E9.30713
G1 X97.935 Y87.558 E9.40085
G1 X100.156 Y89.289 E9.4945
G1 X100.29 Y89.434 E9.50107
G1 X101.826 Y91.784 E9.59445
G1 X102.546 Y94.623 E9.69186
G1 X102.303 Y97.53 E9.78889
G1 X101.132 Y100.203 E9.88595
G1 X99.167 Y102.341 E9.98253
G1 X96.58 Y103.739 E10.08033
G1 F2700 E-9.91967
G0 F6000 X96.598 Y103.839
G0 X93.732 Y104.399
G0 X93.727 Y116.344
G0 X96.591 Y133.647
G1 F2700 E10.08033
G1 F1200 X93.715 Y134.128 E10.17732
G1 X90.835 Y133.646 E10.27444
G1 X88.355 Y132.305 E10.36821
G1 X88.199 Y132.184 E10.37478
G1 X86.299 Y130.119 E10.46811
G1 X85.124 Y127.438 E10.56547
G1 X84.881 Y124.523 E10.66276
G1 X85.595 Y121.707 E10.75938
G1 X87.186 Y119.268 E10.85624
G1 X89.486 Y117.472 E10.95329
G1 X92.253 Y116.523 E11.05059
G1 X95.186 Y116.524 E11.14814
G1 X97.942 Y117.473 E11.24509
G1 X100.237 Y119.262 E11.34187
G1 X101.832 Y121.708 E11.43899
G1 X102.546 Y124.532 E11.53588
G1 X102.302 Y127.439 E11.6329
G1 X101.127 Y130.12 E11.73026
G1 X99.159 Y132.259 E11.82694
G1 X96.591 Y133.647 E11.92403
G1 F2700 E-8.07597
G0 F6000 X96.64 Y133.735
G0 X99.271 Y132.404
G0 X123.153 Y132.402
G0 X128.715 Y134.128
G1 F2700 E11.92403
G1 F1200 X125.835 Y133.646 E12.02115
G1 X123.355 Y132.305 E12.11492
G1 X123.199 Y132.184 E12.12148
G1 X121.299 Y130.119 E12.21482
G1 X120.124 Y127.438 E12.31217
G1 X119.881 Y124.523 E12.40946
G1 X120.595 Y121.707 E12.50609
G1 X122.186 Y119.268 E12.60294
G1 X124.486 Y117.472 E12.7
G1 X127.253 Y116.523 E12.79729
G1 X130.186 Y116.524 E12.89485
G1 X132.942 Y117.473 E12.99179
G1 X135.227 Y119.254 E13.08815
G1 X136.831 Y121.703 E13.18552
G1 X137.545 Y124.539 E13.28279
G1 X137.305 Y127.437 E13.37951
G1 X136.127 Y130.12 E13.47697
G1 X134.159 Y132.259 E13.57364
G1 X131.591 Y133.647 E13.67073
G1 X128.715 Y134.128 E13.76772
G1 F2700 E-6.23228
G0 F6000 X128.509 Y134.197
G0 X125.888 Y133.491
G0 X123.369 Y132.128
G0 X121.429 Y130.021
G0 X120.279 Y127.396
G0 X120.043 Y124.547
G0 X120.746 Y121.767
G0 X122.313 Y119.369
G0 X124.573 Y117.609
G0 X127.01 Y116.774
G0 X128.727 Y116.344
G0 X128.732 Y104.399
G0 X128.715 Y104.216
G1 F2700 E13.76772
G1 F1200 X125.832 Y103.732 E13.86495
G1 X123.268 Y102.349 E13.96184
G1 X121.294 Y100.203 E14.05882
G1 X120.122 Y97.529 E14.15593
G1 X119.881 Y94.614 E14.25321
G1 X120.601 Y91.783 E14.35037
G1 X122.138 Y89.433 E14.44376
G1 X122.272 Y89.288 E14.45033
G1 X124.493 Y87.557 E14.54399
G1 X127.255 Y86.61 E14.6411
G1 X130.076 Y86.611 E14.73493
G1 X130.27 Y86.643 E14.74147
G1 X132.935 Y87.558 E14.83518
G1 X135.156 Y89.289 E14.92884
G1 X135.29 Y89.434 E14.93541
G1 X136.826 Y91.784 E15.02878
G1 X137.546 Y94.632 E15.12649
G1 X137.304 Y97.528 E15.22315
G1 X136.134 Y100.199 E15.32013
G1 X134.167 Y102.341 E15.41686
G1 X131.58 Y103.739 E15.51466
G1 X128.715 Y104.216 E15.61126
G1 F2700 E-4.38874
G0 F6000 X128.733 Y104.318
G0 X131.635 Y103.915
G0 X160.907 Y113.94
G0 X164.967 Y118.097
G1 F2700 E15.61126
G1 F1200 X162.668 Y116.309 E15.70813
G1 X161.074 Y113.867 E15.80512
G1 X160.357 Y111.026 E15.90258
G1 X160.599 Y108.134 E15.9991
G1 X161.766 Y105.472 E16.09578
G1 X163.753 Y103.314 E16.19334
G1 X166.296 Y101.937 E16.28953
G1 X169.185 Y101.451 E16.38697
G1 X172.065 Y101.932 E16.48408
G1 X174.638 Y103.331 E16.58149
G1 X176.597 Y105.458 E16.67767
G1 X177.774 Y108.134 E16.7749
G1 X178.006 Y110.94 E16.86855
G1 X177.989 Y111.138 E16.87516
G1 X177.297 Y113.866 E16.96877
G1 X175.702 Y116.309 E17.06581
G1 X173.407 Y118.096 E17.16255
G1 X170.647 Y119.045 E17.25962
G1 X167.735 Y119.045 E17.35648
G1 X164.967 Y118.097 E17.45379
G1 F2700 E-2.54621
G0 F6000 X164.905 Y118.179
G0 X167.754 Y118.885
G0 X170.616 Y118.885
G0 X173.324 Y117.956
G0 X175.84 Y116.428
G0 X187.535 Y116.434
G0 X189.967 Y118.097
G1 F2700 E17.45379
G1 F1200 X187.668 Y116.309 E17.55066
G1 X186.073 Y113.866 E17.6477
G1 X185.356 Y111.039 E17.7447
G1 X185.589 Y108.233 E17.83835
G1 X185.638 Y108.042 E17.84491
G1 X186.776 Y105.454 E17.93894
G1 X188.731 Y103.332 E18.0349
G1 X191.296 Y101.937 E18.13202
G1 X194.185 Y101.451 E18.22946
G1 X197.064 Y101.932 E18.32654
G1 X199.628 Y103.319 E18.4235
G1 X201.604 Y105.466 E18.52055
G1 X202.771 Y108.13 E18.61728
G1 X203.014 Y111.035 E18.71424
G1 X202.295 Y113.868 E18.81145
G1 X200.705 Y116.303 E18.90818
G1 X198.407 Y118.096 E19.00512
G1 X195.647 Y119.045 E19.10219
G1 X192.735 Y119.045 E19.19905
G1 X189.967 Y118.097 E19.29636
G1 F2700 E-0.70364
G0 F6000 X189.904 Y118.178
G0 X192.469 Y118.814
G0 X195.675 Y119.226
G0 X217.865 Y135.724
G0 X218.186 Y137.295
G1 F2700 E19.29636
G1 F1200 X217.985 Y136.154 E19.3349
G1 X217.985 Y135.942 E19.34195
G1 X218.029 Y135.8 E19.34689
G1 X218.594 Y134.82 E19.38452
G1 X218.825 Y134.62 E19.39468
G1 X219.922 Y134.221 E19.4335
G1 X220.168 Y134.209 E19.44169
G1 X221.351 Y134.643 E19.48361
G1 X221.537 Y134.86 E19.49311
G1 X222.05 Y135.749 E19.52725
G1 X222.137 Y136.071 E19.53834
G1 X221.923 Y137.275 E19.57902
G1 X221.78 Y137.481 E19.58736
G1 X220.952 Y138.178 E19.62335
G1 X220.686 Y138.318 E19.63335
G1 X219.54 Y138.318 E19.67147
G1 X219.154 Y138.178 E19.68512
G1 X218.367 Y137.518 E19.71929
G1 X218.186 Y137.295 E19.72884
G1 F2700 E-0.27116
G0 F6000 X218.049 Y137.094
G0 X219.381 Y138.155
G0 X220.72 Y138.499
G0 X220.72 Y139.508
G0 X220.975 Y139.708
G1 F2700 E19.72884
G1 F1200 X222.239 Y139.369 E19.77237
G1 X223.114 Y138.494 E19.81352
G1 X223.453 Y137.23 E19.85705
G1 X223.453 Y83.386 E21.64791
G1 X223.114 Y82.122 E21.69144
G1 X222.239 Y81.247 E21.73259
G1 X220.975 Y80.908 E21.77612
G1 X4.131 Y80.908 E28.98838
G1 X2.867 Y81.247 E29.03191
G1 X1.992 Y82.122 E29.07306
G1 X1.653 Y83.386 E29.11659
G1 X1.654 Y137.23 E30.90745
G1 X1.992 Y138.494 E30.95097
G1 X2.867 Y139.37 E30.99215
G1 X4.131 Y139.708 E31.03567
G1 X220.975 Y139.708 E38.24793
G1 F2700 E18.24793
G0 F6000 X222.135 Y139.19
G0 X219.081 Y86.35
G0 X218.291 Y85.454
G1 F2700 E38.24793
G1 F1200 X218.18 Y85.235 E38.25609
G1 X217.971 Y84.078 E38.2952
G1 X218 Y83.845 E38.30301
G1 X218.569 Y82.86 E38.34084
G1 X218.882 Y82.596 E38.35446
G1 X219.915 Y82.218 E38.39105
G1 X220.26 Y82.243 E38.40255
G1 X221.271 Y82.613 E38.43836
G1 X221.478 Y82.759 E38.44678
G1 X222.073 Y83.791 E38.4864
G1 X222.136 Y84.073 E38.49601
G1 X221.943 Y85.163 E38.53283
G1 X221.738 Y85.518 E38.54647
G1 X220.952 Y86.178 E38.5806
G1 X220.698 Y86.318 E38.59025
G1 X219.461 Y86.318 E38.63139
G1 X219.188 Y86.205 E38.64122
G1 X218.291 Y85.454 E38.68013
G0 F6000 X218.562 Y85.117
;TYPE:WALL-OUTER
G1 F1200 X218.369 Y84.006 E38.71764
G1 X218.915 Y83.06 E38.75396
G1 X219.02 Y82.972 E38.75852
G1 X220.056 Y82.595 E38.79519
G1 X221.102 Y82.977 E38.83223
G1 X221.182 Y83.044 E38.8357
G1 X221.738 Y84.01 E38.87277
G1 X221.549 Y85.093 E38.90933
G1 X221.481 Y85.212 E38.91389
G1 X220.64 Y85.918 E38.95041
G1 X219.464 Y85.916 E38.98953
G1 X218.612 Y85.2 E39.02654
G1 X218.562 Y85.117 E39.02977
G1 F2700 E19.02977
G0 F6000 X218.266 Y85.168
G0 X218.202 Y85.612
G0 X199.805 Y103.245
G0 X190.161 Y117.743
G1 F2700 E39.02977
G1 F1200 X187.977 Y116.042 E39.12184
G1 X186.448 Y113.706 E39.2147
G1 X185.763 Y111.008 E39.30728
G1 X185.991 Y108.232 E39.39992
G1 X187.108 Y105.684 E39.49245
G1 X188.982 Y103.65 E39.58444
G1 X191.445 Y102.314 E39.67764
G1 X194.185 Y101.856 E39.77003
G1 X196.925 Y102.314 E39.86243
G1 X199.377 Y103.637 E39.9551
G1 X201.257 Y105.68 E40.04744
G1 X202.381 Y108.248 E40.14068
G1 X202.61 Y111.006 E40.23272
G1 X201.925 Y113.705 E40.32534
G1 X200.395 Y116.04 E40.41819
G1 X198.21 Y117.743 E40.51033
G1 X195.571 Y118.645 E40.60309
G1 X192.786 Y118.643 E40.69572
G1 X190.161 Y117.743 E40.78801
G1 F2700 E20.78801
G0 F6000 X189.854 Y118.139
G0 X187.535 Y116.434
G0 X175.84 Y116.428
G0 X165.161 Y117.742
G1 F2700 E40.78801
G1 F1200 X162.967 Y116.032 E40.88053
G1 X161.45 Y113.711 E40.97275
G1 X160.76 Y111.002 E41.06573
G1 X160.993 Y108.235 E41.15809
G1 X162.109 Y105.683 E41.25073
G1 X163.999 Y103.636 E41.3434
G1 X166.445 Y102.314 E41.43587
G1 X169.185 Y101.856 E41.52827
G1 X171.925 Y102.314 E41.62067
G1 X174.371 Y103.636 E41.71314
G1 X176.264 Y105.685 E41.80593
G1 X177.377 Y108.232 E41.89837
G1 X177.607 Y111.008 E41.99102
G1 X176.922 Y113.706 E42.0836
G1 X175.393 Y116.042 E42.17646
G1 X173.21 Y117.743 E42.26851
G1 X170.571 Y118.645 E42.36127
G1 X167.786 Y118.643 E42.4539
G1 X165.161 Y117.742 E42.54621
G1 F2700 E22.54621
G0 F6000 X164.854 Y118.139
G0 X162.526 Y116.422
G0 X131.635 Y103.915
G0 X128.703 Y103.81
G1 F2700 E42.54621
G1 F1200 X125.956 Y103.347 E42.63886
G1 X123.512 Y102.022 E42.73133
G1 X121.636 Y99.982 E42.8235
G1 X120.516 Y97.429 E42.91623
G1 X120.286 Y94.656 E43.00878
G1 X120.973 Y91.948 E43.1017
G1 X122.49 Y89.626 E43.19395
G1 X124.688 Y87.916 E43.28657
G1 X127.322 Y87.012 E43.3792
G1 X130.111 Y87.011 E43.47196
G1 X132.739 Y87.913 E43.56437
G1 X134.935 Y89.628 E43.65705
G1 X136.454 Y91.949 E43.7493
G1 X137.14 Y94.646 E43.84186
G1 X136.91 Y97.428 E43.93471
G1 X135.795 Y99.979 E44.02731
G1 X133.913 Y102.023 E44.11972
G1 X131.449 Y103.355 E44.21288
G1 X128.703 Y103.81 E44.30546
G1 F2700 E24.30546
G0 F6000 X128.787 Y104.309
G0 X128.727 Y116.344
G0 X128.715 Y133.723
G1 F2700 E44.30546
G1 F1200 X125.967 Y133.26 E44.39814
G1 X123.517 Y131.935 E44.49078
G1 X121.64 Y129.896 E44.58296
G1 X120.513 Y127.327 E44.67627
G1 X120.286 Y124.565 E44.76844
G1 X120.966 Y121.873 E44.86079
G1 X122.486 Y119.543 E44.95332
G1 X124.699 Y117.819 E45.04662
G1 X127.309 Y116.924 E45.13839
G1 X130.12 Y116.925 E45.23189
G1 X132.729 Y117.82 E45.32363
G1 X134.936 Y119.533 E45.41655
G1 X136.455 Y121.859 E45.50895
G1 X137.142 Y124.58 E45.60229
G1 X136.911 Y127.336 E45.69427
G1 X135.795 Y129.89 E45.78698
G1 X133.909 Y131.936 E45.87953
G1 X131.459 Y133.261 E45.97217
G1 X128.715 Y133.723 E46.06472
G1 F2700 E26.06472
G0 F6000 X128.509 Y134.197
G0 X126.151 Y133.562
G0 X123.153 Y132.402
G0 X99.271 Y132.404
G0 X96.459 Y133.261
G1 F2700 E46.06472
G1 F1200 X93.715 Y133.723 E46.15727
G1 X90.967 Y133.26 E46.24996
G1 X88.517 Y131.935 E46.3426
G1 X86.64 Y129.896 E46.43477
G1 X85.513 Y127.327 E46.52808
G1 X85.286 Y124.565 E46.62025
G1 X85.966 Y121.873 E46.7126
G1 X87.486 Y119.543 E46.80513
G1 X89.699 Y117.819 E46.89844
G1 X92.309 Y116.924 E46.99021
G1 X95.12 Y116.925 E47.0837
G1 X97.729 Y117.82 E47.17544
G1 X99.936 Y119.533 E47.26836
G1 X101.452 Y121.854 E47.36057
G1 X102.142 Y124.58 E47.45409
G1 X101.913 Y127.328 E47.54581
G1 X100.795 Y129.89 E47.63878
G1 X98.909 Y131.936 E47.73133
G1 X96.459 Y133.261 E47.82397
G1 F2700 E27.82397
G0 F6000 X96.508 Y133.559
G0 X99.057 Y132.129
G0 X100.997 Y130.022
G0 X102.147 Y127.397
