;FLAVOR:Marlin
;TIME:8582
;Filament used: 5.37185m
;Layer height: 0.2
;MINX:47.5
;MINY:95
;MINZ:0.2
;MAXX:172.5
;MAXY:125.083
;MAXZ:82
;TARGET_MACHINE.NAME:Creality Ender-3 S1
;Generated with Cura_SteamEngine 5.5.0
M82 ;absolute extrusion mode
; Ender 3 S1 Start G-code
; M413 S0 ; Disable power loss recovery
G92 E0 ; Reset Extruder

; Prep surfaces before auto home for better accuracy
M140 S60
M104 S200

G28 ; Home all axes
G1 Z10.0 F3000 ; Move Z Axis up little to prevent scratching of Heat Bed
G1 X0 Y0

M190 S60
M109 S200

G1 X0.1 Y20 Z0.3 F5000.0 ; Move to start position
G1 X0.1 Y200.0 Z0.3 F1500.0 E15 ; Draw the first line
G1 X0.4 Y200.0 Z0.3 F5000.0 ; Move to side a little
G1 X0.4 Y20 Z0.3 F1500.0 E30 ; Draw the second line
G92 E0 ; Reset Extruder
G1 Z2.0 F3000 ; Move Z Axis up little to prevent scratching of Heat Bed
G1 X5 Y20 Z0.3 F5000.0 ; Move over to prevent blob squish

G92 E0
G92 E0
G1 F2400 E-0.8
;LAYER_COUNT:410
;LAYER:0
M107
M204 S2000
G0 F7500 X53.337 Y96.301 Z0.2
M204 S500
;TYPE:SKIRT
G1 F2400 E0
G1 F1500 X54.151 Y95.91 E0.03004
G1 X55.128 Y95.542 E0.06476
G1 X56.032 Y95.292 E0.09595
G1 X57.034 Y95.109 E0.12983
G1 X58.181 Y95.014 E0.16811
G1 X58.83 Y95 E0.1897
G1 X160.951 Y95.001 E3.58626
G1 X161.684 Y95.013 E3.61064
G1 X162.656 Y95.072 E3.64303
G1 X163.619 Y95.218 E3.67543
G1 X164.566 Y95.449 E3.70785
G1 X165.454 Y95.749 E3.73902
G1 X166.346 Y96.139 E3.7714
G1 X167.229 Y96.626 E3.80494
G1 X167.98 Y97.128 E3.83499
G1 X168.795 Y97.786 E3.86983
G1 X169.493 Y98.464 E3.90219
G1 X170.129 Y99.201 E3.93457
G1 X170.699 Y99.991 E3.96697
G1 X171.161 Y100.767 E3.99701
G1 X171.615 Y101.709 E4.03179
G1 X171.944 Y102.587 E4.06297
G1 X172.213 Y103.559 E4.09652
G1 X172.39 Y104.525 E4.12918
G1 X172.485 Y105.655 E4.1669
G1 X172.5 Y106.33 E4.18936
G1 X172.499 Y113.4 E4.4245
G1 X172.488 Y114.163 E4.44988
G1 X172.431 Y115.136 E4.4823
G1 X172.286 Y116.099 E4.51469
G1 X172.057 Y117.045 E4.54707
G1 X171.746 Y117.969 E4.57949
G1 X171.354 Y118.86 E4.61187
G1 X170.886 Y119.712 E4.6442
G1 X170.364 Y120.493 E4.67544
G1 X169.731 Y121.278 E4.70898
G1 X169.106 Y121.929 E4.739
G1 X168.317 Y122.617 E4.77382
G1 X167.557 Y123.167 E4.80502
G1 X166.69 Y123.684 E4.83859
G1 X165.812 Y124.106 E4.87099
G1 X164.901 Y124.448 E4.90336
G1 X163.962 Y124.709 E4.93577
G1 X162.996 Y124.887 E4.96844
G1 X161.845 Y124.985 E5.00687
G1 X161.188 Y125 E5.02872
G1 X160.509 Y125 E5.05131
G1 X156.513 Y125.083 E5.18424
G1 X155.538 Y125.073 E5.21667
G1 X154.57 Y124.976 E5.24903
G1 X153.645 Y124.803 E5.28033
G1 X152.583 Y124.5 E5.31706
G1 X151.743 Y124.212 E5.3466
G1 X150.574 Y123.792 E5.38791
G1 X148.223 Y123.026 E5.47015
G1 X145.749 Y122.294 E5.55596
G1 X143.344 Y121.656 E5.63872
G1 X140.902 Y121.084 E5.72214
G1 X138.402 Y120.571 E5.80702
G1 X135.986 Y120.145 E5.88862
G1 X133.457 Y119.773 E5.97364
G1 X130.932 Y119.475 E6.0582
G1 X128.467 Y119.254 E6.14052
G1 X125.933 Y119.099 E6.22496
G1 X123.433 Y119.016 E6.30815
G1 X121.663 Y119 E6.36703
G1 X97.609 Y119 E7.16707
G1 X95.026 Y119.037 E7.25299
G1 X92.46 Y119.146 E7.33841
G1 X89.981 Y119.322 E7.42107
G1 X87.48 Y119.569 E7.50466
G1 X84.972 Y119.89 E7.58875
G1 X82.489 Y120.28 E7.67235
G1 X80.046 Y120.734 E7.755
G1 X77.554 Y121.271 E7.83978
G1 X75.108 Y121.87 E7.92354
G1 X72.696 Y122.532 E8.00673
G1 X70.315 Y123.262 E8.08956
G1 X68.74 Y123.806 E8.14498
G1 X68.534 Y123.867 E8.15213
G1 X67.332 Y124.271 E8.1943
G1 X66.424 Y124.531 E8.22572
G1 X65.138 Y124.76 E8.26916
G1 X63.693 Y124.924 E8.31753
G1 X62.793 Y124.987 E8.34754
G1 X62.169 Y125 E8.3683
G1 X59.049 Y124.999 E8.47207
G1 X58.316 Y124.987 E8.49645
G1 X57.344 Y124.928 E8.52884
G1 X56.381 Y124.782 E8.56124
G1 X55.434 Y124.551 E8.59366
G1 X54.546 Y124.251 E8.62483
G1 X53.654 Y123.861 E8.65721
G1 X52.771 Y123.374 E8.69075
G1 X52.02 Y122.872 E8.7208
G1 X51.205 Y122.214 E8.75564
G1 X50.507 Y121.536 E8.788
G1 X49.871 Y120.799 E8.82038
G1 X49.301 Y120.009 E8.85278
G1 X48.839 Y119.233 E8.88282
G1 X48.385 Y118.291 E8.9176
G1 X48.056 Y117.413 E8.94878
G1 X47.787 Y116.44 E8.98236
G1 X47.61 Y115.473 E9.01506
G1 X47.514 Y114.308 E9.05394
G1 X47.5 Y113.658 E9.07556
G1 X47.501 Y106.509 E9.31334
G1 X47.513 Y105.808 E9.33666
G1 X47.573 Y104.835 E9.36908
G1 X47.72 Y103.874 E9.40141
G1 X47.951 Y102.926 E9.43387
G1 X48.253 Y102.037 E9.4651
G1 X48.66 Y101.115 E9.49862
G1 X49.131 Y100.263 E9.531
G1 X49.676 Y99.454 E9.56344
G1 X50.267 Y98.726 E9.59463
G1 X50.969 Y98.001 E9.62819
G1 X51.679 Y97.387 E9.65941
G1 X52.498 Y96.797 E9.69298
G1 X53.337 Y96.301 E9.7254
M204 S2000
G0 F7500 X53.51 Y96.662
M204 S500
G1 F1500 X54.324 Y96.271 E9.75544
G1 X55.235 Y95.928 E9.78781
G1 X56.139 Y95.678 E9.81901
G1 X57.067 Y95.508 E9.85039
G1 X58.214 Y95.413 E9.88867
G1 X58.83 Y95.4 E9.90916
G1 X160.945 Y95.401 E13.30552
G1 X161.66 Y95.412 E13.3293
G1 X162.597 Y95.468 E13.36052
G1 X163.525 Y95.607 E13.39173
G1 X164.438 Y95.828 E13.42298
G1 X165.294 Y96.116 E13.45302
G1 X166.186 Y96.506 E13.4854
G1 X167.007 Y96.959 E13.51658
G1 X167.758 Y97.461 E13.54663
G1 X168.517 Y98.073 E13.57906
G1 X169.191 Y98.726 E13.61027
G1 X169.805 Y99.435 E13.64146
G1 X170.355 Y100.196 E13.67269
G1 X170.817 Y100.972 E13.70273
G1 X171.24 Y101.849 E13.73512
G1 X171.569 Y102.727 E13.7663
G1 X171.82 Y103.632 E13.79754
G1 X171.991 Y104.559 E13.82889
G1 X172.086 Y105.689 E13.86661
G1 X172.1 Y106.33 E13.88793
G1 X172.099 Y113.395 E14.12291
G1 X172.089 Y114.14 E14.1477
G1 X172.035 Y115.077 E14.17891
G1 X171.897 Y116.006 E14.21015
G1 X171.678 Y116.918 E14.24135
G1 X171.38 Y117.808 E14.27256
G1 X171.003 Y118.668 E14.30379
G1 X170.553 Y119.49 E14.33496
G1 X170.031 Y120.271 E14.36621
G1 X169.442 Y121.001 E14.3974
G1 X168.817 Y121.652 E14.42742
G1 X168.082 Y122.293 E14.45986
G1 X167.322 Y122.843 E14.49106
G1 X166.516 Y123.324 E14.52228
G1 X165.671 Y123.732 E14.55349
G1 X164.793 Y124.063 E14.5847
G1 X163.889 Y124.316 E14.61592
G1 X162.962 Y124.488 E14.64728
G1 X161.811 Y124.586 E14.6857
G1 X161.179 Y124.6 E14.70672
G1 X160.501 Y124.6 E14.72927
G1 X156.937 Y124.668 E14.84783
G1 X156.516 Y124.683 E14.86185
G1 X155.577 Y124.675 E14.89308
G1 X154.644 Y124.583 E14.92426
G1 X153.719 Y124.41 E14.95556
G1 X152.712 Y124.121 E14.9904
G1 X151.878 Y123.836 E15.01972
G1 X150.698 Y123.412 E15.06142
G1 X148.336 Y122.642 E15.14405
G1 X145.862 Y121.91 E15.22986
G1 X143.446 Y121.27 E15.31299
G1 X140.982 Y120.692 E15.39717
G1 X138.482 Y120.179 E15.48205
G1 X136.044 Y119.749 E15.56439
G1 X133.515 Y119.377 E15.64941
G1 X130.979 Y119.078 E15.73434
G1 X128.494 Y118.855 E15.81733
G1 X125.946 Y118.699 E15.90223
G1 X123.446 Y118.616 E15.98543
G1 X121.667 Y118.6 E16.0446
G1 X97.603 Y118.6 E16.84497
G1 X95.009 Y118.637 E16.93126
G1 X92.443 Y118.746 E17.01668
G1 X89.95 Y118.923 E17.09981
G1 X87.429 Y119.172 E17.18406
G1 X84.921 Y119.493 E17.26816
G1 X82.427 Y119.885 E17.35213
G1 X79.962 Y120.343 E17.43552
G1 X77.459 Y120.882 E17.52068
G1 X75.013 Y121.481 E17.60444
G1 X72.59 Y122.147 E17.68801
G1 X70.185 Y122.884 E17.77168
G1 X68.626 Y123.422 E17.82653
G1 X68.42 Y123.483 E17.83368
G1 X67.222 Y123.886 E17.87572
G1 X66.314 Y124.146 E17.90713
G1 X65.068 Y124.366 E17.94921
G1 X63.665 Y124.525 E17.99617
G1 X62.785 Y124.587 E18.02552
G1 X62.169 Y124.6 E18.04601
G1 X59.055 Y124.599 E18.14958
G1 X58.34 Y124.588 E18.17336
G1 X57.403 Y124.532 E18.20459
G1 X56.475 Y124.393 E18.2358
G1 X55.562 Y124.172 E18.26704
G1 X54.706 Y123.884 E18.29708
G1 X53.814 Y123.494 E18.32946
G1 X52.993 Y123.041 E18.36064
G1 X52.242 Y122.539 E18.39069
G1 X51.483 Y121.927 E18.42312
G1 X50.809 Y121.274 E18.45433
G1 X50.195 Y120.565 E18.48553
G1 X49.645 Y119.804 E18.51676
G1 X49.183 Y119.028 E18.54679
G1 X48.76 Y118.151 E18.57918
G1 X48.431 Y117.273 E18.61036
G1 X48.18 Y116.368 E18.6416
G1 X48.009 Y115.44 E18.67299
G1 X47.913 Y114.275 E18.71186
G1 X47.9 Y113.658 E18.73239
G1 X47.901 Y106.515 E18.96997
G1 X47.912 Y105.832 E18.99269
G1 X47.969 Y104.895 E19.02391
G1 X48.109 Y103.968 E19.05509
G1 X48.33 Y103.055 E19.08634
G1 X48.632 Y102.166 E19.11756
G1 X49.01 Y101.308 E19.14875
G1 X49.463 Y100.486 E19.17996
G1 X49.987 Y99.706 E19.21122
G1 X50.578 Y98.978 E19.2424
G1 X51.231 Y98.304 E19.27362
G1 X51.941 Y97.69 E19.30484
G1 X52.702 Y97.141 E19.33605
G1 X53.51 Y96.662 E19.36729
M204 S2000
G0 F7500 X53.683 Y97.023
M204 S500
G1 F1500 X54.497 Y96.632 E19.39732
G1 X55.342 Y96.313 E19.42737
G1 X56.212 Y96.071 E19.4574
G1 X57.1 Y95.907 E19.48743
G1 X58.223 Y95.813 E19.52492
G1 X58.83 Y95.8 E19.54511
G1 X160.939 Y95.801 E22.94127
G1 X161.637 Y95.811 E22.96449
G1 X162.539 Y95.864 E22.99454
G1 X163.432 Y95.996 E23.02456
G1 X164.31 Y96.207 E23.0546
G1 X165.166 Y96.495 E23.08464
G1 X165.993 Y96.857 E23.11466
G1 X166.785 Y97.292 E23.14472
G1 X167.536 Y97.794 E23.17476
G1 X168.239 Y98.361 E23.2048
G1 X168.889 Y98.988 E23.23484
G1 X169.481 Y99.67 E23.26488
G1 X170.011 Y100.401 E23.29491
G1 X170.473 Y101.177 E23.32494
G1 X170.866 Y101.99 E23.35498
G1 X171.184 Y102.835 E23.38501
G1 X171.427 Y103.705 E23.41505
G1 X171.592 Y104.593 E23.44509
G1 X171.687 Y105.723 E23.48281
G1 X171.7 Y106.33 E23.503
G1 X171.699 Y113.39 E23.73782
G1 X171.69 Y114.117 E23.762
G1 X171.639 Y115.019 E23.79205
G1 X171.508 Y115.913 E23.8221
G1 X171.299 Y116.791 E23.85212
G1 X171.013 Y117.648 E23.88217
G1 X170.652 Y118.476 E23.91221
G1 X170.22 Y119.268 E23.94222
G1 X169.719 Y120.02 E23.97227
G1 X169.153 Y120.724 E24.00232
G1 X168.528 Y121.375 E24.03233
G1 X167.847 Y121.969 E24.06239
G1 X167.116 Y122.5 E24.09244
G1 X166.342 Y122.964 E24.12245
G1 X165.529 Y123.358 E24.1525
G1 X164.685 Y123.678 E24.18252
G1 X163.815 Y123.923 E24.21258
G1 X162.928 Y124.089 E24.2426
G1 X161.777 Y124.187 E24.28102
G1 X161.17 Y124.2 E24.30121
G1 X160.493 Y124.2 E24.32373
G1 X156.922 Y124.268 E24.44252
G1 X156.519 Y124.283 E24.45594
G1 X155.616 Y124.277 E24.48597
G1 X154.717 Y124.19 E24.51601
G1 X153.829 Y124.025 E24.54605
G1 X152.841 Y123.742 E24.58023
G1 X152.013 Y123.459 E24.60934
G1 X150.833 Y123.036 E24.65103
G1 X148.449 Y122.258 E24.73444
G1 X145.975 Y121.526 E24.82025
G1 X143.548 Y120.884 E24.90375
G1 X141.062 Y120.3 E24.98868
G1 X138.562 Y119.787 E25.07357
G1 X136.102 Y119.353 E25.15665
G1 X133.573 Y118.981 E25.24167
G1 X131.026 Y118.681 E25.32697
G1 X128.521 Y118.456 E25.41062
G1 X125.959 Y118.299 E25.49599
G1 X123.459 Y118.216 E25.57919
G1 X121.671 Y118.2 E25.63866
G1 X97.597 Y118.2 E26.43937
G1 X94.992 Y118.237 E26.52602
G1 X92.426 Y118.346 E26.61144
G1 X89.919 Y118.524 E26.69503
G1 X87.378 Y118.775 E26.77996
G1 X84.87 Y119.096 E26.86406
G1 X82.365 Y119.49 E26.9484
G1 X79.878 Y119.952 E27.03253
G1 X77.364 Y120.493 E27.11806
G1 X74.918 Y121.092 E27.20182
G1 X72.484 Y121.762 E27.28578
G1 X70.055 Y122.506 E27.37028
G1 X68.512 Y123.038 E27.42456
G1 X68.306 Y123.099 E27.43171
G1 X67.111 Y123.502 E27.47365
G1 X66.244 Y123.752 E27.50367
G1 X64.998 Y123.972 E27.54575
G1 X63.637 Y124.126 E27.5913
G1 X62.776 Y124.187 E27.62001
G1 X62.169 Y124.2 E27.64021
G1 X59.061 Y124.199 E27.74358
G1 X58.363 Y124.189 E27.7668
G1 X57.461 Y124.136 E27.79685
G1 X56.568 Y124.004 E27.82687
G1 X55.69 Y123.793 E27.85691
G1 X54.834 Y123.505 E27.88695
G1 X54.007 Y123.143 E27.91697
G1 X53.215 Y122.708 E27.94703
G1 X52.464 Y122.206 E27.97707
G1 X51.761 Y121.639 E28.00711
G1 X51.111 Y121.012 E28.03715
G1 X50.519 Y120.33 E28.06719
G1 X49.989 Y119.599 E28.09722
G1 X49.527 Y118.823 E28.12725
G1 X49.134 Y118.01 E28.15729
G1 X48.816 Y117.165 E28.18732
G1 X48.573 Y116.295 E28.21736
G1 X48.408 Y115.407 E28.2474
G1 X48.313 Y114.266 E28.28548
G1 X48.3 Y113.658 E28.30571
G1 X48.301 Y106.521 E28.54309
G1 X48.311 Y105.856 E28.56521
G1 X48.365 Y104.954 E28.59526
G1 X48.498 Y104.061 E28.62529
G1 X48.709 Y103.183 E28.65533
G1 X48.998 Y102.327 E28.68537
G1 X49.361 Y101.5 E28.71541
G1 X49.795 Y100.709 E28.74542
G1 X50.298 Y99.958 E28.77549
G1 X50.866 Y99.256 E28.80552
G1 X51.493 Y98.606 E28.83556
G1 X52.175 Y98.014 E28.8656
G1 X52.907 Y97.485 E28.89563
G1 X53.683 Y97.023 E28.92567
M204 S2000
G1 F2400 E28.12567
G0 F7500 X57.847 Y114.653
G0 X63.153 Y114.653
G0 X64.218 Y111.925
M204 S500
G1 F2400 E28.92567
G1 F1500 X63.921 Y112.375 E28.9436
G1 X63.9 Y112.409 E28.94493
G1 X63.9 Y112.141 E28.95385
G1 X64.218 Y111.925 E28.96663
M204 S2000
G0 F7500 X64.637 Y112.016
M204 S500
G1 F1500 X64.255 Y112.595 E28.9897
G1 X64.247 Y112.609 E28.99024
G1 X63.993 Y113.071 E29.00778
G1 X63.987 Y113.082 E29.00819
G1 X63.734 Y113.618 E29.02791
G1 X63.5 Y113.565 E29.03589
G1 X63.5 Y111.929 E29.0903
G1 X67.807 Y109 E29.26354
G1 X75.954 Y109 E29.53451
G1 X75.954 Y109.298 E29.54442
G1 X70.057 Y109.342 E29.74056
G1 X70.045 Y109.342 E29.74096
G1 X69.512 Y109.377 E29.75873
G1 X69.5 Y109.379 E29.75913
G1 X68.836 Y109.462 E29.78139
G1 X68.811 Y109.466 E29.78223
G1 X68.216 Y109.619 E29.80266
G1 X68.21 Y109.621 E29.80287
G1 X67.629 Y109.792 E29.82302
G1 X67.616 Y109.796 E29.82347
G1 X67.373 Y109.885 E29.83208
G1 X67.362 Y109.89 E29.83248
G1 X66.922 Y110.083 E29.84846
G1 X66.907 Y110.09 E29.84901
G1 X66.511 Y110.305 E29.864
G1 X66.497 Y110.313 E29.86453
G1 X66.1 Y110.572 E29.8803
G1 X66.09 Y110.579 E29.8807
G1 X65.63 Y110.92 E29.89975
G1 X65.609 Y110.938 E29.90067
G1 X65.188 Y111.352 E29.92031
G1 X65.178 Y111.363 E29.9208
G1 X64.863 Y111.721 E29.93666
G1 X64.854 Y111.731 E29.93711
G1 X64.645 Y112.004 E29.94855
G1 X64.637 Y112.016 E29.94902
M204 S2000
G1 F2400 E29.14902
G0 F7500 X150.584 Y109.268
M204 S500
G1 F2400 E29.94902
G1 F1500 X150.614 Y109 E29.95799
G1 X152.192 Y109 E30.01048
G1 X153.837 Y110.119 E30.07665
G1 X156.5 Y111.93 E30.18376
G1 X156.5 Y113.825 E30.24679
G1 X156.257 Y113.872 E30.25502
G1 X155.929 Y113.064 E30.28403
G1 X155.925 Y113.054 E30.28439
G1 X155.767 Y112.717 E30.29676
G1 X155.76 Y112.704 E30.29726
G1 X155.538 Y112.31 E30.3123
G1 X155.53 Y112.296 E30.31283
G1 X155.366 Y112.054 E30.32256
G1 X155.361 Y112.047 E30.32284
G1 X155.061 Y111.64 E30.33966
G1 X155.052 Y111.629 E30.34013
G1 X154.898 Y111.448 E30.34804
G1 X154.889 Y111.439 E30.34846
G1 X154.523 Y111.062 E30.36594
G1 X154.516 Y111.054 E30.36629
G1 X154.249 Y110.808 E30.37836
G1 X154.241 Y110.801 E30.37872
G1 X153.926 Y110.539 E30.39235
G1 X153.902 Y110.522 E30.39332
G1 X153.352 Y110.186 E30.41476
G1 X153.344 Y110.182 E30.41506
G1 X153.006 Y109.996 E30.42789
G1 X152.984 Y109.985 E30.42871
G1 X152.388 Y109.749 E30.45003
G1 X152.377 Y109.745 E30.45042
G1 X151.899 Y109.587 E30.46716
G1 X151.888 Y109.584 E30.46754
G1 X151.34 Y109.435 E30.48643
G1 X151.331 Y109.433 E30.48674
G1 X150.584 Y109.268 E30.51218
M204 S2000
G1 F2400 E29.71218
G0 F7500 X155.745 Y111.901
M204 S500
G1 F2400 E30.51218
G1 F1500 X156.1 Y112.142 E30.52645
G1 X156.1 Y112.491 E30.53806
G1 X155.887 Y112.113 E30.55249
G1 X155.861 Y112.071 E30.55413
G1 X155.745 Y111.901 E30.56098
M204 S2000
G1 F2400 E29.76098
;MESH:???????????????? 99 ???? 78.STL
G0 F7500 X157.92 Y111.901
G0 X158.1 Y113.4
M204 S500
;TYPE:WALL-INNER
G1 F2400 E30.56098
G1 F1500 X160.9 Y113.4 E30.65411
G1 X160.9 Y106.6 E30.88028
G1 X59.101 Y106.601 E34.26612
G1 X59.1 Y113.4 E34.49226
G1 X61.9 Y113.4 E34.58539
G1 X61.9 Y111.401 E34.65188
G1 X61.936 Y111.195 E34.65883
G1 X62.061 Y110.973 E34.6673
G1 X67.162 Y107.503 E34.8725
G1 X67.416 Y107.4 E34.88161
G1 X152.5 Y107.4 E37.71152
G1 X152.838 Y107.503 E37.72327
G1 X157.939 Y110.973 E37.92847
G1 X158.064 Y111.195 E37.93694
G1 X158.1 Y111.401 E37.9439
G1 X158.1 Y113.4 E38.01038
M204 S2000
G0 F7500 X157.7 Y113.8
M204 S500
;TYPE:WALL-OUTER
G1 F1500 X161.3 Y113.8 E38.13012
G1 X161.3 Y106.2 E38.3829
G1 X58.701 Y106.201 E41.79535
G1 X58.7 Y113.8 E42.0481
G1 X62.3 Y113.8 E42.16783
G1 X62.3 Y111.353 E42.24922
G1 X62.354 Y111.258 E42.25285
G1 X67.434 Y107.802 E42.45721
G1 X152.5 Y107.8 E45.28652
G1 X152.613 Y107.834 E45.29044
G1 X157.646 Y111.258 E45.4929
G1 X157.7 Y111.353 E45.49654
G1 X157.7 Y113.8 E45.57793
M204 S2000
G1 F2400 E44.77793
G0 F7500 X157.97 Y113.53
G0 X157.935 Y111.17
G0 X152.634 Y107.562
G0 X67.366 Y107.562
G0 X62.065 Y111.17
G0 X61.8 Y113.04
G0 X61.54 Y113.04
M204 S500
;TYPE:SKIN
G1 F2400 E45.57793
G1 F1500 X59.46 Y113.04 E45.64711
G1 X59.461 Y106.961 E45.8493
G1 X66.949 Y106.961 E46.09835
G1 F1357.5 X67.357 Y107.001 E46.11341
G1 X66.956 Y107.208 E46.13
