;FLAVOR:Marlin
;TIME:6399
;Filament used: 3.67124m
;Layer height: 0.2
;MINX:68
;MINY:95
;MINZ:0.2
;MAXX:152
;MAXY:125.255
;MAXZ:81
;TARGET_MACHINE.NAME:Creality Ender-3 S1
;Generated with Cura_SteamEngine 5.5.0
M82 ;absolute extrusion mode
; Ender 3 S1 Start G-code
; M413 S0 ; Disable power loss recovery
G92 E0 ; Reset Extruder

; Prep surfaces before auto home for better accuracy
M140 S60
M104 S200

G28 ; Home all axes
G1 Z10.0 F3000 ; Move Z Axis up little to prevent scratching of Heat Bed
G1 X0 Y0

M190 S60
M109 S200

G1 X0.1 Y20 Z0.3 F5000.0 ; Move to start position
G1 X0.1 Y200.0 Z0.3 F1500.0 E15 ; Draw the first line
G1 X0.4 Y200.0 Z0.3 F5000.0 ; Move to side a little
G1 X0.4 Y20 Z0.3 F1500.0 E30 ; Draw the second line
G92 E0 ; Reset Extruder
G1 Z2.0 F3000 ; Move Z Axis up little to prevent scratching of Heat Bed
G1 X5 Y20 Z0.3 F5000.0 ; Move over to prevent blob squish

G92 E0
G92 E0
G1 F2400 E-0.8
;LAYER_COUNT:405
;LAYER:0
M107
M204 S2000
G0 F7500 X72.192 Y97.376 Z0.2
M204 S500
;TYPE:SKIRT
G1 F2400 E0
G1 F1500 X72.924 Y96.846 E0.03006
G1 X73.821 Y96.311 E0.0648
G1 X74.699 Y95.89 E0.09718
G1 X75.612 Y95.548 E0.12961
G1 X76.549 Y95.289 E0.16194
G1 X77.516 Y95.111 E0.19465
G1 X78.655 Y95.015 E0.23266
G1 X79.312 Y95 E0.25452
G1 X140.303 Y95 E2.28309
G1 X141.169 Y95.012 E2.3119
G1 X142.141 Y95.069 E2.34428
G1 X143.104 Y95.215 E2.37668
G1 X144.05 Y95.444 E2.40905
G1 X144.974 Y95.756 E2.44149
G1 X145.864 Y96.148 E2.47383
G1 X146.687 Y96.599 E2.50504
G1 X147.526 Y97.16 E2.53861
G1 X148.23 Y97.726 E2.56866
G1 X148.983 Y98.451 E2.60342
G1 X149.62 Y99.187 E2.6358
G1 X150.15 Y99.918 E2.66583
G1 X150.686 Y100.815 E2.70058
G1 X151.108 Y101.693 E2.73299
G1 X151.45 Y102.605 E2.76538
G1 X151.71 Y103.543 E2.79776
G1 X151.888 Y104.51 E2.83046
G1 X151.985 Y105.655 E2.86868
G1 X152 Y106.33 E2.89113
G1 X151.999 Y113.4 E3.12628
G1 X151.988 Y114.163 E3.15166
G1 X151.931 Y115.136 E3.18408
G1 X151.786 Y116.099 E3.21647
G1 X151.557 Y117.045 E3.24884
G1 X151.246 Y117.969 E3.28127
G1 X150.854 Y118.86 E3.31365
G1 X150.386 Y119.712 E3.34598
G1 X149.864 Y120.493 E3.37722
G1 X149.231 Y121.278 E3.41076
G1 X148.606 Y121.929 E3.44078
G1 X147.817 Y122.617 E3.4756
G1 X147.057 Y123.167 E3.5068
G1 X146.19 Y123.684 E3.54037
G1 X145.312 Y124.106 E3.57277
G1 X144.401 Y124.448 E3.60514
G1 X143.462 Y124.709 E3.63755
G1 X142.496 Y124.887 E3.67022
G1 X141.325 Y124.986 E3.70931
G1 X138.782 Y125.053 E3.79392
G1 X135.292 Y125.245 E3.91017
G1 X134.282 Y125.255 E3.94377
G1 X133.341 Y125.18 E3.97516
G1 X132.081 Y124.951 E4.01776
G1 X130.934 Y124.672 E4.05702
G1 X128.379 Y124.086 E4.14421
G1 X125.923 Y123.597 E4.2275
G1 X123.455 Y123.178 E4.31076
G1 X120.937 Y122.823 E4.39533
G1 X118.46 Y122.545 E4.47824
G1 X115.937 Y122.332 E4.56245
G1 X113.452 Y122.196 E4.64523
G1 X110.915 Y122.127 E4.72964
G1 X108.431 Y122.131 E4.81226
G1 X105.854 Y122.207 E4.89801
G1 X103.37 Y122.351 E4.98076
G1 X100.853 Y122.566 E5.06478
G1 X98.39 Y122.851 E5.14725
G1 X95.872 Y123.213 E5.23186
G1 X93.375 Y123.644 E5.31614
G1 X90.953 Y124.133 E5.39832
G1 X87.794 Y124.87 E5.50621
G1 X86.818 Y125.05 E5.53922
G1 X85.846 Y125.141 E5.57169
G1 X84.858 Y125.146 E5.60455
G1 X82.059 Y125.031 E5.69772
G1 X78.829 Y124.987 E5.80516
G1 X77.856 Y124.929 E5.83758
G1 X76.893 Y124.784 E5.86997
G1 X75.946 Y124.554 E5.90239
G1 X75.024 Y124.242 E5.93476
G1 X74.133 Y123.85 E5.96714
G1 X73.28 Y123.38 E5.99953
G1 X72.472 Y122.837 E6.03191
G1 X71.768 Y122.271 E6.06195
G1 X71.015 Y121.546 E6.09672
G1 X70.378 Y120.81 E6.12909
G1 X69.848 Y120.079 E6.15913
G1 X69.312 Y119.182 E6.19388
G1 X68.891 Y118.304 E6.22627
G1 X68.549 Y117.391 E6.25869
G1 X68.29 Y116.454 E6.29103
G1 X68.112 Y115.487 E6.32373
G1 X68.015 Y114.334 E6.36221
G1 X68 Y113.658 E6.3847
G1 X68.001 Y106.525 E6.62195
G1 X68.012 Y105.825 E6.64523
G1 X68.07 Y104.852 E6.67765
G1 X68.216 Y103.889 E6.71005
G1 X68.446 Y102.943 E6.74243
G1 X68.759 Y102.02 E6.77485
G1 X69.151 Y101.13 E6.80719
G1 X69.621 Y100.277 E6.83958
G1 X70.164 Y99.469 E6.87196
G1 X70.731 Y98.765 E6.90203
G1 X71.456 Y98.013 E6.93677
G1 X72.192 Y97.376 E6.96915
M204 S2000
G0 F7500 X72.427 Y97.7
M204 S500
G1 F1500 X73.159 Y97.17 E6.9992
G1 X73.995 Y96.671 E7.03159
G1 X74.84 Y96.264 E7.06278
G1 X75.719 Y95.933 E7.09402
G1 X76.622 Y95.682 E7.12519
G1 X77.55 Y95.51 E7.15658
G1 X78.689 Y95.414 E7.1946
G1 X79.321 Y95.4 E7.21563
G1 X140.298 Y95.4 E9.24373
G1 X141.146 Y95.411 E9.27194
G1 X142.082 Y95.465 E9.30312
G1 X143.011 Y95.604 E9.33436
G1 X143.923 Y95.823 E9.36556
G1 X144.813 Y96.122 E9.39679
G1 X145.672 Y96.499 E9.42799
G1 X146.495 Y96.95 E9.4592
G1 X147.275 Y97.472 E9.49042
G1 X147.979 Y98.038 E9.52046
G1 X148.681 Y98.713 E9.55285
G1 X149.296 Y99.422 E9.58407
G1 X149.826 Y100.153 E9.6141
G1 X150.326 Y100.989 E9.6465
G1 X150.734 Y101.834 E9.67771
G1 X151.065 Y102.712 E9.70892
G1 X151.317 Y103.616 E9.74013
G1 X151.489 Y104.544 E9.77152
G1 X151.586 Y105.689 E9.80974
G1 X151.6 Y106.33 E9.83107
G1 X151.599 Y113.395 E10.06605
G1 X151.589 Y114.14 E10.09083
G1 X151.535 Y115.077 E10.12205
G1 X151.397 Y116.006 E10.15328
G1 X151.178 Y116.918 E10.18448
G1 X150.88 Y117.808 E10.2157
G1 X150.503 Y118.668 E10.24693
G1 X150.053 Y119.49 E10.2781
G1 X149.531 Y120.271 E10.30934
G1 X148.942 Y121.001 E10.34054
G1 X148.317 Y121.652 E10.37055
G1 X147.582 Y122.293 E10.40299
G1 X146.822 Y122.843 E10.43419
G1 X146.016 Y123.324 E10.46541
G1 X145.171 Y123.732 E10.49662
G1 X144.293 Y124.063 E10.52783
G1 X143.389 Y124.316 E10.55905
G1 X142.462 Y124.488 E10.59041
G1 X141.291 Y124.587 E10.6295
G1 X138.772 Y124.653 E10.71331
G1 X135.27 Y124.846 E10.82996
G1 X134.314 Y124.856 E10.86176
G1 X133.373 Y124.781 E10.89316
G1 X132.176 Y124.562 E10.93363
G1 X131.029 Y124.283 E10.97289
G1 X128.468 Y123.696 E11.06028
G1 X125.996 Y123.204 E11.14411
G1 X123.511 Y122.782 E11.22795
G1 X120.993 Y122.427 E11.31252
G1 X118.493 Y122.146 E11.3962
G1 X115.97 Y121.934 E11.48041
G1 X113.463 Y121.796 E11.56392
G1 X110.925 Y121.727 E11.64836
G1 X108.419 Y121.731 E11.73171
G1 X105.842 Y121.807 E11.81746
G1 X103.336 Y121.952 E11.90095
G1 X100.819 Y122.168 E11.98498
G1 X98.333 Y122.455 E12.06821
G1 X95.815 Y122.817 E12.15282
G1 X93.299 Y123.251 E12.23774
G1 X90.862 Y123.743 E12.32043
G1 X87.703 Y124.48 E12.42832
G1 X86.78 Y124.652 E12.45955
G1 X85.844 Y124.741 E12.49082
G1 X84.874 Y124.746 E12.52308
G1 X82.075 Y124.631 E12.61625
G1 X78.852 Y124.588 E12.72346
G1 X77.915 Y124.533 E12.75468
G1 X76.987 Y124.395 E12.78588
G1 X76.074 Y124.175 E12.81712
G1 X75.185 Y123.876 E12.84832
G1 X74.325 Y123.499 E12.87955
G1 X73.503 Y123.048 E12.91073
G1 X72.723 Y122.525 E12.94197
G1 X72.019 Y121.959 E12.97201
G1 X71.317 Y121.284 E13.0044
G1 X70.702 Y120.575 E13.03562
G1 X70.172 Y119.844 E13.06565
G1 X69.672 Y119.008 E13.09805
G1 X69.265 Y118.163 E13.12924
G1 X68.934 Y117.284 E13.16048
G1 X68.683 Y116.381 E13.19166
G1 X68.511 Y115.453 E13.22305
G1 X68.414 Y114.3 E13.26153
G1 X68.4 Y113.658 E13.28289
G1 X68.401 Y106.531 E13.51994
G1 X68.411 Y105.848 E13.54265
G1 X68.466 Y104.911 E13.57387
G1 X68.605 Y103.983 E13.60508
G1 X68.825 Y103.071 E13.63629
G1 X69.125 Y102.181 E13.66752
G1 X69.502 Y101.322 E13.69873
G1 X69.953 Y100.5 E13.72991
G1 X70.476 Y99.72 E13.76114
G1 X71.043 Y99.016 E13.79121
G1 X71.718 Y98.315 E13.82358
G1 X72.427 Y97.7 E13.85479
M204 S2000
G0 F7500 X72.662 Y98.024
M204 S500
G1 F1500 X73.394 Y97.494 E13.88485
G1 X74.169 Y97.031 E13.91488
G1 X74.982 Y96.638 E13.94491
G1 X75.827 Y96.318 E13.97496
G1 X76.696 Y96.075 E14.00498
G1 X77.584 Y95.909 E14.03502
G1 X78.723 Y95.813 E14.07304
G1 X79.33 Y95.8 E14.09323
G1 X140.293 Y95.8 E16.12087
G1 X141.123 Y95.81 E16.14848
G1 X142.024 Y95.861 E16.1785
G1 X142.918 Y95.993 E16.20855
G1 X143.796 Y96.202 E16.23857
G1 X144.653 Y96.489 E16.26863
G1 X145.48 Y96.85 E16.29864
G1 X146.273 Y97.283 E16.32869
G1 X147.024 Y97.784 E16.35872
G1 X147.728 Y98.35 E16.38876
G1 X148.379 Y98.976 E16.4188
G1 X148.972 Y99.657 E16.44884
G1 X149.502 Y100.388 E16.47887
G1 X149.966 Y101.163 E16.50891
G1 X150.36 Y101.976 E16.53896
G1 X150.68 Y102.82 E16.56898
G1 X150.924 Y103.69 E16.59903
G1 X151.09 Y104.578 E16.62908
G1 X151.187 Y105.723 E16.6673
G1 X151.2 Y106.33 E16.68749
G1 X151.199 Y113.39 E16.92231
G1 X151.19 Y114.117 E16.94649
G1 X151.139 Y115.019 E16.97654
G1 X151.008 Y115.913 E17.00659
G1 X150.799 Y116.791 E17.03661
G1 X150.513 Y117.648 E17.06666
G1 X150.152 Y118.476 E17.0967
G1 X149.72 Y119.268 E17.12671
G1 X149.219 Y120.02 E17.15676
G1 X148.653 Y120.724 E17.18681
G1 X148.028 Y121.375 E17.21682
G1 X147.347 Y121.969 E17.24688
G1 X146.616 Y122.5 E17.27693
G1 X145.842 Y122.964 E17.30695
G1 X145.029 Y123.358 E17.33699
G1 X144.185 Y123.678 E17.36702
G1 X143.315 Y123.923 E17.39708
G1 X142.428 Y124.089 E17.42709
G1 X141.257 Y124.188 E17.46618
G1 X138.762 Y124.253 E17.54919
G1 X135.248 Y124.447 E17.66624
G1 X134.345 Y124.457 E17.69628
G1 X133.445 Y124.387 E17.7263
G1 X132.271 Y124.173 E17.76599
G1 X131.124 Y123.894 E17.80526
G1 X128.557 Y123.306 E17.89285
G1 X126.069 Y122.811 E17.97722
G1 X123.567 Y122.386 E18.06163
G1 X121.049 Y122.031 E18.14621
G1 X118.526 Y121.747 E18.23065
G1 X116.003 Y121.536 E18.31486
G1 X113.474 Y121.396 E18.3991
G1 X110.935 Y121.327 E18.48358
G1 X108.407 Y121.331 E18.56766
G1 X105.83 Y121.407 E18.65341
G1 X103.302 Y121.553 E18.73763
G1 X100.785 Y121.77 E18.82166
G1 X98.276 Y122.059 E18.90566
G1 X95.758 Y122.421 E18.99027
G1 X93.224 Y122.858 E19.0758
G1 X90.771 Y123.353 E19.15903
G1 X87.629 Y124.087 E19.26635
G1 X86.741 Y124.254 E19.2964
G1 X85.842 Y124.341 E19.32644
G1 X84.89 Y124.346 E19.3581
G1 X82.091 Y124.231 E19.45128
G1 X78.875 Y124.189 E19.55825
G1 X77.973 Y124.137 E19.5883
G1 X77.08 Y124.006 E19.61832
G1 X76.201 Y123.796 E19.64838
G1 X75.345 Y123.509 E19.67841
G1 X74.517 Y123.148 E19.70845
G1 X73.725 Y122.715 E19.73847
G1 X72.974 Y122.213 E19.76852
G1 X72.27 Y121.647 E19.79856
G1 X71.619 Y121.021 E19.8286
G1 X71.026 Y120.34 E19.85863
G1 X70.496 Y119.609 E19.88866
G1 X70.032 Y118.834 E19.91871
G1 X69.639 Y118.021 E19.94874
G1 X69.319 Y117.176 E19.97879
G1 X69.076 Y116.307 E20.00881
G1 X68.91 Y115.419 E20.03885
G1 X68.813 Y114.266 E20.07734
G1 X68.8 Y113.658 E20.09756
G1 X68.801 Y106.536 E20.33444
G1 X68.81 Y105.871 E20.35656
G1 X68.862 Y104.969 E20.38661
G1 X68.994 Y104.076 E20.41664
G1 X69.204 Y103.198 E20.44666
G1 X69.491 Y102.341 E20.47672
G1 X69.853 Y101.514 E20.50675
G1 X70.286 Y100.722 E20.53677
G1 X70.788 Y99.971 E20.56682
G1 X71.355 Y99.267 E20.59688
G1 X71.981 Y98.617 E20.6269
G1 X72.662 Y98.024 E20.65693
M204 S2000
G1 F2400 E19.85693
G0 F7500 X78.347 Y114.653
G0 X84.653 Y114.653
G0 X85 Y111.9
M204 S500
G1 F2400 E20.65693
G1 F1500 X86.229 Y111.9 E20.69781
G1 X85.702 Y112.943 E20.73667
G1 X85.7 Y112.948 E20.73685
G1 X85.547 Y113.273 E20.7488
G1 X85.544 Y113.28 E20.74905
G1 X85.375 Y113.681 E20.76353
G1 X85.216 Y113.931 E20.77338
G1 X85 Y113.869 E20.78086
G1 X85 Y111.9 E20.84634
M204 S2000
G0 F7500 X85.4 Y112.3
M204 S500
G1 F1500 X85.579 Y112.3 E20.8523
G1 X85.4 Y112.654 E20.86549
G1 X85.4 Y112.3 E20.87727
M204 S2000
G1 F2400 E20.07727
G0 F7500 X88.688 Y109.996
M204 S500
G1 F2400 E20.87727
G1 F1500 X88.58 Y109.796 E20.88483
G1 X89.405 Y109 E20.92296
G1 X93.406 Y109 E21.05603
G1 X93.434 Y109.269 E21.06502
G1 X92.885 Y109.383 E21.08367
G1 X92.857 Y109.391 E21.08464
G1 X92.631 Y109.474 E21.09265
G1 X90.496 Y109.664 E21.16394
G1 X90.489 Y109.665 E21.16418
G1 X89.585 Y109.78 E21.19449
G1 X89.562 Y109.784 E21.19526
G1 X88.875 Y109.955 E21.21881
G1 X88.688 Y109.996 E21.22518
M204 S2000
G1 F2400 E20.42518
G0 F7500 X129.037 Y109.249
M204 S500
G1 F2400 E21.22518
G1 F1500 X129.08 Y109 E21.23358
G1 X130.595 Y109 E21.28397
G1 X131.249 Y109.631 E21.3142
G1 X131.137 Y109.832 E21.32185
G1 X130.262 Y109.613 E21.35185
G1 X129.466 Y109.428 E21.37903
G1 X129.334 Y109.357 E21.38402
G1 X129.306 Y109.345 E21.38503
G1 X129.037 Y109.249 E21.39453
M204 S2000
G1 F2400 E20.59453
G0 F7500 X133.764 Y111.896
M204 S500
G1 F2400 E21.39453
G1 F1500 X135 Y111.921 E21.43565
G1 X135 Y113.981 E21.50416
G1 X134.777 Y114.041 E21.51184
G1 X134.621 Y113.767 E21.52233
G1 X134.374 Y113.126 E21.54518
G1 X134.369 Y113.116 E21.54555
G1 X134.161 Y112.656 E21.56234
G1 X134.156 Y112.645 E21.56274
G1 X133.764 Y111.896 E21.59086
M204 S2000
G0 F7500 X134.432 Y112.31
M204 S500
G1 F1500 X134.6 Y112.313 E21.59645
G1 X134.6 Y112.655 E21.60782
G1 X134.526 Y112.491 E21.61381
G1 X134.511 Y112.46 E21.61495
G1 X134.432 Y112.31 E21.62059
M204 S2000
G1 F2400 E20.82059
;MESH:????????????58 ???? 77.STL
G0 F7500 X136.414 Y112.414
G0 X136.6 Y113.4
M204 S500
;TYPE:WALL-INNER
G1 F2400 E21.62059
G1 F1500 X140.4 Y113.4 E21.74698
G1 X140.4 Y106.6 E21.97315
G1 X79.6 Y106.6 E23.99537
G1 X79.602 Y113.398 E24.22147
G1 X83.4 Y113.4 E24.34779
G1 X83.4 Y112.6 E24.3744
G1 X81 Y112.6 E24.45422
G1 X80.575 Y112.425 E24.46951
G1 X80.4 Y112.089 E24.48211
G1 X80.4 Y110.9 E24.52166
G1 X80.519 Y110.539 E24.5343
G1 X80.769 Y110.346 E24.5448
G1 X81 Y110.3 E24.55264
G1 X85.756 Y110.299 E24.71082
G1 X88.581 Y107.568 E24.84151
G1 X88.911 Y107.4 E24.85383
G1 X131.001 Y107.4 E26.25374
G1 X131.418 Y107.568 E26.2687
G1 X134.25 Y110.303 E26.39964
G1 X139.013 Y110.4 E26.5581
G1 X139.368 Y110.525 E26.57061
G1 X139.6 Y111 E26.5882
G1 X139.6 Y112.089 E26.62442
G1 X139.424 Y112.424 E26.637
G1 X139.089 Y112.6 E26.64959
G1 X136.6 Y112.6 E26.73237
G1 X136.6 Y113.4 E26.75898
M204 S2000
G0 F7500 X136.2 Y113.8
M204 S500
;TYPE:WALL-OUTER
G1 F1500 X140.8 Y113.8 E26.91198
G1 X140.8 Y106.2 E27.16475
G1 X79.2 Y106.2 E29.21358
G1 X79.201 Y113.799 E29.46632
G1 X83.8 Y113.8 E29.61929
G1 X83.8 Y112.2 E29.6725
G1 X81 Y112.2 E29.76563
G1 X80.858 Y112.142 E29.77073
G1 X80.802 Y112.035 E29.77475
G1 X80.8 Y110.9 E29.8125
G1 X80.839 Y110.779 E29.81673
G1 X80.943 Y110.7 E29.82107
G1 X85.918 Y110.699 E29.98654
G1 X88.859 Y107.856 E30.12259
G1 X88.964 Y107.802 E30.12652
G1 X131.001 Y107.8 E31.52467
G1 X131.14 Y107.856 E31.52966
G1 X134.085 Y110.7 E31.66583
G1 X139.005 Y110.8 E31.8295
G1 X139.123 Y110.841 E31.83366
G1 X139.2 Y111 E31.83953
G1 X139.198 Y112.035 E31.87396
G1 X139.142 Y112.142 E31.87797
G1 X139.035 Y112.198 E31.88199
G1 X136.2 Y112.2 E31.97628
G1 X136.2 Y113.8 E32.0295
M204 S2000
G1 F2400 E31.2295
G0 F7500 X136.47 Y113.53
G0 X136.428 Y112.428
G0 X139.428 Y112.428
G0 X139.428 Y110.58
G0 X134.18 Y110.467
G0 X131.176 Y107.563
G0 X88.824 Y107.563
G0 X85.824 Y110.463
G0 X80.572 Y110.472
G0 X80.46 Y112.538
G0 X83.228 Y112.772
G0 X83.228 Y113.228
G0 X79.774 Y113.226
G0 X79.701 Y110.827
G0 X80.007 Y110.827
M204 S500
;TYPE:SKIN
G1 F2400 E32.0295
G1 F1348.3 X79.962 Y110.342 E32.04752
G1 F1500 X79.96 Y106.96 E32.16001
G1 X88.297 Y106.96 E32.4373
G1 F1425.2 X88.833 Y107 E32.45611
G1 X88.324 Y107.312 E32.47701
G1 F1500 X85.609 Y109.939 E32.60267
G1 X80.965 Y109.943 E32.75713
G1 X80.625 Y110.011 E32.76866
G1 F1421.8 X80.229 Y110.316 E32.7862
G1 F1284.8 X80.007 Y110.827 E32.80783
G1 F1234.6 X80.002 Y112.149 E32.86125
M204 S2000
G0 F7500 X79.701 Y112.149
G0 X79.774 Y113.226
G0 X80.971 Y113.298
G0 X80.973 Y113.001
M204 S500
G1 F1385.7 X80.324 Y113.033 E32.88465
G1 F1463.4 X79.967 Y113.033 E32.89682
G1 X79.968 Y112.707 E32.90793
G1 F1401.9 X80.001 Y112.167 E32.92719
G1 F1360.5 X80.328 Y112.701 E32.95015
G1 F1345.3 X80.973 Y113.001 E32.97653
M204 S2000
G0 F7500 X81.006 Y112.999
M204 S500
G1 F1252.6 X83 Y113 E33.05595
M204 S2000
G0 F7500 X82.998 Y113.299
G0 X83.572 Y112.428
G0 X80.572 Y112.428
G0 X80.572 Y110.472
G0 X85.681 Y110.47
G0 X88.444 Y107.559
G0 X88.85 Y107.001
M204 S500
G1 F1244.8 X130.994 Y107 E34.74502
M204 S2000
G0 F7500 X131.556 Y107.56
G0 X134.318 Y110.141
G0 X139.428 Y110.58
G0 X139.538 Y112.538
G0 X136.772 Y112.772
G0 X136.772 Y113.228
G0 X140.228 Y113.228
G0 X140.3 Y110.991
G0 X140.009 Y110.991
M204 S500
G1 F1463.4 X139.642 Y110.311 E34.77136
G1 F1500 X139.528 Y110.21 E34.77642
G1 X139.049 Y110.042 E34.79331
G1 X134.401 Y109.945 E34.94793
G1 F1445.8 X131.651 Y107.291 E35.07981
G1 F1357.5 X131.021 Y106.998 E35.10535
G1 F1405.2 X131.67 Y106.96 E35.12843
G1 F1500 X140.04 Y106.96 E35.40682
G1 X140.04 Y110.22 E35.51525
G1 F1463.4 X140.009 Y110.991 E35.54155
M204 S2000
G0 F7500 X140 Y111.011
M204 S500
