;FLAVOR:Marlin
;TIME:4475
;Filament used: 2.81852m
;Layer height: 0.2
;MINX:52
;MINY:95
;MINZ:0.2
;MAXX:168
;MAXY:125.281
;MAXZ:44
;TARGET_MACHINE.NAME:Creality Ender-3 S1
;Generated with Cura_SteamEngine 5.5.0
M82 ;absolute extrusion mode
; Ender 3 S1 Start G-code
; M413 S0 ; Disable power loss recovery
G92 E0 ; Reset Extruder

; Prep surfaces before auto home for better accuracy
M140 S60
M104 S200

G28 ; Home all axes
G1 Z10.0 F3000 ; Move Z Axis up little to prevent scratching of Heat Bed
G1 X0 Y0

M190 S60
M109 S200

G1 X0.1 Y20 Z0.3 F5000.0 ; Move to start position
G1 X0.1 Y200.0 Z0.3 F1500.0 E15 ; Draw the first line
G1 X0.4 Y200.0 Z0.3 F5000.0 ; Move to side a little
G1 X0.4 Y20 Z0.3 F1500.0 E30 ; Draw the second line
G92 E0 ; Reset Extruder
G1 Z2.0 F3000 ; Move Z Axis up little to prevent scratching of Heat Bed
G1 X5 Y20 Z0.3 F5000.0 ; Move over to prevent blob squish

G92 E0
G92 E0
G1 F2400 E-0.8
;LAYER_COUNT:220
;LAYER:0
M107
M204 S2000
G0 F7500 X56.998 Y96.797 Z0.2
M204 S500
;TYPE:SKIRT
G1 F2400 E0
G1 F1500 X57.837 Y96.301 E0.03242
G1 X58.651 Y95.91 E0.06245
G1 X59.628 Y95.542 E0.09718
G1 X60.532 Y95.292 E0.12837
G1 X61.534 Y95.109 E0.16225
G1 X62.705 Y95.013 E0.20133
G1 X63.312 Y95 E0.22152
G1 X156.304 Y95 E3.31445
G1 X157.184 Y95.013 E3.34372
G1 X158.156 Y95.072 E3.37611
G1 X159.119 Y95.218 E3.4085
G1 X160.066 Y95.449 E3.44092
G1 X160.954 Y95.749 E3.4721
G1 X161.846 Y96.139 E3.50448
G1 X162.729 Y96.626 E3.53802
G1 X163.48 Y97.128 E3.56806
G1 X164.295 Y97.786 E3.6029
G1 X164.993 Y98.464 E3.63527
G1 X165.629 Y99.201 E3.66765
G1 X166.199 Y99.991 E3.70005
G1 X166.661 Y100.767 E3.73008
G1 X167.115 Y101.709 E3.76486
G1 X167.444 Y102.587 E3.79605
G1 X167.713 Y103.559 E3.82959
G1 X167.89 Y104.525 E3.86226
G1 X167.985 Y105.655 E3.89997
G1 X168 Y106.33 E3.92243
G1 X167.999 Y113.416 E4.15811
G1 X167.987 Y114.177 E4.18343
G1 X167.929 Y115.15 E4.21585
G1 X167.783 Y116.113 E4.24824
G1 X167.552 Y117.06 E4.28066
G1 X167.239 Y117.982 E4.31305
G1 X166.847 Y118.873 E4.34542
G1 X166.395 Y119.695 E4.37662
G1 X165.833 Y120.533 E4.41018
G1 X165.243 Y121.263 E4.4414
G1 X164.54 Y121.989 E4.47501
G1 X163.804 Y122.625 E4.50737
G1 X163.014 Y123.195 E4.53977
G1 X162.238 Y123.658 E4.56982
G1 X161.298 Y124.111 E4.60453
G1 X160.385 Y124.453 E4.63695
G1 X159.447 Y124.712 E4.66932
G1 X158.481 Y124.889 E4.70198
G1 X157.314 Y124.987 E4.74094
G1 X154.289 Y125.112 E4.84163
G1 X152.794 Y125.216 E4.89148
G1 X152.184 Y125.246 E4.91179
G1 X151.281 Y125.248 E4.94182
G1 X150.239 Y125.157 E4.97661
G1 X149.35 Y124.999 E5.00665
G1 X148.028 Y124.62 E5.05239
G1 X146.8 Y124.183 E5.09574
G1 X144.34 Y123.346 E5.18217
G1 X141.951 Y122.607 E5.26534
G1 X139.552 Y121.938 E5.34817
G1 X137.058 Y121.321 E5.43363
G1 X134.63 Y120.791 E5.51628
G1 X132.143 Y120.321 E5.60046
G1 X129.701 Y119.931 E5.68272
G1 X127.156 Y119.598 E5.76808
G1 X124.648 Y119.34 E5.85194
G1 X122.198 Y119.161 E5.93364
G1 X119.631 Y119.045 E6.01911
G1 X116.77 Y119 E6.11428
G1 X103.262 Y119 E6.56356
G1 X100.678 Y119.037 E6.64951
G1 X98.11 Y119.146 E6.735
G1 X95.636 Y119.321 E6.81749
G1 X93.164 Y119.566 E6.90011
G1 X90.601 Y119.894 E6.98605
G1 X88.138 Y120.281 E7.06898
G1 X85.678 Y120.738 E7.1522
G1 X83.217 Y121.266 E7.23591
G1 X80.806 Y121.86 E7.3185
G1 X78.319 Y122.544 E7.40429
G1 X75.961 Y123.265 E7.4863
G1 X72.555 Y124.435 E7.60608
G1 X72.048 Y124.62 E7.62404
G1 X71.102 Y124.916 E7.657
G1 X70.15 Y125.123 E7.68941
G1 X69.183 Y125.245 E7.72182
G1 X68.219 Y125.281 E7.75391
G1 X67.49 Y125.252 E7.77818
G1 X66.935 Y125.211 E7.79669
G1 X64.263 Y125.052 E7.88571
G1 X62.535 Y124.98 E7.94324
G1 X61.546 Y124.892 E7.97626
G1 X60.589 Y124.719 E8.00861
G1 X59.649 Y124.464 E8.041
G1 X58.735 Y124.126 E8.07341
G1 X57.918 Y123.741 E8.10345
G1 X57.017 Y123.213 E8.13819
G1 X56.223 Y122.647 E8.17062
G1 X55.536 Y122.061 E8.20065
G1 X54.804 Y121.316 E8.23539
G1 X54.189 Y120.562 E8.26775
G1 X53.642 Y119.755 E8.30018
G1 X53.169 Y118.904 E8.33256
G1 X52.773 Y118.015 E8.36493
G1 X52.457 Y117.093 E8.39735
G1 X52.224 Y116.148 E8.42972
G1 X52.075 Y115.188 E8.46203
G1 X52.013 Y114.283 E8.4922
G1 X52 Y113.658 E8.51299
G1 X52.001 Y106.509 E8.75077
G1 X52.013 Y105.808 E8.77409
G1 X52.073 Y104.835 E8.80651
G1 X52.22 Y103.874 E8.83885
G1 X52.451 Y102.926 E8.8713
G1 X52.753 Y102.037 E8.90253
G1 X53.16 Y101.115 E8.93605
G1 X53.631 Y100.263 E8.96843
G1 X54.176 Y99.454 E9.00087
G1 X54.767 Y98.726 E9.03206
G1 X55.469 Y98.001 E9.06563
G1 X56.179 Y97.387 E9.09685
G1 X56.998 Y96.797 E9.13042
M204 S2000
G0 F7500 X57.202 Y97.141
M204 S500
G1 F1500 X58.01 Y96.662 E9.16166
G1 X58.824 Y96.271 E9.19169
G1 X59.735 Y95.928 E9.22407
G1 X60.639 Y95.678 E9.25527
G1 X61.567 Y95.508 E9.28665
G1 X62.714 Y95.413 E9.32493
G1 X63.321 Y95.4 E9.34512
G1 X156.298 Y95.4 E12.43755
G1 X157.16 Y95.412 E12.46622
G1 X158.097 Y95.468 E12.49744
G1 X159.025 Y95.607 E12.52865
G1 X159.938 Y95.828 E12.55989
G1 X160.794 Y96.116 E12.58993
G1 X161.686 Y96.506 E12.62231
G1 X162.507 Y96.959 E12.6535
G1 X163.258 Y97.461 E12.68354
G1 X164.017 Y98.073 E12.71597
G1 X164.691 Y98.726 E12.74719
G1 X165.305 Y99.435 E12.77838
G1 X165.855 Y100.196 E12.80961
G1 X166.317 Y100.972 E12.83965
G1 X166.74 Y101.849 E12.87203
G1 X167.069 Y102.727 E12.90322
G1 X167.32 Y103.632 E12.93445
G1 X167.491 Y104.559 E12.96581
G1 X167.586 Y105.689 E13.00352
G1 X167.6 Y106.33 E13.02485
G1 X167.599 Y113.41 E13.26033
G1 X167.588 Y114.154 E13.28508
G1 X167.533 Y115.091 E13.3163
G1 X167.394 Y116.019 E13.34751
G1 X167.173 Y116.932 E13.37875
G1 X166.873 Y117.821 E13.40996
G1 X166.496 Y118.68 E13.44116
G1 X166.044 Y119.502 E13.47236
G1 X165.521 Y120.282 E13.50359
G1 X164.955 Y120.985 E13.53361
G1 X164.278 Y121.687 E13.56605
G1 X163.57 Y122.301 E13.59722
G1 X162.809 Y122.851 E13.62845
G1 X162.033 Y123.314 E13.6585
G1 X161.157 Y123.737 E13.69086
G1 X160.278 Y124.068 E13.7221
G1 X159.374 Y124.319 E13.7533
G1 X158.447 Y124.49 E13.78465
G1 X157.297 Y124.587 E13.82304
G1 X154.272 Y124.712 E13.92374
G1 X152.766 Y124.817 E13.97395
G1 X152.183 Y124.846 E13.99336
G1 X151.28 Y124.848 E14.0234
G1 X150.309 Y124.763 E14.05582
G1 X149.42 Y124.605 E14.08585
G1 X148.162 Y124.243 E14.12939
G1 X146.929 Y123.804 E14.17292
G1 X144.469 Y122.967 E14.25934
G1 X142.069 Y122.225 E14.3429
G1 X139.648 Y121.55 E14.42649
G1 X137.143 Y120.93 E14.51232
G1 X134.715 Y120.4 E14.59498
G1 X132.206 Y119.926 E14.6799
G1 X129.753 Y119.534 E14.76253
G1 X127.208 Y119.201 E14.8479
G1 X124.685 Y118.942 E14.93225
G1 X122.216 Y118.761 E15.01459
G1 X119.649 Y118.645 E15.10006
G1 X116.776 Y118.6 E15.19563
G1 X103.256 Y118.6 E15.6453
G1 X100.661 Y118.637 E15.73162
G1 X98.093 Y118.746 E15.81711
G1 X95.605 Y118.922 E15.90007
G1 X93.113 Y119.169 E15.98336
G1 X90.55 Y119.497 E16.0693
G1 X88.076 Y119.886 E16.1526
G1 X85.594 Y120.347 E16.23656
G1 X83.133 Y120.875 E16.32028
G1 X80.7 Y121.474 E16.40361
G1 X78.202 Y122.161 E16.48978
G1 X75.844 Y122.882 E16.57179
G1 X72.418 Y124.059 E16.69228
G1 X71.928 Y124.238 E16.70963
G1 X71.016 Y124.525 E16.74143
G1 X70.099 Y124.726 E16.77265
G1 X69.168 Y124.845 E16.80387
G1 X68.235 Y124.881 E16.83493
G1 X67.519 Y124.853 E16.85876
G1 X66.964 Y124.812 E16.87727
G1 X64.28 Y124.652 E16.9667
G1 X62.552 Y124.58 E17.02422
G1 X61.616 Y124.498 E17.05547
G1 X60.693 Y124.333 E17.08666
G1 X59.787 Y124.089 E17.11786
G1 X58.906 Y123.764 E17.1491
G1 X58.089 Y123.379 E17.17914
G1 X57.249 Y122.887 E17.21151
G1 X56.483 Y122.343 E17.24276
G1 X55.796 Y121.757 E17.2728
G1 X55.114 Y121.063 E17.30516
G1 X54.52 Y120.337 E17.33636
G1 X53.991 Y119.56 E17.36762
G1 X53.534 Y118.741 E17.39882
G1 X53.151 Y117.885 E17.43001
G1 X52.845 Y116.997 E17.46125
G1 X52.619 Y116.086 E17.49246
G1 X52.474 Y115.16 E17.52364
G1 X52.413 Y114.275 E17.55314
G1 X52.4 Y113.658 E17.57367
G1 X52.401 Y106.515 E17.81125
G1 X52.412 Y105.832 E17.83397
G1 X52.469 Y104.895 E17.86519
G1 X52.609 Y103.968 E17.89637
G1 X52.83 Y103.055 E17.92761
G1 X53.132 Y102.166 E17.95884
G1 X53.51 Y101.308 E17.99003
G1 X53.963 Y100.486 E18.02124
G1 X54.487 Y99.706 E18.0525
G1 X55.078 Y98.978 E18.08368
G1 X55.731 Y98.304 E18.1149
G1 X56.441 Y97.69 E18.14612
G1 X57.202 Y97.141 E18.17733
M204 S2000
G0 F7500 X58.183 Y97.023
M204 S500
G1 F1500 X58.997 Y96.632 E18.20736
G1 X59.842 Y96.313 E18.2374
G1 X60.712 Y96.071 E18.26744
G1 X61.6 Y95.907 E18.29747
G1 X62.723 Y95.813 E18.33495
G1 X63.33 Y95.8 E18.35515
G1 X156.293 Y95.8 E21.44711
G1 X157.137 Y95.811 E21.47518
G1 X158.039 Y95.864 E21.50524
G1 X158.932 Y95.996 E21.53526
G1 X159.81 Y96.207 E21.56529
G1 X160.666 Y96.495 E21.59533
G1 X161.493 Y96.857 E21.62536
G1 X162.285 Y97.292 E21.65541
G1 X163.036 Y97.794 E21.68546
G1 X163.739 Y98.361 E21.7155
G1 X164.389 Y98.988 E21.74553
G1 X164.981 Y99.67 E21.77557
G1 X165.511 Y100.401 E21.8056
G1 X165.973 Y101.177 E21.83564
G1 X166.366 Y101.99 E21.86567
G1 X166.684 Y102.835 E21.8957
G1 X166.927 Y103.705 E21.92575
G1 X167.092 Y104.593 E21.95579
G1 X167.187 Y105.723 E21.9935
G1 X167.2 Y106.33 E22.0137
G1 X167.199 Y113.404 E22.24898
G1 X167.189 Y114.131 E22.27316
G1 X167.137 Y115.033 E22.30321
G1 X167.005 Y115.926 E22.33324
G1 X166.794 Y116.805 E22.3633
G1 X166.507 Y117.661 E22.39333
G1 X166.145 Y118.488 E22.42336
G1 X165.711 Y119.28 E22.4534
G1 X165.209 Y120.031 E22.48344
G1 X164.643 Y120.734 E22.51346
G1 X164.016 Y121.385 E22.54352
G1 X163.335 Y121.977 E22.57353
G1 X162.604 Y122.507 E22.60356
G1 X161.828 Y122.97 E22.63362
G1 X161.015 Y123.363 E22.66365
G1 X160.17 Y123.683 E22.6937
G1 X159.301 Y123.926 E22.72372
G1 X158.413 Y124.091 E22.75376
G1 X157.28 Y124.187 E22.79158
G1 X154.255 Y124.312 E22.89227
G1 X152.738 Y124.418 E22.94285
G1 X152.182 Y124.446 E22.96137
G1 X151.279 Y124.448 E22.9914
G1 X150.379 Y124.369 E23.02145
G1 X149.49 Y124.211 E23.05148
G1 X148.296 Y123.866 E23.09282
G1 X147.058 Y123.425 E23.13653
G1 X144.598 Y122.588 E23.22296
G1 X142.187 Y121.843 E23.30689
G1 X139.744 Y121.162 E23.39124
G1 X137.228 Y120.539 E23.47745
G1 X134.8 Y120.009 E23.56011
G1 X132.269 Y119.531 E23.64578
G1 X129.805 Y119.137 E23.72877
G1 X127.26 Y118.804 E23.81414
G1 X124.722 Y118.544 E23.899
G1 X122.234 Y118.361 E23.98197
G1 X119.667 Y118.245 E24.06744
G1 X116.782 Y118.2 E24.1634
G1 X103.25 Y118.2 E24.61348
G1 X100.644 Y118.237 E24.70016
G1 X98.076 Y118.346 E24.78565
G1 X95.574 Y118.523 E24.86908
G1 X93.062 Y118.772 E24.95304
G1 X90.499 Y119.1 E25.03898
G1 X88.014 Y119.491 E25.12265
G1 X85.51 Y119.956 E25.20735
G1 X83.049 Y120.484 E25.29107
G1 X80.594 Y121.088 E25.37516
G1 X78.085 Y121.778 E25.46171
G1 X75.727 Y122.499 E25.54372
G1 X72.281 Y123.683 E25.66491
G1 X71.791 Y123.862 E25.68226
G1 X70.93 Y124.134 E25.71229
G1 X70.048 Y124.329 E25.74234
G1 X69.152 Y124.445 E25.77239
G1 X68.25 Y124.481 E25.80241
G1 X67.548 Y124.454 E25.82578
G1 X66.993 Y124.413 E25.84429
G1 X64.297 Y124.252 E25.93411
G1 X62.586 Y124.181 E25.99107
G1 X61.686 Y124.104 E26.02112
G1 X60.797 Y123.947 E26.05114
G1 X59.925 Y123.713 E26.08117
G1 X59.077 Y123.402 E26.11121
G1 X58.26 Y123.017 E26.14125
G1 X57.48 Y122.561 E26.1713
G1 X56.743 Y122.039 E26.20134
G1 X56.056 Y121.453 E26.23137
G1 X55.423 Y120.809 E26.26141
G1 X54.85 Y120.111 E26.29144
G1 X54.34 Y119.365 E26.3215
G1 X53.899 Y118.577 E26.35153
G1 X53.529 Y117.754 E26.38155
G1 X53.233 Y116.9 E26.41161
G1 X53.014 Y116.024 E26.44164
G1 X52.873 Y115.132 E26.47168
G1 X52.813 Y114.266 E26.50055
G1 X52.8 Y113.658 E26.52078
G1 X52.801 Y106.521 E26.75815
G1 X52.811 Y105.856 E26.78027
G1 X52.865 Y104.954 E26.81033
G1 X52.998 Y104.061 E26.84036
G1 X53.209 Y103.183 E26.87039
G1 X53.498 Y102.327 E26.90044
G1 X53.861 Y101.5 E26.93048
G1 X54.295 Y100.709 E26.96049
G1 X54.798 Y99.958 E26.99055
G1 X55.366 Y99.256 E27.02059
G1 X55.993 Y98.606 E27.05062
G1 X56.675 Y98.014 E27.08066
G1 X57.407 Y97.485 E27.1107
G1 X58.183 Y97.023 E27.14074
M204 S2000
G1 F2400 E26.34074
G0 F7500 X62.347 Y114.653
G0 X67.653 Y114.653
G0 X68 Y111.961
M204 S500
G1 F2400 E27.14074
G1 F1500 X70.098 Y110.68 E27.2225
G1 X70.265 Y110.853 E27.23049
G1 X70.003 Y111.248 E27.24626
G1 X69.995 Y111.262 E27.2468
G1 X69.857 Y111.512 E27.25629
G1 X69.852 Y111.522 E27.25667
G1 X69.713 Y111.808 E27.26724
G1 X69.399 Y112.212 E27.28426
G1 X69.387 Y112.23 E27.28498
G1 X68.999 Y112.858 E27.30953
G1 X68.988 Y112.878 E27.31029
G1 X68.736 Y113.417 E27.33008
G1 X68.462 Y113.781 E27.34523
G1 X68.344 Y113.879 E27.35034
G1 X68.307 Y113.918 E27.35212
G1 X68.209 Y114.057 E27.35778
G1 X68 Y113.99 E27.36508
G1 X68 Y111.961 E27.43257
M204 S2000
G0 F7500 X68.4 Y112.186
M204 S500
G1 F1500 X69.374 Y111.591 E27.47053
G1 X69.371 Y111.597 E27.47075
G1 X69.083 Y111.967 E27.48634
G1 X69.047 Y112.02 E27.48848
G1 X68.659 Y112.648 E27.51303
G1 X68.626 Y112.709 E27.51534
G1 X68.4 Y113.192 E27.53307
G1 X68.4 Y112.186 E27.56653
M204 S2000
G1 F2400 E26.76653
G0 F7500 X146.189 Y109.232
M204 S500
G1 F2400 E27.56653
G1 F1500 X146.243 Y109 E27.57445
G1 X147.693 Y109 E27.62268
G1 X149.431 Y110.182 E27.69259
G1 X152 Y111.929 E27.79592
G1 X152 Y113.965 E27.86364
G1 X151.795 Y114.033 E27.87082
G1 X151.518 Y113.663 E27.88619
G1 X151.32 Y113.358 E27.89829
G1 X151.29 Y113.322 E27.89985
G1 X151.277 Y113.309 E27.90046
G1 X151.016 Y112.755 E27.92083
G1 X151.009 Y112.741 E27.92135
G1 X150.811 Y112.393 E27.93466
G1 X150.805 Y112.384 E27.93502
G1 X150.576 Y112.029 E27.94907
G1 X150.572 Y112.022 E27.94934
G1 X150.391 Y111.764 E27.95982
G1 X150.2 Y111.389 E27.97382
G1 X150.184 Y111.362 E27.97487
G1 X149.922 Y111.003 E27.98965
G1 X149.906 Y110.984 E27.99047
G1 X149.719 Y110.784 E27.99958
G1 X149.707 Y110.772 E28.00015
G1 X149.485 Y110.572 E28.01008
G1 X149.459 Y110.552 E28.01117
G1 X149.116 Y110.333 E28.02471
G1 X149.091 Y110.32 E28.02565
G1 X148.806 Y110.19 E28.03607
G1 X148.784 Y110.182 E28.03684
G1 X148.503 Y110.092 E28.04666
G1 X148.482 Y110.086 E28.04738
G1 X148.088 Y110.005 E28.06076
G1 X148.063 Y110.002 E28.0616
G1 X147.8 Y109.982 E28.07037
G1 X147.082 Y109.779 E28.09519
G1 X146.57 Y109.44 E28.11561
G1 X146.56 Y109.434 E28.116
G1 X146.34 Y109.307 E28.12445
G1 X146.328 Y109.3 E28.12491
G1 X146.189 Y109.232 E28.13006
M204 S2000
G0 F7500 X147.233 Y109.4
M204 S500
G1 F1500 X147.57 Y109.4 E28.14127
G1 X147.825 Y109.574 E28.15154
G1 X147.249 Y109.411 E28.17145
G1 X147.233 Y109.4 E28.17209
M204 S2000
G1 F2400 E27.37209
G0 F7500 X150.731 Y111.55
M204 S500
G1 F2400 E28.17209
G1 F1500 X151.6 Y112.141 E28.20705
G1 X151.6 Y113.057 E28.23751
G1 X151.378 Y112.585 E28.25486
G1 X151.356 Y112.543 E28.25644
G1 X151.158 Y112.195 E28.26975
G1 X151.141 Y112.167 E28.27084
G1 X150.912 Y111.812 E28.28489
G1 X150.899 Y111.793 E28.28566
G1 X150.737 Y111.562 E28.29504
G1 X150.731 Y111.55 E28.29549
M204 S2000
G1 F2400 E27.49549
;MESH:???????????? 90 ???? 40.STL
G0 F7500 X153.42 Y111.55
G0 X153.6 Y113.4
M204 S500
;TYPE:WALL-INNER
G1 F2400 E28.29549
G1 F1500 X156.4 Y113.4 E28.38862
G1 X156.4 Y106.6 E28.61479
G1 X63.601 Y106.601 E31.70129
G1 X63.6 Y113.4 E31.92743
G1 X66.4 Y113.4 E32.02056
G1 X66.4 Y111.4 E32.08708
G1 X66.44 Y111.183 E32.09442
G1 X66.547 Y111.006 E32.1013
G1 X66.687 Y110.887 E32.10741
G1 X72.254 Y107.487 E32.32437
G1 X72.484 Y107.4 E32.33255
G1 X148 Y107.4 E34.84422
G1 X148.338 Y107.503 E34.85597
G1 X153.439 Y110.973 E35.06117
G1 X153.564 Y111.195 E35.06964
G1 X153.6 Y111.401 E35.0766
G1 X153.6 Y113.4 E35.14308
M204 S2000
G0 F7500 X153.2 Y113.8
M204 S500
;TYPE:WALL-OUTER
G1 F1500 X156.8 Y113.8 E35.26282
G1 X156.8 Y106.2 E35.5156
G1 X63.201 Y106.201 E38.62871
G1 X63.2 Y113.8 E38.88146
G1 X66.8 Y113.8 E39.00119
G1 X66.8 Y111.348 E39.08275
G1 X66.86 Y111.251 E39.08654
G1 X72.506 Y107.802 E39.30659
G1 X148 Y107.8 E41.81753
G1 X148.113 Y107.834 E41.82146
G1 X153.146 Y111.258 E42.02392
G1 X153.2 Y111.353 E42.02756
G1 X153.2 Y113.8 E42.10894
M204 S2000
G1 F2400 E41.30894
G0 F7500 X153.47 Y113.53
G0 X153.435 Y111.17
G0 X148.134 Y107.562
G0 X72.443 Y107.562
G0 X66.566 Y111.157
G0 X66.3 Y113.04
G0 X66.04 Y113.04
M204 S500
;TYPE:SKIN
G1 F2400 E42.10894
G1 F1500 X63.96 Y113.04 E42.17812
G1 X63.962 Y106.962 E42.38028
G1 F1488.8 X72.062 Y106.964 E42.65171
G1 F1348.3 X72.422 Y107.001 E42.6651
G1 X72.097 Y107.159 E42.67847
G1 F1488.8 X66.5 Y110.579 E42.89826
G1 F1500 X66.273 Y110.768 E42.90809
