;FLAVOR:Marlin
;TIME:9976
;Filament used: 11.0706m
;Layer height: 0.32
;MINX:6.272
;MINY:13.078
;MINZ:0.2
;MAXX:207.783
;MAXY:214.588
;MAXZ:4.04
;Generated with Cura_SteamEngine 5.4.0
M140 S60
M105
M190 S60
M104 S200
M105
M109 S200
M82 ;absolute extrusion mode
; Ender 3 Custom Start G-code
G92 E0 ; Reset Extruder
G28 ; Home all axes
G1 Z2.0 F3000 ; Move Z Axis up little to prevent scratching of Heat Bed
G1 X0.1 Y20 Z0.3 F5000.0 ; Move to start position
G1 X0.1 Y200.0 Z0.3 F1500.0 E15 ; Draw the first line
G1 X0.4 Y200.0 Z0.3 F5000.0 ; Move to side a little
G1 X0.4 Y20 Z0.3 F1500.0 E30 ; Draw the second line
G92 E0 ; Reset Extruder
G1 Z2.0 F3000 ; Move Z Axis up little to prevent scratching of Heat Bed
G1 X5 Y20 Z0.3 F5000.0 ; Move over to prevent blob squish
G92 E0
G92 E0
G1 F2700 E-20
;LAYER_COUNT:13
;LAYER:0
M107
;MESH:antenn.stl
;TYPE:WALL-OUTER
;MESH:antenn.stl
G1 F2700 E2223.42814
G1 F1927.7 X97.983 Y92.51 E2223.48773
G1 F1711.2 X97.763 Y92.642 E2223.50688
G1 F1736 X97.113 Y91.995 E2223.57436
G1 F1927.7 X96.901 Y91.875 E2223.5905
G1 F2008.4 X96.636 Y91.814 E2223.60779
G1 F2082.4 X96.465 Y91.869 E2223.61881
G1 F1991.7 X96.182 Y92.151 E2223.64443
G1 F2114.5 X96.129 Y92.303 E2223.65415
G1 F2073.4 X96.181 Y92.608 E2223.67321
G1 F1931.6 X96.291 Y92.808 E2223.6883
G1 F1927.7 X96.838 Y93.361 E2223.73983
G1 F1761.5 X96.987 Y93.447 E2223.75231
G1 F1771.2 X97.131 Y93.362 E2223.76436
G1 F1904.8 X97.661 Y92.832 E2223.81462
G1 F1699.1 X97.763 Y92.642 E2223.83083
G1 F2700 E2203.83083
G0 F12000 X100.228 Y93.551
G1 F2700 E2223.83083
G1 F1699.1 X100.42 Y93.653 E2223.84718
G1 F1916.2 X100.917 Y94.15 E2223.89402
G1 F1777.8 X101.034 Y94.329 E2223.90939
G1 F1761.5 X100.949 Y94.473 E2223.92151
G1 F1923.8 X99.462 Y95.965 E2224.06135
G1 F1947.3 X99.458 Y95.96 E2224.06177
G0 F12000 X98.64 Y95.138
G1 F1807.9 X99.434 Y94.345 E2224.14105
G1 F1618.9 X100.228 Y93.551 E2224.22964
G1 F1717.4 X100.126 Y93.358 E2224.24587
G1 F1967.2 X99.805 Y93.039 E2224.27525
G1 F1975.3 X99.676 Y92.97 E2224.28471
G1 F1939.4 X99.459 Y92.928 E2224.29927
G1 F1935.5 X99.227 Y92.97 E2224.31483
G1 X99.028 Y93.109 E2224.33084
G1 F1931.6 X97.819 Y94.321 E2224.44404
G1 F2700 E2204.44404
G0 F12000 X97.733 Y95.224
G0 X97.455 Y95.243
G0 X95.597 Y93.411
G0 X95.275 Y92.879
G0 X95.252 Y92.265
G0 X95.316 Y91.807
G0 X95.644 Y91.343
G0 X96.09 Y91.025
G0 X96.588 Y90.921
G0 X98.981 Y90.948
G0 X102.831 Y94.798
G0 X102.8 Y95.364
G0 X103.005 Y96.26
G1 F2700 E2224.44404
G1 F1931.6 X101.793 Y97.47 E2224.55728
G1 F1935.5 X101.594 Y97.609 E2224.5733
G1 X101.362 Y97.651 E2224.58885
G1 F1947.3 X101.058 Y97.58 E2224.60933
G1 F1951.2 X100.449 Y96.971 E2224.6657
G1 F1777.8 X100.333 Y96.793 E2224.68097
G1 F1758.2 X100.417 Y96.649 E2224.69308
G1 F1908.5 X101.905 Y95.161 E2224.8339
G1 F2700 E2204.8339
G0 F12000 X102.8 Y95.364
G0 X102.831 Y94.798
G0 X98.981 Y90.948
G0 X96.588 Y90.921
G0 X96.09 Y91.025
G0 X95.644 Y91.343
G0 X95.316 Y91.807
G0 X95.252 Y92.265
G0 X95.275 Y92.879
G0 X95.597 Y93.411
G0 X100.357 Y98.171
G0 X100.708 Y98.409
G0 X101.302 Y98.555
G0 X102.199 Y98.702
G1 F2700 E2224.8339
G1 F1951.2 X102.204 Y98.707 E2224.83436
G1 F1935.5 X102.837 Y98.069 E2224.89367
G1 F1711.2 X103.058 Y97.937 E2224.91288
G1 F2700 E2204.91288
G0 F12000 X104.929 Y98.18
G1 F2700 E2224.91288
G1 F1975.3 X104.458 Y98.643 E2224.95558
G1 X104.333 Y98.709 E2224.96472
G1 F1939.4 X104.104 Y98.75 E2224.98004
G1 F1832.1 X103.8 Y98.679 E2225.00181
G1 F1638.2 X103.058 Y97.937 E2225.08362
G1 F1699.1 X103.159 Y97.747 E2225.09979
G1 F1920 X103.83 Y97.082 E2225.16263
G1 F1951.2 X103.825 Y97.076 E2225.16314
G1 F2700 E2205.16314
G0 F12000 X104.718 Y97.289
G0 X105.364 Y97.33
G0 X106.84 Y98.733
G0 X107.141 Y99.178
G0 X107.238 Y99.461
G0 X106.189 Y100.752
;TYPE:WALL-INNER
G1 F2700 E2225.16314
G1 F2038.2 X105.875 Y101.066 E2225.19097
G0 F12000 X105.178 Y101.199
;TYPE:WALL-OUTER
G1 F1975.3 X105.092 Y101.239 E2225.1971
G1 F1951.2 X104.772 Y101.236 E2225.21805
G1 F1901 X104.525 Y101.056 E2225.23858
G1 F1893.5 X104.34 Y100.808 E2225.25945
G1 F1947.3 X104.337 Y100.455 E2225.28261
G1 F1943.3 X104.453 Y100.295 E2225.29559
G1 F1927.7 X105.417 Y99.331 E2225.38592
G1 F1939.4 X105.577 Y99.217 E2225.39886
G1 F1955.2 X105.937 Y99.218 E2225.42237
G1 F1897.2 X106.174 Y99.398 E2225.44241
G1 F1901 X106.349 Y99.627 E2225.46177
G1 F1963.2 X106.354 Y99.991 E2225.48545
G1 F1971.3 X106.289 Y100.096 E2225.49346
G0 F12000 X106.921 Y100.566
G1 F1923.8 X107.117 Y100.372 E2225.51176
G1 F2700 E2205.51176
G0 F12000 X105.686 Y101.8
G1 F2700 E2225.51176
G1 F2133.3 X106.04 Y101.516 E2225.53893
G1 F2400 X106.63 Y100.926 E2225.58334
G1 F2128.6 X106.921 Y100.566 E2225.61111
G1 X106.614 Y100.542 E2225.62959
G1 F2400 X106.382 Y100.346 E2225.64575
G1 F2171.9 X106.289 Y100.096 E2225.66144
G1 X105.962 Y100.363 E2225.68626
G1 F2400 X105.498 Y100.827 E2225.72118
G1 F2302.2 X105.201 Y101.172 E2225.74644
G1 X105.475 Y101.266 E2225.76251
G1 F2400 X105.665 Y101.497 E2225.77842
G1 F2133.3 X105.686 Y101.8 E2225.79661
G1 F1923.8 X105.494 Y101.993 E2225.81468
G1 F2700 E2205.81468
G0 F12000 X107.424 Y103.882
G1 F2700 E2225.81468
G1 F1889.8 X108.482 Y101.777 E2225.9739
G1 F1893.5 X108.376 Y101.608 E2225.98736
G1 F1935.5 X108.131 Y101.363 E2226.01022
G1 F1777.8 X107.953 Y101.247 E2226.02549
G1 F1771.2 X107.778 Y101.362 E2226.04059
G1 F1935.5 X106.321 Y102.824 E2226.17679
G1 F2700 E2206.17679
G0 F12000 X106.509 Y103.709
G0 X106.697 Y104.567
G0 X107.984 Y105.756
G0 X108.472 Y105.637
G0 X109.363 Y105.862
G1 F2700 E2226.17679
G1 F1920 X109.776 Y105.45 E2226.2156
G1 F2004.2 X109.829 Y105.288 E2226.22646
G1 F2201.8 X109.828 Y104.642 E2226.26393
G1 F2313.3 X109.886 Y104.614 E2226.26749
G1 X109.948 Y104.68 E2226.27249
G1 F2291.2 X110.186 Y104.794 E2226.2872
G1 F2082.4 X110.449 Y104.777 E2226.30336
G1 F2100.7 X110.184 Y105.1 E2226.32876
G1 X109.776 Y105.45 E2226.36144
G0 F12000 X110.449 Y104.777
G1 F1923.8 X110.984 Y104.241 E2226.41172
G1 F2700 E2206.41172
G0 F12000 X109.888 Y103.154
G1 F2700 E2226.41172
G1 F2091.5 X109.853 Y104.287 E2226.48094
G1 F1912.4 X109.784 Y104.478 E2226.4945
G1 F1864.1 X109.585 Y104.489 E2226.50816
G1 F2016.8 X108.313 Y104.76 E2226.59052
G1 F2700 E2206.59052
G0 F12000 X108.472 Y105.637
G0 X108.437 Y106.225
G0 X110.232 Y108.046
G0 X110.663 Y108.339
G0 X111.242 Y108.45
G0 X111.82 Y108.339
G0 X112.066 Y108.173
G0 X113.186 Y107.114
G0 X112.539 Y106.468
G1 F2700 E2226.59052
G1 F1947.3 X111.555 Y107.451 E2226.68175
G1 X111.237 Y107.523 E2226.70313
G1 F1939.4 X111.018 Y107.481 E2226.71782
G1 F1947.3 X110.823 Y107.345 E2226.73341
G1 F1959.2 X110.494 Y107.016 E2226.76374
G1 F1971.3 X110.429 Y106.892 E2226.77281
G1 F1951.2 X110.39 Y106.667 E2226.78776
G1 F1955.2 X110.431 Y106.444 E2226.80257
G1 F1951.2 X110.57 Y106.248 E2226.8183
G1 F1947.3 X111.444 Y105.373 E2226.89941
G1 F1935.5 X111.565 Y105.305 E2226.90857
G1 F1912.4 X111.78 Y105.268 E2226.92314
G1 F1916.2 X111.973 Y105.297 E2226.93615
G1 F1951.2 X112.135 Y105.379 E2226.94804
G1 F1573.8 X112.394 Y105.463 E2226.97013
G1 F1507.1 X112.552 Y105.76 E2226.99864
G1 F1450.2 X112.776 Y106.027 E2227.02934
G0 F12000 X113.149 Y105.857
G1 F1920 X113.339 Y105.666 E2227.04726
G1 F1927.7 X113.475 Y105.471 E2227.06301
G1 F1951.2 X113.512 Y105.275 E2227.07607
G1 F1963.2 X113.469 Y105.101 E2227.08773
G1 F1935.5 X113.348 Y104.944 E2227.10081
G1 F1889.8 X113.207 Y104.85 E2227.11226
G1 F1955.2 X113.006 Y104.807 E2227.12569
G1 X112.825 Y104.842 E2227.13773
G1 F1904.8 X112.654 Y104.934 E2227.15075
G1 F1939.4 X112.59 Y105.022 E2227.15792
G1 F2700 E2207.15792
G0 F12000 X112.09 Y104.213
G0 X112.539 Y103.937
G0 X113.127 Y103.901
G0 X113.573 Y103.98
G0 X122.05 Y111.03
G0 X122.024 Y111.785
G0 X128.145 Y119.576
G0 X128.987 Y120.412
G0 X131.835 Y121.597
G0 X132.265 Y121.71
G0 X132.724 Y121.589
G0 X134.743 Y119.57
G0 X134.857 Y119.116
G0 X134.755 Y118.705
G0 X126.05 Y109.964
G0 X125.36 Y110.655
G1 F2700 E2227.15792
G1 F1705.2 X125.55 Y110.756 E2227.17403
G1 F1920 X126.048 Y111.254 E2227.22088
G1 F1777.8 X126.164 Y111.432 E2227.23614
G1 F1758.2 X126.08 Y111.576 E2227.24825
G1 F1908.5 X124.593 Y113.064 E2227.38903
G0 F12000 X123.771 Y112.243
G1 F1814.7 X124.565 Y111.449 E2227.46806
G1 F1624.4 X125.36 Y110.655 E2227.5564
G1 F1723.5 X125.258 Y110.462 E2227.57258
G1 F1975.3 X124.933 Y110.141 E2227.60211
G1 F1959.2 X124.59 Y110.032 E2227.62557
G1 F1939.4 X124.358 Y110.074 E2227.6411
G1 X124.156 Y110.216 E2227.65736
G1 F1935.5 X122.95 Y111.426 E2227.77009
G1 F1947.3 X122.946 Y111.421 E2227.77051
G1 F2700 E2207.77051
G0 F12000 X122.864 Y112.328
G0 X122.845 Y112.606
G0 X128.145 Y119.576
G0 X128.987 Y120.412
G0 X131.835 Y121.597
G0 X132.265 Y121.71
G0 X132.724 Y121.589
G0 X134.743 Y119.57
G0 X134.857 Y119.116
G0 X134.743 Y118.659
G0 X128.498 Y112.438
G0 X127.744 Y112.464
G0 X127.321 Y112.898
G0 X128.139 Y113.364
G1 F2700 E2227.77051
G1 F1935.5 X127.498 Y113.999 E2227.83005
G1 F1711.2 X127.278 Y114.131 E2227.8492
G1 F1717.4 X126.652 Y113.506 E2227.91499
G1 F1904.8 X126.417 Y113.364 E2227.9334
G1 F2008.4 X126.152 Y113.303 E2227.95069
G1 F2082.4 X125.981 Y113.357 E2227.96169
G1 F1995.8 X125.697 Y113.641 E2227.98739
G1 F2119.2 X125.644 Y113.794 E2227.99715
G1 F2069 X125.696 Y114.096 E2228.01607
G1 F1916.2 X125.835 Y114.33 E2228.03421
G1 X126.354 Y114.85 E2228.08318
G1 F1761.5 X126.502 Y114.936 E2228.09559
G1 F1771.2 X126.647 Y114.851 E2228.10771
G1 F1904.8 X127.177 Y114.321 E2228.15797
G1 F1699.1 X127.278 Y114.131 E2228.17414
G1 F2700 E2208.17414
G0 F12000 X127.321 Y112.898
G0 X127.744 Y112.464
G0 X128.498 Y112.438
G0 X134.743 Y118.659
G0 X134.857 Y119.116
G0 X134.743 Y119.57
G0 X132.724 Y121.589
G0 X132.265 Y121.71
G0 X131.835 Y121.597
G0 X128.987 Y120.412
G0 X128.145 Y119.576
G0 X127.849 Y119.14
G0 X127.433 Y116.851
G0 X128.439 Y116.874
G1 F2700 E2228.17414
G1 F1886.1 X129.499 Y114.766 E2228.33392
G1 F1889.8 X129.392 Y114.598 E2228.34738
G1 F1935.5 X129.147 Y114.353 E2228.37025
G1 F1777.8 X128.969 Y114.237 E2228.38551
G1 F1771.2 X128.794 Y114.352 E2228.40061
G1 F1931.6 X127.337 Y115.812 E2228.53699
G1 F2700 E2208.53699
G0 F12000 X127.527 Y116.698
G0 X127.849 Y119.14
G0 X128.016 Y119.386
G0 X128.733 Y120.164
G0 X129.376 Y119.518
G1 F2700 E2228.53699
G1 F1975.3 X128.772 Y118.91 E2228.59241
G1 X128.706 Y118.785 E2228.60155
G1 F1943.3 X128.665 Y118.56 E2228.61658
G1 F1939.4 X128.705 Y118.338 E2228.63143
G1 F1931.6 X128.849 Y118.134 E2228.64794
G1 F1920 X129.068 Y117.915 E2228.66855
G1 F1714.3 X129.288 Y117.782 E2228.6877
G1 F1638.2 X130.029 Y118.525 E2228.76951
G1 F1832.1 X130.334 Y118.596 E2228.79134
G1 F1935.5 X130.565 Y118.554 E2228.80683
G1 X130.764 Y118.415 E2228.82285
G1 X131.979 Y117.205 E2228.936
G1 F2700 E2208.936
G0 F12000 X130.877 Y116.107
G1 F2700 E2228.936
G1 F1908.5 X129.389 Y117.594 E2229.07678
G1 F1699.1 X129.288 Y117.782 E2229.09282
G1 F2700 E2209.09282
G0 F12000 X128.041 Y117.717
G0 X127.847 Y117.982
G0 X127.736 Y118.561
G0 X127.849 Y119.14
G0 X128.145 Y119.576
G0 X128.987 Y120.412
G0 X129.739 Y120.438
G0 X130.607 Y120.546
G0 X131.378 Y120.544
G0 X132.275 Y120.746
G1 F2700 E2229.09282
G1 F1904.8 X133.763 Y119.258 E2229.23392
G1 F1758.2 X133.847 Y119.115 E2229.24597
G1 F1777.8 X133.731 Y118.936 E2229.26129
G1 F1935.5 X133.232 Y118.438 E2229.30781
G1 F1951.2 X133.033 Y118.299 E2229.3237
G1 F1943.3 X132.818 Y118.257 E2229.3381
G1 F1939.4 X132.584 Y118.3 E2229.35377
G1 X132.385 Y118.439 E2229.36975
G1 F1931.6 X131.176 Y119.651 E2229.48294
G1 F2700 E2209.48294
G0 F12000 X131.378 Y120.544
G0 X131.349 Y121.11
G0 X131.835 Y121.597
G0 X132.265 Y121.71
G0 X132.724 Y121.589
G0 X134.743 Y119.57
G0 X134.857 Y119.116
G0 X134.766 Y118.747
G0 X133.778 Y117.05
G0 X139.088 Y120.117
G1 F2700 E2229.48294
G1 F1955.2 X139.731 Y120.117 E2229.52495
G1 F1947.3 X140.297 Y119.794 E2229.56769
G1 F1939.4 X179.241 Y80.849 E2233.19471
G1 F1947.3 X179.562 Y80.287 E2233.23716
G1 F1955.2 X179.562 Y79.643 E2233.27923
G1 X179.238 Y79.083 E2233.32149
G1 F1939.4 X178.355 Y78.194 E2233.40401
G1 F1923.8 X178.708 Y77.841 E2233.43715
G1 F1931.6 X179.599 Y78.733 E2233.52052
G1 F1947.3 X180.045 Y79.514 E2233.5795
G1 F1955.2 X180.045 Y80.416 E2233.63843
G1 F1947.3 X179.593 Y81.203 E2233.69795
G1 F1939.4 X140.647 Y120.149 E2237.32512
G1 F1947.3 X139.86 Y120.6 E2237.38461
G1 F1955.2 X138.959 Y120.6 E2237.44346
G1 F1947.3 X138.176 Y120.153 E2237.5026
G1 F1939.4 X101.405 Y83.382 E2240.9272
G1 F1947.3 X100.953 Y82.595 E2240.98672
G1 F1955.2 X100.953 Y81.693 E2241.04565
G1 F1947.3 X101.402 Y80.909 E2241.1049
G1 F1939.4 X140.351 Y41.96 E2244.73235
G1 F1947.3 X141.138 Y41.509 E2244.79184
G1 F1955.2 X142.039 Y41.509 E2244.8507
G1 F1947.3 X142.822 Y41.956 E2244.90983
G1 F1931.6 X165.276 Y64.409 E2247.00944
G1 F1923.8 X164.923 Y64.762 E2247.04259
G1 F1931.6 X153.698 Y53.54 E2248.09209
G1 F1947.3 X142.472 Y42.317 E2249.13324
G1 F1955.2 X141.91 Y41.992 E2249.17565
G1 X141.267 Y41.992 E2249.21765
G1 F1947.3 X140.701 Y42.315 E2249.26039
G1 F1939.4 X101.767 Y81.25 E2252.88648
G1 F1947.3 X101.436 Y81.822 E2252.92983
G1 F1955.2 X101.436 Y82.466 E2252.9719
G1 F1947.3 X101.757 Y83.028 E2253.01435
G1 F1939.4 X138.514 Y119.785 E2256.43764
G1 F1947.3 X139.088 Y120.117 E2256.48113
G1 F2700 E2236.48113
G0 F12000 X139.088 Y120.379
G0 X138.254 Y119.993
G0 X137.488 Y120.76
G0 X136.308 Y121.943
G0 X114.951 Y144.898
G1 F2700 E2256.48113
G1 F1967.2 X115.515 Y144.576 E2256.5233
G1 F1979.4 X135.354 Y124.728 E2258.33405
G1 F1971.3 X135.664 Y124.185 E2258.37456
G1 F1955.2 X135.664 Y123.541 E2258.41663
G1 X135.34 Y122.981 E2258.45889
G1 F1939.4 X134.078 Y121.713 E2258.57671
G1 F1923.8 X134.432 Y121.36 E2258.60989
G1 F1931.6 X135.701 Y122.631 E2258.72865
G1 F1947.3 X136.147 Y123.412 E2258.78764
G1 F1955.2 X136.147 Y124.314 E2258.84656
G1 F1947.3 X135.695 Y125.101 E2258.90609
G1 F1939.4 X115.867 Y144.929 E2260.75273
G1 F1947.3 X115.08 Y145.381 E2260.81226
G1 F1955.2 X114.178 Y145.381 E2260.87118
G1 F1947.3 X113.394 Y144.932 E2260.93044
G1 F1939.4 X76.623 Y108.162 E2264.35499
G1 F1947.3 X76.173 Y107.376 E2264.41439
G1 F1955.2 X76.174 Y106.473 E2264.47338
G1 F1947.3 X76.618 Y105.692 E2264.5323
G1 F1939.4 X96.453 Y85.857 E2266.3796
G1 F1947.3 X97.239 Y85.408 E2266.43897
G1 F1955.2 X98.142 Y85.408 E2266.49796
G1 F1947.3 X98.923 Y85.852 E2266.55688
G1 F1931.6 X122.792 Y109.721 E2268.78886
G1 F1923.8 X122.439 Y110.074 E2268.822
G1 F1931.6 X98.574 Y86.209 E2271.0536
G1 F1947.3 X98.013 Y85.891 E2271.0959
G1 F1955.2 X97.368 Y85.891 E2271.13803
G1 F1951.2 X96.803 Y86.213 E2271.1806
G1 F1943.3 X76.974 Y106.042 E2273.0236
G1 F1947.3 X76.657 Y106.602 E2273.06581
G1 F1955.2 X76.656 Y107.247 E2273.10794
G1 F1947.3 X76.978 Y107.812 E2273.1506
G1 F1939.4 X113.735 Y144.567 E2276.5738
G1 F1947.3 X114.307 Y144.898 E2276.61714
G1 F1955.2 X114.951 Y144.898 E2276.65921
G1 F2700 E2256.65921
G0 F12000 X114.951 Y145.16
G0 X114.253 Y145.098
G0 X113.652 Y144.752
G0 X111.266 Y142.322
G0 X109.707 Y141.034
G0 X108.034 Y142.706
G1 F2700 E2276.65921
G1 F1669.6 X107.99 Y144.108 E2276.76652
G1 F1533.5 X107.907 Y144.341 E2276.78711
G1 F1497.7 X107.666 Y144.357 E2276.80771
G1 F1613.4 X106.068 Y144.699 E2276.93707
G1 F2700 E2256.93707
G0 F12000 X107.378 Y146.075
G1 F2700 E2276.93707
G1 F1523.8 X107.929 Y145.522 E2277.0025
G0 F12000 X107.926 Y145.542
G1 F1684.2 X107.956 Y145.364 E2277.01619
G1 F1791 X107.953 Y144.965 E2277.04465
G1 F1920 X107.987 Y144.575 E2277.07069
G1 X108.022 Y144.563 E2277.07315
G1 X108.069 Y144.633 E2277.07876
G1 X108.357 Y144.782 E2277.10033
G1 F1708.2 X108.68 Y144.774 E2277.12448
G1 X108.419 Y145.121 E2277.15695
G1 F1801.1 X107.926 Y145.542 E2277.20292
G0 F12000 X108.121 Y145.162
G0 X108.68 Y144.774
G1 F1538.5 X109.406 Y144.049 E2277.2881
G1 F2700 E2257.2881
G0 F12000 X108.952 Y143.154
G0 X109.419 Y143.02
G0 X109.867 Y143.13
G0 X110.324 Y143.587
G0 X110.434 Y144.035
G0 X110.315 Y144.52
G0 X107.849 Y146.985
G0 X107.366 Y147.104
G0 X106.917 Y146.994
G0 X104.232 Y144.37
G0 X103.947 Y143.913
G0 X103.931 Y143.514
G0 X104.219 Y142.964
G0 X103.575 Y142.272
G1 F2700 E2277.2881
G1 F1536 X105.397 Y140.45 E2277.50235
G1 F1415.9 X105.615 Y140.306 E2277.52592
G1 F1420.1 X105.838 Y140.452 E2277.54989
G1 F1543.4 X106.144 Y140.758 E2277.5857
G1 F1470.1 X106.263 Y140.924 E2277.60344
G1 F1461.2 X106.226 Y141.068 E2277.61644
G1 F1533.5 X104.956 Y143.598 E2277.8522
G1 F2700 E2257.8522
G0 F12000 X104.219 Y142.964
G0 X103.929 Y143.469
G0 X103.947 Y143.913
G0 X104.232 Y144.37
G0 X106.917 Y146.994
G0 X107.366 Y147.104
G0 X107.849 Y146.985
G0 X110.315 Y144.52
G0 X110.434 Y144.035
G0 X110.324 Y143.587
G0 X106.099 Y139.336
G0 X105.569 Y139.246
G0 X104.569 Y139.212
G1 F2700 E2277.8522
G1 F1538.5 X103.774 Y140.006 E2277.94548
G1 F1367.5 X103.499 Y140.172 E2277.97548
G1 F1230.8 X102.926 Y139.599 E2278.05957
G1 F1357.9 X103.054 Y139.362 E2278.08491
G1 F1526.2 X103.474 Y138.942 E2278.13461
G1 F1550.9 X103.615 Y138.743 E2278.1547
G1 F1555.9 X103.657 Y138.515 E2278.17373
G1 F1553.4 X103.61 Y138.249 E2278.19594
G1 X103.3 Y137.914 E2278.23346
G1 F1555.9 X103.095 Y137.771 E2278.25398
G1 F1553.4 X102.868 Y137.729 E2278.27296
G1 F1550.9 X102.646 Y137.77 E2278.29155
G1 F1548.4 X102.444 Y137.913 E2278.31197
G1 F1538.5 X101.243 Y139.114 E2278.45297
G1 F1548.4 X101.099 Y139.318 E2278.47357
G1 F1550.9 X101.058 Y139.539 E2278.49208
G1 F1548.4 X101.107 Y139.808 E2278.51463
G1 X101.418 Y140.144 E2278.55239
G1 F1553.4 X101.623 Y140.289 E2278.57304
G1 F1523.8 X101.846 Y140.316 E2278.59187
G1 F1521.4 X102.067 Y140.289 E2278.61056
G1 F1548.4 X102.273 Y140.143 E2278.63138
G1 F1536 X102.652 Y139.764 E2278.67595
G1 F1365.6 X102.926 Y139.599 E2278.70587
G0 F12000 X103.499 Y140.172
G1 F1357.9 X103.371 Y140.408 E2278.73112
G1 F1526.2 X102.542 Y141.239 E2278.82935
G1 F2700 E2258.82935
G0 F12000 X101.524 Y141.246
G0 X101.243 Y141.204
G0 X100.787 Y140.893
G0 X100.496 Y140.602
G0 X100.32 Y140.344
G0 X99.121 Y137.817
G0 X98.429 Y137.125
G1 F2700 E2278.82935
G1 F1536 X99.221 Y136.334 E2278.92242
G1 F1365.6 X99.496 Y136.169 E2278.95241
G0 F12000 X100.455 Y135.099
G1 F1526.2 X99.624 Y135.933 E2279.05094
G1 F1359.8 X99.496 Y136.169 E2279.07615
G1 F1371.4 X100.28 Y136.953 E2279.17941
G1 F1561 X100.535 Y137.133 E2279.20495
G1 X100.817 Y137.183 E2279.22838
G1 F1550.9 X101.092 Y137.133 E2279.2514
G1 F1543.4 X101.347 Y136.954 E2279.27718
G1 F1533.5 X101.829 Y136.473 E2279.33389
G1 F2700 E2259.33389
G0 F12000 X102.763 Y136.775
G0 X103.475 Y136.855
G0 X103.931 Y137.166
G0 X110.324 Y143.587
G0 X110.434 Y144.035
G0 X110.315 Y144.52
G0 X108.946 Y147.011
G0 X110.06 Y148.738
G0 X88.616 Y171.232
G1 F2700 E2279.33389
G1 F1967.2 X89.181 Y170.91 E2279.37611
G1 F1979.4 X110.778 Y149.304 E2281.34729
G1 F1971.3 X111.088 Y148.761 E2281.3878
G1 F1955.2 X111.088 Y148.117 E2281.42986
G1 X110.765 Y147.559 E2281.47198
G1 F1939.4 X110.224 Y147.011 E2281.52269
G1 F1923.8 X110.577 Y146.658 E2281.55583
G1 F1931.6 X111.125 Y147.207 E2281.60712
G1 F1947.3 X111.571 Y147.988 E2281.66611
G1 F1955.2 X111.571 Y148.89 E2281.72503
G1 F1947.3 X111.119 Y149.677 E2281.78456
G1 F1939.4 X89.531 Y171.265 E2283.79512
G1 F1947.3 X88.745 Y171.715 E2283.85452
G1 F1955.2 X87.844 Y171.715 E2283.91338
G1 F1947.3 X87.061 Y171.268 E2283.97251
G1 F1939.4 X50.288 Y134.495 E2287.3973
G1 F1947.3 X49.839 Y133.711 E2287.45656
G1 F1955.2 X49.839 Y132.807 E2287.51561
G1 F1947.3 X50.284 Y132.027 E2287.57451
G1 F1939.4 X71.876 Y110.434 E2289.58549
G1 F1947.3 X72.663 Y109.984 E2289.64495
G1 F1955.2 X73.566 Y109.984 E2289.70393
G1 F1947.3 X74.347 Y110.428 E2289.76286
G1 F1931.6 X98.216 Y134.297 E2291.99483
G1 F1923.8 X97.863 Y134.65 E2292.02798
G1 F1931.6 X73.998 Y110.785 E2294.25958
G1 F1947.3 X73.437 Y110.467 E2294.30187
G1 F1955.2 X72.792 Y110.467 E2294.34401
G1 F1959.2 X72.227 Y110.789 E2294.3864
G1 F1955.2 X50.645 Y132.377 E2296.38043
G1 X50.322 Y132.936 E2296.42261
G1 X50.322 Y133.582 E2296.46481
G1 F1947.3 X50.642 Y134.143 E2296.50717
G1 F1939.4 X87.399 Y170.9 E2299.93046
G1 F1947.3 X87.973 Y171.232 E2299.97395
G1 F1955.2 X88.616 Y171.232 E2300.01596
G1 F2700 E2280.01596
G0 F12000 X88.616 Y171.494
G0 X87.888 Y171.541
G0 X87.346 Y172.479
G0 X84.66 Y173.982
G0 X83.847 Y176.001
G1 F2700 E2300.01596
G1 F1955.2 X83.847 Y175.358 E2300.05796
G1 X83.524 Y174.8 E2300.10007
G1 F1939.4 X82.983 Y174.252 E2300.15079
G1 F1923.8 X83.336 Y173.898 E2300.18398
G1 F1931.6 X83.884 Y174.448 E2300.23531
G1 F1947.3 X84.33 Y175.229 E2300.2943
G1 F1955.2 X84.33 Y176.13 E2300.35316
G1 F1947.3 X83.885 Y176.911 E2300.41211
G1 F1939.4 X55.344 Y205.452 E2303.07023
G1 F1947.3 X54.557 Y205.904 E2303.12975
G1 F1955.2 X53.655 Y205.904 E2303.18867
G1 F1947.3 X52.871 Y205.455 E2303.24793
G1 F1939.4 X16.1 Y168.685 E2306.67248
G1 F1947.3 X15.651 Y167.899 E2306.73186
G1 F1955.2 X15.651 Y166.996 E2306.79084
G1 F1947.3 X16.095 Y166.215 E2306.84977
G1 F1943.3 X44.638 Y137.673 E2309.50265
G1 F1951.2 X45.422 Y137.225 E2309.56175
G1 F1959.2 X46.325 Y137.225 E2309.62062
G1 F1951.2 X47.105 Y137.668 E2309.67933
G1 F1935.5 X64.972 Y155.535 E2311.34671
G1 F1923.8 X64.619 Y155.888 E2311.37985
G1 F1935.5 X46.755 Y138.024 E2313.04694
G1 F1951.2 X46.196 Y137.707 E2313.089
G1 F1959.2 X45.552 Y137.708 E2313.13099
G1 F1955.2 X44.987 Y138.029 E2313.17343
G1 F1943.3 X16.452 Y166.564 E2315.82562
G1 F1947.3 X16.134 Y167.125 E2315.86791
G1 F1955.2 X16.134 Y167.77 E2315.91005
G1 F1947.3 X16.456 Y168.335 E2315.9527
G1 X34.84 Y186.716 E2317.6578
G1 F1955.2 X53.224 Y205.097 E2319.35599
G1 F1959.2 X53.784 Y205.421 E2319.39816
G1 F1955.2 X54.428 Y205.421 E2319.44023
G1 F1967.2 X54.992 Y205.099 E2319.4824
G1 F1979.4 X83.537 Y176.545 E2322.08759
G1 F1971.3 X83.847 Y176.001 E2322.12815
G1 F2700 E2302.12815
G0 F12000 X84.109 Y176.001
G0 X84.054 Y175.374
G0 X83.336 Y174.13
G0 X84.098 Y173.367
G0 X83.787 Y171.371
G0 X83.542 Y170.403
G1 F2700 E2322.12815
G1 F1545.9 X82.884 Y169.745 E2322.20503
G1 F1555.9 X82.627 Y169.565 E2322.23079
G1 X82.359 Y169.515 E2322.25317
G1 F1553.4 X82.069 Y169.565 E2322.27736
G1 F1563.5 X81.908 Y169.652 E2322.29231
G1 F1540.9 X81.504 Y170.056 E2322.33967
G1 F1361.7 X81.377 Y170.292 E2322.36481
G1 F2700 E2302.36481
G0 F12000 X81.324 Y171.602
G0 X80.638 Y172.301
G0 X80.927 Y173.307
G1 F2700 E2322.36481
G1 F1550.9 X81.169 Y173.137 E2322.38916
G1 F1540.9 X82.162 Y172.144 E2322.50556
G1 F1553.4 X82.345 Y171.876 E2322.53224
G1 F1563.5 X82.392 Y171.61 E2322.5543
G1 X82.335 Y171.322 E2322.57828
G1 F1558.4 X82.161 Y171.075 E2322.60305
G1 F1373.4 X81.377 Y170.292 E2322.70609
G1 F1369.5 X81.103 Y170.457 E2322.73592
G1 F1538.5 X79.798 Y171.761 E2322.88907
G1 X79.627 Y172.007 E2322.91394
G1 F1536 X79.57 Y172.286 E2322.93762
G1 F1548.4 X79.622 Y172.573 E2322.96168
G1 F1584.2 X79.71 Y172.736 E2322.97661
G1 F1594.7 X80.205 Y173.229 E2323.03257
G1 F1578.9 X80.36 Y173.311 E2323.04675
G1 F1558.4 X80.634 Y173.363 E2323.06961
G1 F1550.9 X80.927 Y173.307 E2323.09417
G1 F2700 E2303.09417
G0 F12000 X78.907 Y167.851
G1 F2700 E2323.09417
G1 F1528.7 X77.048 Y169.711 E2323.31388
G1 F1407.6 X76.941 Y169.891 E2323.33288
G1 F1418 X77.087 Y170.113 E2323.35682
G1 F1545.9 X77.707 Y170.733 E2323.42926
G1 F1561 X77.961 Y170.912 E2323.45468
G1 X78.23 Y170.962 E2323.47707
G1 F1548.4 X78.505 Y170.913 E2323.50011
G1 F1543.4 X78.773 Y170.732 E2323.52687
G1 F1536 X80.28 Y169.224 E2323.70414
G1 F2700 E2303.70414
G0 F12000 X79.588 Y168.533
G0 X79.814 Y168.323
G0 X79.938 Y167.837
G0 X79.823 Y167.387
G0 X78.343 Y165.907
G0 X77.893 Y165.792
G0 X77.456 Y165.903
G0 X76.864 Y166.472
G0 X76.81 Y167.783
G1 F2700 E2323.70414
G1 F1359.8 X76.682 Y168.019 E2323.72936
G1 F1528.7 X75.854 Y168.849 E2323.82731
G1 F2700 E2303.82731
G0 F12000 X74.479 Y167.476
G1 F2700 E2323.82731
G1 F1536 X75.272 Y166.684 E2323.9205
G1 F1365.6 X75.546 Y166.519 E2323.95042
G0 F12000 X76.506 Y165.45
G1 F1526.2 X75.674 Y166.283 E2324.04894
G1 F1357.9 X75.546 Y166.519 E2324.07419
G1 F1230.8 X76.81 Y167.783 E2324.25969
G1 F1367.5 X77.085 Y167.617 E2324.28969
G1 F1536 X77.879 Y166.824 E2324.383
G1 F2700 E2304.383
G0 F12000 X77.187 Y166.133
G0 X77.407 Y165.916
G0 X77.893 Y165.792
G0 X78.343 Y165.907
G0 X83.511 Y168.991
G0 X84.442 Y169.926
G0 X84.571 Y170.409
G0 X84.458 Y170.863
G0 X82.917 Y172.772
G0 X81.801 Y173.886
G0 X81.298 Y174.229
G0 X80.638 Y174.354
G0 X79.981 Y174.226
G0 X79.481 Y173.887
G0 X71.845 Y166.251
G0 X71.491 Y165.696
G0 X71.729 Y164.763
G1 F2700 E2324.383
G1 F1629.9 X71.86 Y164.785 E2324.39341
G1 F1504.7 X72.334 Y164.815 E2324.43372
G1 F1456.8 X73.9 Y163.255 E2324.62752
G1 F1415.9 X74.118 Y163.11 E2324.65113
G1 F1418 X74.341 Y163.256 E2324.67514
G1 F1543.4 X74.961 Y163.876 E2324.7477
G1 F1555.9 X75.139 Y164.128 E2324.77302
G1 F1563.5 X75.189 Y164.398 E2324.79545
G1 F1553.4 X75.137 Y164.685 E2324.81944
G1 F1555.9 X74.98 Y164.921 E2324.8427
G1 F1558.4 X73.953 Y165.947 E2324.96167
G1 X73.724 Y166.104 E2324.98443
G1 F1555.9 X73.429 Y166.161 E2325.00909
G1 F1561 X73.158 Y166.11 E2325.03165
G1 F1578.9 X73 Y166.027 E2325.04609
G1 F1594.7 X72.508 Y165.534 E2325.10187
G1 F1523.8 X72.402 Y165.335 E2325.12077
G1 F1393.3 X72.357 Y164.866 E2325.16396
G1 F1297.3 X72.344 Y164.816 E2325.16905
G1 F2700 E2305.16905
G0 F12000 X71.491 Y165.696
G0 X71.021 Y165.454
G0 X70.133 Y164.51
G0 X70.044 Y164.148
G0 X70.031 Y163.027
G0 X69.339 Y162.336
G1 F2700 E2325.16905
G1 F1536 X70.49 Y161.186 E2325.30434
G0 F12000 X71.204 Y160.679
G0 X71.419 Y160.33
G1 F1791 X71.188 Y161.582 E2325.39512
G1 X71.056 Y161.289 E2325.41804
G1 F1784.4 X70.84 Y161.171 E2325.43566
G1 F1649.5 X70.49 Y161.186 E2325.46278
G1 X70.791 Y160.824 E2325.49923
G1 F1784.4 X71.327 Y160.288 E2325.55349
G1 X71.414 Y160.239 E2325.56064
G1 X71.419 Y160.33 E2325.56716
G0 F12000 X71.199 Y160.641
G0 X71.188 Y161.582
G1 F1771.2 X71.106 Y161.997 E2325.59766
G1 F1531.1 X71.131 Y162.256 E2325.61937
G1 F1540.9 X71.422 Y162.276 E2325.64354
G1 F1811.3 X71.809 Y162.206 E2325.67128
G0 F12000 X72.676 Y162.226
G0 X73.14 Y162.002
G1 F1828.6 X73.104 Y162.066 E2325.6764
G1 X72.567 Y162.603 E2325.72945
G1 F1660.9 X72.24 Y162.859 E2325.76138
G1 X72.212 Y162.551 E2325.78516
G1 F1828.6 X72.094 Y162.334 E2325.80242
G1 F1835.6 X71.826 Y162.203 E2325.82317
G1 X73.14 Y162.002 E2325.91566
G0 F12000 X72.688 Y162.245
G0 X72.24 Y162.859
G1 F1531.1 X71.052 Y164.049 E2326.05593
G1 F2700 E2306.05593
G0 F12000 X70.36 Y163.356
G0 X70.142 Y163.577
G0 X70.023 Y164.062
G0 X70.133 Y164.51
G0 X79.481 Y173.887
G0 X79.981 Y174.226
G0 X80.638 Y174.354
G0 X81.298 Y174.229
G0 X81.801 Y173.886
G0 X82.917 Y172.772
G0 X84.458 Y170.863
G0 X84.571 Y170.409
G0 X84.442 Y169.926
G0 X83.511 Y168.991
G0 X70.801 Y158.365
G0 X70.353 Y158.253
G0 X69.918 Y158.361
G0 X69.658 Y158.598
G0 X68.966 Y157.908
G1 F2700 E2326.05593
G1 F1528.7 X67.107 Y159.77 E2326.27576
G1 F1407.6 X67 Y159.949 E2326.29468
G1 F1418 X67.146 Y160.172 E2326.31869
G1 F1545.9 X67.77 Y160.796 E2326.3916
G1 F1558.4 X68.018 Y160.97 E2326.41642
G1 F1561 X68.298 Y161.021 E2326.43971
G1 F1558.4 X68.584 Y160.964 E2326.46361
G1 F1550.9 X68.829 Y160.793 E2326.48822
G1 F1538.5 X70.339 Y159.283 E2326.6655
G1 F2700 E2306.6655
G0 F12000 X69.648 Y158.592
G0 X69.872 Y158.381
G0 X69.995 Y157.894
G0 X69.881 Y157.446
G0 X68.434 Y155.998
G0 X67.562 Y155.615
G0 X66.599 Y155.572
G1 F2700 E2326.6655
G1 F1666.7 X66.555 Y156.973 E2326.77291
G1 F1528.7 X66.472 Y157.206 E2326.79357
G1 F1495.3 X66.23 Y157.222 E2326.81429
G1 F1613.4 X64.632 Y157.564 E2326.94365
G1 F2700 E2306.94365
G0 F12000 X65.943 Y158.941
G1 F2700 E2326.94365
G1 F1526.2 X66.497 Y158.387 E2327.00921
G0 F12000 X66.588 Y157.428
G1 F1920 X66.634 Y157.496 E2327.01467
G1 X66.923 Y157.647 E2327.03636
G1 F1708.2 X67.246 Y157.639 E2327.06052
G1 F1660.9 X66.968 Y158.009 E2327.09611
G1 F1748.6 X66.495 Y158.402 E2327.14103
G1 F1687.2 X66.524 Y158.228 E2327.15438
G1 F1791 X66.519 Y157.831 E2327.18269
G1 F1920 X66.55 Y157.441 E2327.20872
G1 X66.588 Y157.428 E2327.21139
G0 F12000 X67.246 Y157.639
G1 F1538.5 X67.97 Y156.914 E2327.29645
G1 F2700 E2307.29645
G0 F12000 X68.981 Y156.898
G0 X69.428 Y156.99
G0 X83.511 Y168.991
G0 X84.442 Y169.926
G0 X84.571 Y170.409
G0 X84.458 Y170.863
G0 X82.917 Y172.772
G0 X81.801 Y173.886
G0 X81.298 Y174.229
G0 X80.638 Y174.354
G0 X79.981 Y174.226
G0 X67.159 Y164.096
G0 X63.697 Y184.225
G1 F2700 E2327.29645
G1 F1963.2 X63.345 Y184.591 E2327.32948
G1 F2004.2 X61.138 Y186.798 E2327.52839
G1 F1963.2 X60.746 Y187.175 E2327.56377
G1 F1971.3 X60.111 Y187.594 E2327.61306
G1 F2016.8 X57.781 Y189.084 E2327.7882
G1 F1975.3 X57.247 Y189.414 E2327.82879
G1 X56.536 Y189.686 E2327.87801
G1 F2016.8 X54.169 Y190.555 E2328.03769
G1 F1947.3 X53.33 Y190.845 E2328.09591
G1 F1939.4 X52.813 Y190.931 E2328.13043
G1 F2000 X50.359 Y191.266 E2328.28859
G1 F1955.2 X49.178 Y191.413 E2328.36633
G1 F1916.2 X45.07 Y191.074 E2328.64108
G1 F1955.2 X43.856 Y190.711 E2328.72385
G1 F1987.6 X41.479 Y189.981 E2328.88363
G1 F1955.2 X41.087 Y189.851 E2328.91061
G1 F1967.2 X40.474 Y189.519 E2328.95587
G1 F2012.6 X38.03 Y188.138 E2329.13402
G1 F1967.2 X37.46 Y187.802 E2329.17697
G1 F1963.2 X37.048 Y187.446 E2329.2124
G1 F2008.4 X34.929 Y185.545 E2329.39343
G1 F1967.2 X34.364 Y185.023 E2329.44337
G1 X34.024 Y184.569 E2329.4802
G1 F2012.6 X32.352 Y182.24 E2329.66214
G1 F1971.3 X31.939 Y181.645 E2329.70907
G1 F1951.2 X31.818 Y181.382 E2329.72802
G1 F1987.6 X30.459 Y178.231 E2329.94852
G1 F1935.5 X30.296 Y177.814 E2329.97807
G1 F1943.3 X30.115 Y176.962 E2330.03531
G1 F2012.6 X29.631 Y174.445 E2330.19797
G1 F1943.3 X29.513 Y173.732 E2330.24547
G1 F1939.4 X29.513 Y173.08 E2330.2884
G1 F2008.4 X29.581 Y170.609 E2330.4456
G1 F1947.3 X29.625 Y169.571 E2330.51374
G1 F1935.5 X29.707 Y169.189 E2330.53953
G1 F1955.2 X30.624 Y165.534 E2330.78568
G1 F1971.3 X31.036 Y164.678 E2330.84723
G1 F2012.6 X32.208 Y162.316 E2331.01456
G1 F1963.2 X32.473 Y161.803 E2331.05213
G1 X32.809 Y161.369 E2331.08783
G1 F2012.6 X34.618 Y159.116 E2331.27119
G1 F1967.2 X35.081 Y158.559 E2331.31822
G1 F1963.2 X35.623 Y158.107 E2331.36413
G1 F2016.8 X37.69 Y156.447 E2331.53202
G1 F1971.3 X38.326 Y155.951 E2331.58427
G1 F1959.2 X38.673 Y155.77 E2331.60979
G1 F2004.2 X41.102 Y154.562 E2331.78266
G1 F1971.3 X42.056 Y154.101 E2331.85131
G1 F1955.2 X45.713 Y153.184 E2332.09759
G1 F1935.5 X46.093 Y153.103 E2332.12323
G1 F1947.3 X47.097 Y153.059 E2332.18915
G1 F2008.4 X49.602 Y152.99 E2332.34851
G1 F1935.5 X50.254 Y152.99 E2332.39153
G1 F1943.3 X51.017 Y153.118 E2332.44238
G1 F2016.8 X53.449 Y153.585 E2332.59921
G1 F1947.3 X54.336 Y153.773 E2332.65868
G1 F1935.5 X54.753 Y153.937 E2332.68824
G1 F1987.6 X57.866 Y155.278 E2332.90605
G1 F1955.2 X58.168 Y155.416 E2332.92774
G1 F1971.3 X58.759 Y155.827 E2332.97438
G1 F2012.6 X61.071 Y157.486 E2333.15497
G1 F1967.2 X61.545 Y157.84 E2333.19338
G1 X62.054 Y158.391 E2333.24208
G1 F2016.8 X63.831 Y160.37 E2333.41051
G1 F1971.3 X64.325 Y160.938 E2333.45928
G1 F1967.2 X64.644 Y161.481 E2333.50017
G1 F2016.8 X66.027 Y163.928 E2333.67817
G1 F1967.2 X66.373 Y164.565 E2333.72523
G1 F1951.2 X66.504 Y164.958 E2333.75235
G1 X67.596 Y168.548 E2333.99797
G1 F1943.3 X67.918 Y172.42 E2334.25332
G1 F1931.6 X67.931 Y172.691 E2334.27126
G1 F1947.3 X67.79 Y173.818 E2334.34575
G1 F2000 X67.453 Y176.29 E2334.50507
G1 F1939.4 X67.367 Y176.807 E2334.53959
G1 F1947.3 X67.089 Y177.613 E2334.59551
G1 F2016.8 X66.215 Y179.991 E2334.75595
G1 F1975.3 X65.936 Y180.723 E2334.8066
G1 F1971.3 X65.614 Y181.245 E2334.84634
G1 F2016.8 X64.126 Y183.573 E2335.02131
G1 F1971.3 X63.697 Y184.225 E2335.07188
G0 F12000 X63.358 Y183.856
G1 F2000 X63.72 Y183.325 E2335.11292
G1 F2016.8 X65.196 Y181.014 E2335.28657
G1 F1971.3 X65.487 Y180.508 E2335.32439
G1 F1975.3 X65.764 Y179.838 E2335.37126
G1 F2016.8 X66.629 Y177.486 E2335.52996
G1 F1947.3 X66.872 Y176.677 E2335.58537
G1 F1935.5 X66.972 Y176.257 E2335.61386
G1 F1995.8 X67.311 Y173.775 E2335.77416
G1 F1987.6 X67.437 Y172.553 E2335.8531
G1 F1971.3 X67.229 Y169.987 E2336.0199
G1 F1943.3 X67.112 Y168.681 E2336.10608
G1 F1955.2 X66.77 Y167.469 E2336.18834
G1 F1987.6 X66.035 Y165.078 E2336.34908
G1 F1951.2 X65.911 Y164.759 E2336.37148
G1 F1967.2 X65.613 Y164.161 E2336.41486
G1 F2012.6 X64.242 Y161.74 E2336.59142
G1 F1967.2 X63.92 Y161.233 E2336.63041
G1 F1955.2 X63.716 Y160.97 E2336.65216
G1 F2000 X63.482 Y160.694 E2336.67526
G1 F2016.8 X61.719 Y158.729 E2336.84244
G1 F1979.4 X61.258 Y158.256 E2336.88506
G1 F1975.3 X60.81 Y157.885 E2336.92267
G1 F2012.6 X58.499 Y156.227 E2337.10317
G1 F1971.3 X57.923 Y155.852 E2337.1477
G1 F1955.2 X57.674 Y155.722 E2337.16605
G1 F1987.6 X54.593 Y154.39 E2337.38174
G1 F1935.5 X54.193 Y154.265 E2337.40939
G1 F1943.3 X53.378 Y154.057 E2337.46467
G1 F2012.6 X50.903 Y153.582 E2337.6246
G1 F1939.4 X50.211 Y153.503 E2337.67047
G1 F1935.5 X49.642 Y153.469 E2337.70809
G1 F2008.4 X47.124 Y153.536 E2337.86827
G1 F1947.3 X46.149 Y153.609 E2337.9324
G1 F1931.6 X45.865 Y153.646 E2337.95134
G1 F1983.5 X43.428 Y154.249 E2338.11299
G1 F1955.2 X42.207 Y154.577 E2338.19558
G1 F1967.2 X41.32 Y154.985 E2338.25897
G1 F2016.8 X39.174 Y156.05 E2338.41068
G1 F2004.2 X38.914 Y156.188 E2338.42944
G1 F1963.2 X38.562 Y156.392 E2338.45591
G1 F1975.3 X37.998 Y156.81 E2338.5013
G1 F2012.6 X35.936 Y158.467 E2338.66917
G1 F2000 X35.662 Y158.701 E2338.69218
G1 F1951.2 X35.436 Y158.914 E2338.71251
G1 F1947.3 X35.234 Y159.127 E2338.73176
G1 F1995.8 X34.995 Y159.407 E2338.75532
G1 F2012.6 X33.204 Y161.639 E2338.93692
G1 F1967.2 X32.89 Y162.079 E2338.97202
G1 F1963.2 X32.643 Y162.515 E2339.00462
G1 F2008.4 X31.47 Y164.872 E2339.17204
G1 F1971.3 X31.102 Y165.675 E2339.22927
G1 F1959.2 X30.774 Y166.897 E2339.31176
G1 F1983.5 X30.168 Y169.341 E2339.47389
G1 F1931.6 X30.131 Y169.628 E2339.49303
G1 F1947.3 X30.059 Y170.607 E2339.55741
G1 F2008.4 X29.991 Y173.12 E2339.71728
G1 F1935.5 X30.025 Y173.689 E2339.7549
G1 F1943.3 X30.104 Y174.38 E2339.80061
G1 F2016.8 X30.575 Y176.835 E2339.95891
G1 F1947.3 X30.787 Y177.671 E2340.01548
G1 F1935.5 X30.913 Y178.072 E2340.04321
G1 F1987.6 X32.243 Y181.149 E2340.25862
G1 F1955.2 X32.375 Y181.401 E2340.2772
G1 F1967.2 X32.732 Y181.954 E2340.31994
G1 F2012.6 X34.388 Y184.259 E2340.50005
G1 F1967.2 X34.741 Y184.694 E2340.53642
G1 X35.237 Y185.181 E2340.58155
G1 F2008.4 X37.346 Y187.07 E2340.7616
G1 F1979.4 X37.653 Y187.321 E2340.78719
G1 F1967.2 X38.017 Y187.571 E2340.81586
G1 F1995.8 X38.255 Y187.717 E2340.83372
G1 F2012.6 X40.683 Y189.09 E2341.01074
G1 F1967.2 X41.282 Y189.389 E2341.0542
G1 F1951.2 X41.599 Y189.512 E2341.07646
G1 F1987.6 X43.985 Y190.245 E2341.23685
G1 F1955.2 X45.204 Y190.591 E2341.31962
G1 X49.054 Y190.916 E2341.57201
G1 F1991.7 X50.284 Y190.792 E2341.65129
G1 F1995.8 X52.78 Y190.45 E2341.8125
G1 F1935.5 X53.201 Y190.349 E2341.84107
G1 F1943.3 X53.988 Y190.114 E2341.89505
G1 F2012.6 X56.349 Y189.247 E2342.05467
G1 F1975.3 X57.033 Y188.964 E2342.10253
G1 F1971.3 X57.512 Y188.689 E2342.13831
G1 F2012.6 X59.839 Y187.203 E2342.31353
G1 F1987.6 X60.333 Y186.866 E2342.35195
G1 F1979.4 X60.786 Y186.472 E2342.39069
G1 F2004.2 X62.981 Y184.279 E2342.58842
G1 F1995.8 X63.358 Y183.856 E2342.62468
G1 F2700 E2322.62468
G0 F12000 X63.546 Y184.016
G0 X65.784 Y180.646
G0 X66.801 Y181.018
G0 X81.298 Y174.229
G0 X81.801 Y173.886
G0 X82.917 Y172.772
G0 X84.458 Y170.863
G0 X87.599 Y172.623
G0 X88.99 Y172.623
G0 X90.117 Y171.973
G0 X180.303 Y81.787
G0 X180.953 Y80.661
G0 X180.953 Y79.269
G0 X180.303 Y78.143
G0 X178.708 Y76.563
G0 X164.762 Y90.11
G0 X165.159 Y88.303
G0 X164.868 Y87.741
G0 X158.247 Y81.167
G0 X157.493 Y81.141
G0 X153.762 Y84.873
G0 X147.866 Y92.829
G0 X156.712 Y88.499
G0 X157.169 Y87.695
G1 F2700 E2342.62468
G1 F1923.8 X159.11 Y87.244 E2342.75697
G1 F1669.6 X159.314 Y87.123 E2342.77512
G1 F1702.1 X159.186 Y86.79 E2342.80188
G1 F1920 X159.105 Y86.517 E2342.82083
G1 F1875 X159.096 Y86.119 E2342.84794
G1 F1897.2 X159.177 Y85.779 E2342.87147
G1 F1920 X159.443 Y85.404 E2342.90206
G1 F1939.4 X159.85 Y85.133 E2342.93426
G1 F1947.3 X160.319 Y85.047 E2342.96553
G1 X160.796 Y85.137 E2342.99737
G1 F1939.4 X161.214 Y85.422 E2343.03069
G1 F1931.6 X161.903 Y86.112 E2343.09516
G1 F1784.4 X162.014 Y86.279 E2343.10951
G1 F1768 X161.934 Y86.434 E2343.12212
G1 F1912.4 X160.495 Y87.871 E2343.25793
G1 F1714.3 X160.275 Y88.004 E2343.27709
G1 X159.537 Y87.267 E2343.35479
G1 F1684.2 X159.314 Y87.123 E2343.37492
G0 F12000 X160.275 Y88.004
G1 F1699.1 X160.173 Y88.194 E2343.39113
G1 F1920 X158.919 Y89.45 E2343.5092
G1 F2700 E2323.5092
G0 F12000 X158.271 Y88.804
G0 X157.007 Y88.664
G0 X156.51 Y88.383
G0 X153.788 Y85.626
G0 X153.762 Y84.873
G0 X154.324 Y84.311
G0 X156.435 Y82.905
G0 X157.209 Y82.71
G0 X157.854 Y82.065
G1 F2700 E2343.5092
G1 F1943.3 X159.082 Y83.292 E2343.62329
G1 F1777.8 X159.198 Y83.468 E2343.63843
G1 F1764.7 X159.113 Y83.613 E2343.65059
G1 F1920 X158.025 Y84.701 E2343.75295
G1 F1714.3 X157.805 Y84.834 E2343.7721
G1 F1720.4 X156.795 Y83.829 E2343.87787
G1 F2700 E2323.87787
G0 F12000 X154.683 Y85.237
G1 F2700 E2343.87787
G1 F1920 X155.943 Y86.493 E2343.99622
G1 F1758.2 X156.089 Y86.577 E2344.00845
G1 F1777.8 X156.235 Y86.492 E2344.02059
G1 F1916.2 X157.703 Y85.024 E2344.15897
G1 F1699.1 X157.805 Y84.834 E2344.17518
G1 F2700 E2324.17518
G0 F12000 X159.977 Y90.505
G1 F2700 E2344.17518
G1 F1939.4 X163.128 Y87.355 E2344.46859
G1 F2700 E2324.46859
G0 F12000 X164.019 Y87.513
G0 X164.05 Y86.994
G0 X158.247 Y81.167
G0 X157.493 Y81.141
G0 X153.762 Y84.873
G0 X153.788 Y85.626
G0 X159.616 Y91.43
G0 X160.953 Y91.791
G0 X161.731 Y92.286
G1 F2700 E2344.46859
G1 F1979.4 X161.739 Y92.245 E2344.47129
G1 F1975.3 X162.406 Y91.215 E2344.55063
G1 X162.455 Y91.478 E2344.56793
G1 F1991.7 X162.619 Y91.664 E2344.58383
G1 F1963.2 X162.906 Y91.729 E2344.60297
G1 F1951.2 X161.731 Y92.286 E2344.68809
G1 F2700 E2324.68809
G0 F12000 X163.134 Y93.687
G1 F2700 E2344.68809
G1 F1967.2 X163.669 Y92.539 E2344.77032
G1 F1979.4 X163.754 Y92.8 E2344.78803
G1 F1991.7 X163.94 Y92.964 E2344.80393
G1 F1959.2 X164.234 Y92.993 E2344.82319
G1 X163.177 Y93.677 E2344.90526
G1 F1979.4 X163.134 Y93.687 E2344.90811
G1 F2700 E2324.90811
G0 F12000 X163.629 Y94.463
G0 X163.032 Y94.655
G0 X162.474 Y94.361
G0 X153.788 Y85.626
G0 X153.762 Y84.873
G0 X157.493 Y81.141
G0 X158.247 Y81.167
G0 X164.868 Y87.741
G0 X166.493 Y90.474
G0 X166.984 Y91.244
G1 F2700 E2344.90811
G1 F1931.6 X164.234 Y92.993 E2345.1236
G0 F12000 X163.689 Y92.513
G1 F1931.6 X163.942 Y91.969 E2345.16327
G1 F2016.8 X163.875 Y91.704 E2345.18058
G1 F2114.5 X163.712 Y91.541 E2345.19451
G1 F2021.1 X163.447 Y91.476 E2345.21175
G1 X163.753 Y91.31 E2345.23375
G1 F2123.9 X164.328 Y91.041 E2345.27192
G1 F2128.6 X164.405 Y91.034 E2345.27656
G1 F2119.2 X164.11 Y91.663 E2345.31843
G1 F2016.8 X163.942 Y91.969 E2345.34054
G0 F12000 X163.447 Y91.476
G1 F1935.5 X162.906 Y91.729 E2345.37995
G0 F12000 X162.426 Y91.184
G1 F1931.6 X164.173 Y88.437 E2345.59521
G1 F2700 E2325.59521
G0 F12000 X164.61 Y87.603
G0 X170.306 Y84.473
G0 X170.873 Y84.086
G0 X173.626 Y81.33
G0 X173.652 Y80.577
G0 X173.091 Y80.016
G0 X171.616 Y79.825
G0 X170.971 Y79.181
G1 F2700 E2345.59521
G1 F1943.3 X168.522 Y81.626 E2345.82264
G1 F1939.4 X168.298 Y81.949 E2345.84853
G1 F1931.6 X168.22 Y82.335 E2345.87457
G1 F1927.7 X168.291 Y82.713 E2345.90005
G1 F1935.5 X168.509 Y83.042 E2345.92609
G1 F1939.4 X168.854 Y83.386 E2345.95818
G1 F1935.5 X169.18 Y83.611 E2345.98431
G1 F1923.8 X169.563 Y83.688 E2346.01025
G1 F1943.3 X169.96 Y83.61 E2346.03684
G1 F1951.2 X170.282 Y83.386 E2346.06252
G1 F1943.3 X172.731 Y80.94 E2346.29
G1 F2700 E2326.29
G0 F12000 X167.932 Y76.651
G1 F2700 E2346.29
G1 F2021.1 X169.037 Y77.222 E2346.3686
G1 F2114.5 X169.279 Y77.56 E2346.39371
G1 F2091.5 X169.47 Y77.913 E2346.41822
G1 F1995.8 X169.499 Y78.344 E2346.44586
G1 F2025.3 X169.296 Y78.688 E2346.47105
G1 X169.065 Y78.843 E2346.48859
G1 F1983.5 X168.746 Y78.862 E2346.50917
G1 F1959.2 X166.506 Y78.527 E2346.65682
G1 F1983.5 X166.045 Y78.566 E2346.68661
G1 F2004.2 X165.65 Y78.824 E2346.71667
G1 X165.401 Y79.208 E2346.74584
G1 F1991.7 X165.403 Y79.633 E2346.77309
G1 F1875 X165.626 Y80.077 E2346.80694
G1 F1871.3 X165.873 Y80.441 E2346.83696
G1 F1987.6 X166.992 Y80.994 E2346.91717
G1 F2700 E2326.91717
G0 F12000 X164.403 Y75.438
G1 F2700 E2346.91717
G1 F1784.4 X164.446 Y75.186 E2346.93547
G1 F1931.6 X164.439 Y75.042 E2346.945
G1 F1975.3 X164.493 Y74.67 E2346.9693
G1 F1947.3 X164.727 Y74.32 E2346.99692
G1 F1943.3 X165.052 Y74.101 E2347.02267
G1 F1939.4 X165.426 Y74.033 E2347.04771
G1 F1943.3 X165.805 Y74.104 E2347.07305
G1 X166.129 Y74.323 E2347.09875
G1 F1935.5 X167.01 Y75.202 E2347.18087
G1 F1784.4 X167.121 Y75.369 E2347.19523
G1 F1771.2 X167.04 Y75.524 E2347.20784
G1 F1908.5 X165.953 Y76.611 E2347.31071
G1 F1708.2 X165.732 Y76.743 E2347.32996
G1 F1699.1 X165.63 Y76.934 E2347.34623
G1 F1908.5 X164.162 Y78.401 E2347.48511
G1 F1781.1 X164.022 Y78.485 E2347.49682
G1 F1771.2 X163.87 Y78.402 E2347.50931
G1 F1916.2 X162.974 Y77.506 E2347.59377
G1 F1939.4 X162.684 Y77.079 E2347.62776
G1 F1947.3 X162.598 Y76.611 E2347.65897
G1 X162.69 Y76.127 E2347.69128
G1 F1943.3 X162.958 Y75.736 E2347.72244
G1 F1923.8 X163.435 Y75.424 E2347.76028
G1 F1995.8 X163.838 Y75.387 E2347.78617
G1 F1886.1 X164.403 Y75.438 E2347.82459
G0 F12000 X164.407 Y75.413
G1 F1490.7 X165.732 Y76.743 E2347.98544
G1 F2700 E2327.98544
G0 F12000 X171.251 Y73.519
G1 F2700 E2347.98544
G1 F1963.2 X171.556 Y72.133 E2348.07777
G1 F1739.1 X171.689 Y71.885 E2348.09843
G0 F12000 X171.014 Y71.119
G1 F1714.3 X171.555 Y71.661 E2348.15549
G1 F1711.2 X171.689 Y71.885 E2348.17497
G1 F1702.1 X171.888 Y71.95 E2348.19068
G1 F1901 X172.159 Y72.061 E2348.21035
G1 F1889.8 X172.436 Y72.075 E2348.2291
G1 F1904.8 X172.72 Y71.999 E2348.24881
G1 F1882.4 X173.031 Y71.762 E2348.27534
G1 F1875 X173.285 Y71.42 E2348.30436
G1 F1927.7 X173.349 Y71.07 E2348.32793
G1 F1963.2 X173.282 Y70.733 E2348.35028
G1 F1955.2 X173.085 Y70.451 E2348.37276
G1 F1935.5 X172.517 Y69.883 E2348.42576
G1 F1794.4 X172.35 Y69.771 E2348.44007
G1 F1787.7 X172.164 Y69.882 E2348.45555
G1 F1904.8 X171.116 Y70.929 E2348.55488
G1 F1696.1 X171.014 Y71.119 E2348.57112
G1 F1708.2 X170.794 Y71.252 E2348.59034
G1 F1920 X169.885 Y72.16 E2348.67581
G1 F2700 E2328.67581
G0 F12000 X173.814 Y73.362
G1 F2700 E2348.67581
G1 F1576.4 X173.874 Y73.433 E2348.68334
G1 F1589.4 X174.832 Y74.391 E2348.79221
G0 F12000 X173.814 Y73.362
G1 F1758.2 X173.373 Y73.35 E2348.82425
G1 F2000 X173.05 Y73.379 E2348.84496
G1 F1931.6 X172.697 Y73.605 E2348.87268
G1 F1935.5 X172.476 Y73.921 E2348.89812
G1 X172.404 Y74.296 E2348.92332
G1 F1939.4 X172.471 Y74.664 E2348.94795
G1 X172.696 Y74.994 E2348.97425
G1 F1923.8 X173.361 Y75.659 E2349.03669
G1 F1764.7 X173.508 Y75.744 E2349.04898
G1 F1777.8 X173.653 Y75.66 E2349.06102
G1 F1916.2 X174.73 Y74.581 E2349.16263
G1 F1702.1 X174.832 Y74.391 E2349.17881
G1 F1711.2 X175.052 Y74.259 E2349.19796
G1 F1904.8 X175.828 Y73.484 E2349.2715
G1 F1768 X175.909 Y73.332 E2349.28394
G1 F1787.7 X175.796 Y73.162 E2349.29853
G1 F1951.2 X175.149 Y72.515 E2349.35842
G1 F1959.2 X174.902 Y72.351 E2349.37775
G1 F1939.4 X174.61 Y72.292 E2349.39736
G1 F1931.6 X174.315 Y72.346 E2349.41719
G1 X174.06 Y72.514 E2349.43738
G1 X173.879 Y72.793 E2349.45937
G1 F1983.5 X173.843 Y73.048 E2349.47596
G1 F1739.1 X173.814 Y73.362 E2349.49912
G1 F2700 E2329.49912
G0 F12000 X174.271 Y76.569
G1 F2700 E2349.49912
G1 F1939.4 X174.801 Y77.099 E2349.54848
G1 X175.052 Y77.275 E2349.56866
G1 F1927.7 X175.35 Y77.336 E2349.58882
G1 F1935.5 X175.661 Y77.274 E2349.60974
G1 F1947.3 X175.907 Y77.105 E2349.62932
G1 F1939.4 X177.262 Y75.751 E2349.75547
G1 F1951.2 X177.449 Y75.477 E2349.77718
G1 F1959.2 X177.502 Y75.183 E2349.79666
G1 X177.443 Y74.884 E2349.81652
G1 F1955.2 X177.267 Y74.633 E2349.83655
G1 F1939.4 X176.737 Y74.103 E2349.88591
G1 F2700 E2329.88591
G0 F12000 X169.618 Y69.193
G1 F2700 E2349.88591
G1 F1705.2 X169.872 Y69.431 E2349.91198
G1 F1939.4 X170.136 Y69.698 E2349.93671
G1 F2700 E2329.93671
G0 F12000 X169.308 Y71.075
G1 F2700 E2349.93671
G1 F1955.2 X168.921 Y71.075 E2349.96199
G1 F1931.6 X168.556 Y70.863 E2349.9899
G1 F1923.8 X168.332 Y70.544 E2350.01578
G1 F1927.7 X168.278 Y70.25 E2350.03558
G1 X168.337 Y69.946 E2350.0561
G1 F1923.8 X168.517 Y69.692 E2350.07676
G1 X168.782 Y69.428 E2350.1016
G1 X169.062 Y69.251 E2350.12359
G1 F1875 X169.627 Y69.202 E2350.16222
G1 F1832.1 X169.64 Y68.707 E2350.19674
G1 F1860.5 X169.827 Y68.381 E2350.22254
G1 F1904.8 X170.114 Y68.187 E2350.24577
G1 F1923.8 X170.432 Y68.131 E2350.2672
G1 F1939.4 X170.74 Y68.193 E2350.28789
G1 F1959.2 X171.006 Y68.371 E2350.30876
G1 X171.149 Y68.574 E2350.32495
G1 F2087 X171.237 Y68.9 E2350.34561
G1 F2700 E2330.34561
G0 F12000 X168.457 Y68.016
G1 F2700 E2350.34561
G1 F1696.1 X168.355 Y68.206 E2350.36185
G1 F1904.8 X167.277 Y69.284 E2350.46407
G1 F1781.1 X167.124 Y69.365 E2350.47649
G1 F1774.5 X166.985 Y69.283 E2350.4881
G1 F1927.7 X166.312 Y68.609 E2350.55121
G1 F1943.3 X166.137 Y68.35 E2350.57175
G1 F1931.6 X166.082 Y68.055 E2350.59159
G1 F1920 X166.141 Y67.752 E2350.61213
G1 F1916.2 X166.318 Y67.5 E2350.63265
G1 F1920 X166.567 Y67.25 E2350.65612
G1 X166.84 Y67.064 E2350.6781
G1 X167.136 Y67.01 E2350.69811
G1 F1927.7 X167.425 Y67.069 E2350.71766
G1 F1955.2 X167.677 Y67.235 E2350.73737
G1 F1729.7 X168.457 Y68.016 E2350.81887
G1 F1708.2 X168.677 Y67.883 E2350.83809
G1 F1916.2 X169.585 Y66.976 E2350.92363
G1 F2700 E2330.92363
G0 F12000 X157.594 Y72.127
G1 F2700 E2350.92363
G1 F1939.4 X158.277 Y72.809 E2350.9872
G1 F1935.5 X158.602 Y73.034 E2351.01328
G1 F1923.8 X158.989 Y73.114 E2351.03952
G1 F1939.4 X159.382 Y73.037 E2351.06589
G1 F1947.3 X159.708 Y72.812 E2351.09187
G1 F1935.5 X161.449 Y71.07 E2351.25439
G1 F1955.2 X161.681 Y70.731 E2351.28122
G1 F1963.2 X161.751 Y70.351 E2351.30636
G1 X161.674 Y69.964 E2351.33203
G1 F1959.2 X161.457 Y69.651 E2351.35686
G1 F1947.3 X160.761 Y68.955 E2351.42142
G1 F2700 E2331.42142
G0 F12000 X156.139 Y70.57
G1 F2700 E2351.42142
G1 F1935.5 X155.813 Y70.345 E2351.44755
G1 F1939.4 X155.468 Y70.001 E2351.47964
G1 F1935.5 X155.25 Y69.673 E2351.50563
G1 F1931.6 X155.179 Y69.293 E2351.53119
G1 F1935.5 X155.256 Y68.908 E2351.5571
G1 F1939.4 X155.482 Y68.584 E2351.58311
G1 F1935.5 X157.219 Y66.846 E2351.74526
G1 X157.565 Y66.612 E2351.77282
G1 F1939.4 X157.937 Y66.544 E2351.79773
G1 F1943.3 X158.316 Y66.615 E2351.82307
G1 F1939.4 X158.655 Y66.846 E2351.85008
G1 F1931.6 X158.978 Y67.171 E2351.88038
G1 F1947.3 X159.208 Y67.497 E2351.90655
G1 F1955.2 X159.283 Y67.888 E2351.93255
G1 F1963.2 X159.214 Y68.262 E2351.9573
G1 F1975.3 X158.997 Y68.589 E2351.98267
G1 F1951.2 X157.241 Y70.345 E2352.14522
G1 F1947.3 X156.915 Y70.57 E2352.1712
G1 F1939.4 X156.522 Y70.647 E2352.19758
G1 F1923.8 X156.139 Y70.57 E2352.22351
G1 F2700 E2332.22351
G0 F12000 X151.6 Y66.114
G1 F2700 E2352.22351
G1 F1939.4 X153.774 Y63.938 E2352.42607
G0 F12000 X154.412 Y64.3
G1 F1947.3 X154.291 Y64.026 E2352.44572
G1 F1963.2 X154.072 Y63.901 E2352.46213
G1 F1951.2 X153.774 Y63.938 E2352.48178
G1 F1943.3 X154.751 Y62.955 E2352.57287
G1 F1939.4 X154.412 Y64.3 E2352.66421
G1 F1908.5 X154.128 Y65.425 E2352.74186
G1 F1643.8 X154.147 Y65.678 E2352.76157
G1 F1655.2 X154.443 Y65.688 E2352.78442
G1 F1916.2 X155.531 Y65.415 E2352.85919
G0 F12000 X155.918 Y66.027
G1 F1955.2 X155.928 Y65.757 E2352.87684
G1 F1963.2 X155.805 Y65.539 E2352.89312
G1 F1939.4 X155.531 Y65.415 E2352.91293
G1 F1931.6 X156.872 Y65.079 E2353.00434
G1 F1947.3 X155.918 Y66.027 E2353.09255
G0 F12000 X155.892 Y66.053
G1 F1935.5 X153.717 Y68.231 E2353.29567
G1 F2700 E2333.29567
G0 F12000 X153.071 Y68.875
G0 X155.193 Y78.886
G0 X155.052 Y79.624
G0 X154.666 Y80.193
G0 X152.814 Y82.045
G0 X152.245 Y82.431
G0 X151.507 Y82.572
G0 X150.77 Y82.429
G0 X150.199 Y82.041
G0 X145.383 Y77.199
G0 X145.293 Y76.853
G0 X145.264 Y75.727
G0 X144.497 Y74.989
G1 F2700 E2353.29567
G1 F1927.7 X145.489 Y73.988 E2353.38904
G1 X145.48 Y74.26 E2353.40707
G1 F1920 X145.609 Y74.48 E2353.42403
G1 F1908.5 X145.894 Y74.597 E2353.44465
G1 X144.497 Y74.989 E2353.54175
G1 F2700 E2333.54175
G0 F12000 X144.987 Y74.741
G0 X146.231 Y76.763
G1 F2700 E2353.54175
G1 F1939.4 X148.336 Y74.657 E2353.73784
G0 F12000 X148.367 Y74.626
G1 F1927.7 X148.376 Y74.354 E2353.75587
G1 F1920 X148.247 Y74.134 E2353.77283
G1 F1908.5 X147.962 Y74.017 E2353.79345
G1 X149.366 Y73.623 E2353.89103
G1 F1927.7 X148.367 Y74.626 E2353.98483
G0 F12000 X147.962 Y74.017
G1 F1897.2 X145.894 Y74.597 E2354.12941
G0 F12000 X145.52 Y73.957
G1 F1943.3 X147.627 Y71.854 E2354.32506
G1 F2700 E2334.32506
G0 F12000 X148.654 Y79.102
G1 F2700 E2354.32506
G1 F1939.4 X148.327 Y78.877 E2354.3512
G1 X147.995 Y78.545 E2354.38212
G1 F1931.6 X147.764 Y78.205 E2354.4093
G1 F1923.8 X147.693 Y77.825 E2354.43496
G1 X147.77 Y77.441 E2354.46097
G1 F1931.6 X147.995 Y77.116 E2354.4871
G1 F1935.5 X149.733 Y75.378 E2354.64929
G1 X150.078 Y75.144 E2354.6768
G1 X150.456 Y75.074 E2354.70217
G1 F1939.4 X150.831 Y75.147 E2354.72733
G1 X151.17 Y75.378 E2354.75434
G1 F1935.5 X151.493 Y75.701 E2354.78449
G1 F1951.2 X151.722 Y76.033 E2354.81089
G1 F1963.2 X151.799 Y76.415 E2354.83624
G1 F1967.2 X151.729 Y76.794 E2354.86126
G1 F1959.2 X151.494 Y77.139 E2354.88847
G1 F1939.4 X149.756 Y78.877 E2355.05034
G1 F1947.3 X149.429 Y79.102 E2355.07637
G1 F1939.4 X149.037 Y79.179 E2355.10268
G1 F1927.7 X148.654 Y79.102 E2355.12856
G1 F2700 E2335.12856
G0 F12000 X153.276 Y77.488
G1 F2700 E2355.12856
G1 F1943.3 X153.962 Y78.17 E2355.19214
G1 F1951.2 X154.187 Y78.495 E2355.21801
G1 F1963.2 X154.266 Y78.88 E2355.24358
G1 X154.196 Y79.261 E2355.26878
G1 F1971.3 X153.977 Y79.591 E2355.29444
G1 F1955.2 X152.223 Y81.344 E2355.45643
G1 F1931.6 X151.883 Y81.575 E2355.48361
G1 F1923.8 X151.503 Y81.645 E2355.50926
G1 F1927.7 X151.118 Y81.567 E2355.53529
G1 F1939.4 X150.791 Y81.341 E2355.56147
G1 X150.109 Y80.658 E2355.62503
G1 F2700 E2335.62503
G0 F12000 X149.531 Y79.983
G0 X149.26 Y80.219
G0 X149.147 Y80.649
G0 X149.268 Y81.107
G0 X150.199 Y82.041
G0 X150.77 Y82.429
G0 X151.507 Y82.572
G0 X152.245 Y82.431
G0 X152.814 Y82.045
G0 X154.666 Y80.193
G0 X155.052 Y79.624
G0 X155.193 Y78.886
G0 X155.05 Y78.149
G0 X154.662 Y77.578
G0 X147.273 Y70.141
G0 X146.877 Y69.922
G0 X145.452 Y69.678
G0 X144.807 Y69.034
G1 F2700 E2355.62503
G1 F1943.3 X142.7 Y71.137 E2355.82068
G0 F12000 X142.167 Y71.921
G0 X141.677 Y72.169
G1 F1927.7 X142.669 Y71.168 E2355.91405
G1 X142.66 Y71.44 E2355.93208
G1 F1920 X142.789 Y71.66 E2355.94905
G1 F1908.5 X143.074 Y71.777 E2355.96966
G1 X141.677 Y72.169 E2356.06676
G0 F12000 X142.167 Y71.921
G0 X143.074 Y71.777
G1 F1897.2 X145.141 Y71.197 E2356.21128
G0 F12000 X145.546 Y71.806
G1 F1927.7 X145.555 Y71.534 E2356.22931
G1 F1920 X145.426 Y71.314 E2356.24628
G1 F1908.5 X145.141 Y71.197 E2356.26689
G1 X146.547 Y70.803 E2356.36461
G1 F1927.7 X145.546 Y71.806 E2356.45849
G0 F12000 X145.515 Y71.837
G1 F1939.4 X143.411 Y73.942 E2356.65449
G1 F2700 E2336.65449
G0 F12000 X142.346 Y66.557
G1 F2700 E2356.65449
G1 F1939.4 X143.575 Y67.784 E2356.76886
G1 F1774.5 X143.69 Y67.96 E2356.78399
G1 F1761.5 X143.605 Y68.106 E2356.79624
G1 F1916.2 X142.517 Y69.193 E2356.89875
G1 F1714.3 X142.297 Y69.326 E2356.9179
G1 F1720.4 X141.287 Y68.321 E2357.02368
G1 F2700 E2337.02368
G0 F12000 X139.175 Y69.729
G1 F2700 E2357.02368
G1 F1920 X140.435 Y70.985 E2357.14202
G1 F1758.2 X140.581 Y71.069 E2357.15426
G1 F1774.5 X140.727 Y70.983 E2357.16645
G1 F1912.4 X142.195 Y69.516 E2357.30506
G1 F1699.1 X142.297 Y69.326 E2357.32127
G1 F2700 E2337.32127
G0 F12000 X136.713 Y67.264
G1 F2700 E2357.32127
G1 F1935.5 X137.397 Y67.946 E2357.38501
G1 F1939.4 X137.723 Y68.173 E2357.41117
G1 F1931.6 X138.109 Y68.251 E2357.43721
G1 F1943.3 X138.502 Y68.175 E2357.46351
G1 F1951.2 X138.83 Y67.948 E2357.48962
G1 F1935.5 X140.569 Y66.209 E2357.65191
G1 F1951.2 X140.802 Y65.866 E2357.67905
G1 F1963.2 X140.872 Y65.487 E2357.70412
G1 F1967.2 X140.794 Y65.1 E2357.72975
G1 F1955.2 X140.567 Y64.776 E2357.7556
G1 F1931.6 X139.885 Y64.094 E2357.81937
G1 F2700 E2337.81937
G0 F12000 X138.972 Y64.129
G0 X135.421 Y65.95
G0 X134.775 Y65.305
G1 F2700 E2357.81937
G1 F1864.1 X135.813 Y64.267 E2357.91995
G1 F1723.5 X136.852 Y63.228 E2358.02883
G1 F1602.7 X137.891 Y62.189 E2358.14593
G0 F12000 X137.065 Y61.273
G1 F1931.6 X137.761 Y61.97 E2358.21106
G1 F1717.4 X137.892 Y62.188 E2358.22997
G1 F1705.2 X138.081 Y62.289 E2358.24602
G1 F1923.8 X138.806 Y63.019 E2358.31433
G1 F2700 E2338.31433
G0 F12000 X137.935 Y63.42
G0 X135.168 Y66.199
G0 X134.413 Y66.228
G0 X133.85 Y65.664
G0 X133.482 Y64.009
G0 X132.835 Y63.363
G1 F2700 E2358.31433
G1 F1935.5 X135.984 Y60.213 E2358.60824
G1 F2700 E2338.60824
G0 F12000 X131.379 Y61.828
G1 F2700 E2358.60824
G1 F1935.5 X131.05 Y61.599 E2358.63469
G1 F1939.4 X130.721 Y61.27 E2358.66533
G1 F1931.6 X130.49 Y60.93 E2358.69251
G1 F1923.8 X130.419 Y60.551 E2358.71811
G1 X130.496 Y60.169 E2358.74398
G1 F1935.5 X130.717 Y59.847 E2358.76975
G1 F1939.4 X132.459 Y58.104 E2358.93204
G1 F1935.5 X132.805 Y57.87 E2358.9596
G1 F1939.4 X133.178 Y57.801 E2358.98458
G1 F1943.3 X133.559 Y57.873 E2359.01007
G1 F1939.4 X133.892 Y58.101 E2359.03664
G1 F1935.5 X134.22 Y58.428 E2359.06721
G1 F1947.3 X134.448 Y58.759 E2359.09357
G1 X134.522 Y59.145 E2359.11935
G1 F1955.2 X134.455 Y59.517 E2359.14404
G1 F1959.2 X134.224 Y59.86 E2359.17099
G1 F1935.5 X132.485 Y61.598 E2359.33323
G1 F1947.3 X132.158 Y61.826 E2359.35938
G1 F1963.2 X131.773 Y61.904 E2359.38494
G1 F1943.3 X131.379 Y61.828 E2359.41131
G1 F2700 E2339.41131
G0 F12000 X130.352 Y54.579
G1 F2700 E2359.41131
G1 F1939.4 X128.246 Y56.683 E2359.60735
G0 F12000 X127.713 Y57.467
G0 X127.223 Y57.715
G1 F1927.7 X128.215 Y56.714 E2359.70072
G1 X128.206 Y56.986 E2359.71875
G1 F1920 X128.335 Y57.206 E2359.73572
G1 F1908.5 X128.62 Y57.323 E2359.75634
G1 X127.223 Y57.715 E2359.85343
G0 F12000 X127.713 Y57.467
G0 X128.62 Y57.323
G1 F1897.2 X130.687 Y56.743 E2359.99795
G0 F12000 X131.092 Y57.352
G1 F1931.6 X131.101 Y57.08 E2360.01595
G1 F1923.8 X130.972 Y56.86 E2360.03288
G1 F1912.4 X130.687 Y56.743 E2360.05346
G1 X132.096 Y56.348 E2360.15119
G1 F1931.6 X131.092 Y57.352 E2360.24507
G0 F12000 X131.061 Y57.383
G1 F1935.5 X128.958 Y59.486 E2360.44132
G1 F2700 E2340.44132
G0 F12000 X158.185 Y49.846
G0 X159.019 Y49.97
G1 F2700 E2360.44132
G1 F1955.2 X159.662 Y49.97 E2360.48333
G1 F1963.2 X160.207 Y49.659 E2360.52415
G1 F1971.3 X168.707 Y41.167 E2361.30262
G1 F1967.2 X169.03 Y40.602 E2361.34487
G1 F1955.2 X169.03 Y39.959 E2361.38688
G1 X168.706 Y39.399 E2361.42914
G1 F1951.2 X160.222 Y30.909 E2362.21477
G1 X159.663 Y30.592 E2362.25683
G1 F1959.2 X159.018 Y30.593 E2362.29888
G1 X158.454 Y30.914 E2362.34119
G1 F1963.2 X149.975 Y39.399 E2363.12157
G1 F1959.2 X149.651 Y39.959 E2363.16374
G1 F1955.2 X149.651 Y40.603 E2363.20581
G1 F1959.2 X149.973 Y41.167 E2363.24815
G1 F1955.2 X158.457 Y49.645 E2364.03163
G1 X159.019 Y49.97 E2364.07403
G0 F12000 X158.89 Y50.453
G1 F1947.3 X158.107 Y50.006 E2364.13317
G1 F1939.4 X149.62 Y41.519 E2364.92359
G1 F1947.3 X149.168 Y40.732 E2364.98312
G1 F1955.2 X149.168 Y39.83 E2365.04204
G1 F1947.3 X149.617 Y39.046 E2365.1013
G1 F1939.4 X158.102 Y30.56 E2365.89158
G1 F1947.3 X158.889 Y30.11 E2365.95104
G1 F1959.2 X159.792 Y30.11 E2366.0099
G1 F1951.2 X160.572 Y30.553 E2366.06862
G1 F1943.3 X169.066 Y39.047 E2366.85809
G1 F1947.3 X169.513 Y39.83 E2366.91723
G1 F1955.2 X169.513 Y40.731 E2366.97609
G1 F1947.3 X169.066 Y41.514 E2367.03522
G1 F1939.4 X160.578 Y50.002 E2367.82574
G1 F1947.3 X159.791 Y50.453 E2367.88523
G1 F1955.2 X158.89 Y50.453 E2367.94408
G1 F2700 E2347.94408
G0 F12000 X158.954 Y50.202
G0 X159.716 Y50.17
G0 X160.202 Y49.891
G0 X167.233 Y43.108
G0 X168 Y43.875
G0 X170.631 Y45.932
G0 X171.03 Y46.905
G1 F2700 E2367.94408
G1 F1428.6 X171.084 Y47.443 E2367.99243
G1 F1511.8 X171.188 Y47.638 E2368.0111
G1 F1568.6 X171.586 Y48.036 E2368.05692
G1 F1561 X171.841 Y48.215 E2368.08242
G1 X172.11 Y48.265 E2368.1048
G1 F1553.4 X172.407 Y48.207 E2368.12968
G1 F1550.9 X172.648 Y48.039 E2368.15388
G1 F1540.9 X173.64 Y47.046 E2368.27021
G1 F1550.9 X173.822 Y46.78 E2368.29675
G1 F1558.4 X173.87 Y46.511 E2368.31915
G1 F1563.5 X173.82 Y46.232 E2368.3423
G1 F1558.4 X173.644 Y45.982 E2368.36736
G1 F1543.4 X173.022 Y45.36 E2368.44015
G1 F1420.1 X172.799 Y45.214 E2368.46412
G1 F1418 X172.581 Y45.359 E2368.4877
G1 F1472.4 X171.03 Y46.905 E2368.67766
G0 F12000 X171.024 Y46.92
G1 F1424.3 X170.541 Y46.889 E2368.72106
G1 F1632.7 X170.409 Y46.866 E2368.73154
G1 F2700 E2348.73154
G0 F12000 X170.171 Y47.8
G0 X170.526 Y48.356
G0 X172.695 Y50.497
G0 X173.145 Y50.611
G0 X173.584 Y50.501
G0 X173.841 Y50.264
G0 X174.534 Y50.955
G1 F2700 E2368.73154
G1 F1526.2 X175.363 Y50.124 E2368.82977
G1 F1357.9 X175.491 Y49.888 E2368.85502
G0 F12000 X176.561 Y48.928
G1 F1533.5 X175.765 Y49.723 E2368.94872
G1 F1365.6 X175.491 Y49.888 E2368.97863
G1 F1230.8 X174.227 Y48.624 E2369.16413
G1 F1359.8 X174.355 Y48.388 E2369.18935
G1 F1526.2 X175.187 Y47.554 E2369.28793
G0 F12000 X174.227 Y48.624
G1 F1365.6 X173.952 Y48.789 E2369.31792
G1 F1536 X173.16 Y49.581 E2369.41105
G1 F2700 E2349.41105
G0 F12000 X173.852 Y50.272
G0 X173.625 Y50.484
G0 X173.505 Y50.967
G0 X173.615 Y51.416
G0 X175.099 Y52.9
G0 X175.548 Y53.01
G0 X175.982 Y52.902
G0 X176.242 Y52.664
G0 X176.934 Y53.355
G1 F2700 E2369.41105
G1 F1523.8 X177.763 Y52.525 E2369.50938
G1 F1357.9 X177.891 Y52.288 E2369.53471
G0 F12000 X178.961 Y51.328
G1 F1533.5 X178.166 Y52.123 E2369.62835
G1 F1365.6 X177.891 Y52.288 E2369.65834
G1 F1230.8 X176.627 Y51.024 E2369.84384
G1 F1357.9 X176.755 Y50.788 E2369.8691
G1 F1523.8 X177.587 Y49.954 E2369.96783
G0 F12000 X176.627 Y51.024
G1 F1365.6 X176.353 Y51.189 E2369.99775
G1 F1536 X175.56 Y51.982 E2370.091
G1 F2700 E2350.091
G0 F12000 X176.251 Y52.673
G0 X176.025 Y52.884
G0 X175.906 Y53.369
G0 X176.016 Y53.817
G0 X178.162 Y55.992
G0 X178.664 Y56.332
G0 X179.196 Y56.436
G0 X180.292 Y54.689
G1 F2700 E2370.091
G1 F1365.6 X180.568 Y54.524 E2370.12107
G1 F1533.5 X180.845 Y54.246 E2370.15376
G1 F1548.4 X181.022 Y53.993 E2370.17923
G1 F1555.9 X181.073 Y53.716 E2370.20235
G1 X181.023 Y53.438 E2370.22553
G1 F1589.4 X180.936 Y53.274 E2370.24045
G1 F1602.7 X180.443 Y52.783 E2370.2959
G1 F1578.9 X180.281 Y52.696 E2370.31077
G1 F1555.9 X180.01 Y52.645 E2370.33341
G1 F1553.4 X179.723 Y52.696 E2370.35738
G1 F1550.9 X179.469 Y52.875 E2370.38297
G1 F1528.7 X179.156 Y53.19 E2370.42007
G1 F1407.6 X179.049 Y53.369 E2370.43899
G1 F1418 X179.195 Y53.592 E2370.463
G1 F1452.3 X179.743 Y54.14 E2370.53115
G1 F1297.3 X180.292 Y54.689 E2370.60758
G1 F1367.5 X180.127 Y54.965 E2370.63762
G1 F1558.4 X179.76 Y55.331 E2370.68009
G1 F1568.6 X179.599 Y55.416 E2370.69492
G1 F1553.4 X179.322 Y55.468 E2370.71809
G1 F1548.4 X179.034 Y55.411 E2370.74231
G1 X178.791 Y55.241 E2370.76677
G1 X177.959 Y54.409 E2370.86382
G1 F2700 E2350.86382
G0 F12000 X177.269 Y55.1
G0 X186.044 Y63.874
G0 X186.544 Y64.213
G0 X187.201 Y64.341
G0 X187.861 Y64.215
G0 X188.364 Y63.874
G0 X189.48 Y62.758
G0 X189.823 Y62.252
G0 X189.945 Y61.593
G0 X189.817 Y60.936
G0 X189.545 Y60.533
G0 X184.121 Y55.078
G0 X183.375 Y55.824
G1 F2700 E2370.86382
G1 F1273.2 X182.714 Y56.485 E2370.95759
G1 F1367.5 X182.052 Y57.147 E2371.04503
G1 F1476.9 X181.39 Y57.809 E2371.12599
G0 F12000 X182.415 Y58.837
G1 F1528.7 X184.274 Y56.975 E2371.34582
G1 F1407.6 X184.381 Y56.796 E2371.36474
G1 F1418 X184.235 Y56.573 E2371.38875
G1 F1536 X183.612 Y55.952 E2371.46189
G1 F1363.6 X183.375 Y55.824 E2371.48712
G1 F1369.5 X183.246 Y55.585 E2371.51245
G1 F1566.1 X182.844 Y55.182 E2371.55887
G1 F1578.9 X182.683 Y55.098 E2371.57356
G1 F1555.9 X182.412 Y55.047 E2371.5962
G1 F1543.4 X182.134 Y55.097 E2371.61957
G1 X181.894 Y55.253 E2371.64326
G1 F1540.9 X180.362 Y56.783 E2371.82272
G1 F2700 E2351.82272
G0 F12000 X180.388 Y57.785
G0 X180.473 Y58.273
G0 X182.981 Y60.782
G0 X183.43 Y60.892
G0 X183.864 Y60.784
G0 X184.124 Y60.546
G0 X184.816 Y61.237
G1 F2700 E2371.82272
G1 F1523.8 X185.645 Y60.407 E2371.92104
G1 F1357.9 X185.773 Y60.17 E2371.94637
G0 F12000 X186.843 Y59.21
G1 F1533.5 X186.048 Y60.005 E2372.04001
G1 F1365.6 X185.773 Y60.17 E2372.07
G1 F1230.8 X184.509 Y58.906 E2372.2555
G1 F1357.9 X184.637 Y58.67 E2372.28076
G1 F1526.2 X185.47 Y57.836 E2372.3794
G0 F12000 X184.509 Y58.906
G1 F1365.6 X184.235 Y59.071 E2372.40931
G1 F1533.5 X183.442 Y59.863 E2372.50265
G1 F2700 E2352.50265
G0 F12000 X184.134 Y60.555
G0 X183.909 Y60.764
G0 X183.786 Y61.252
G0 X183.9 Y61.702
G0 X184.786 Y62.643
G0 X185.256 Y62.885
G0 X186.109 Y62.004
G1 F2700 E2372.50265
G1 F1297.3 X186.122 Y62.054 E2372.50774
G1 F1393.3 X186.167 Y62.523 E2372.55093
G1 F1521.4 X186.27 Y62.72 E2372.56959
G1 F1592 X186.766 Y63.216 E2372.62586
G1 F1576.4 X186.923 Y63.299 E2372.64025
G1 F1563.5 X187.207 Y63.35 E2372.66382
G1 F1553.4 X187.472 Y63.299 E2372.68601
G1 F1540.9 X187.734 Y63.121 E2372.71226
G1 F1545.9 X188.746 Y62.106 E2372.83068
G1 F1558.4 X188.906 Y61.862 E2372.85459
G1 F1555.9 X188.954 Y61.596 E2372.87678
G1 F1561 X188.904 Y61.317 E2372.89997
G1 F1558.4 X188.727 Y61.065 E2372.92521
G1 F1548.4 X188.106 Y60.444 E2372.99765
G1 F1422.2 X187.883 Y60.299 E2373.02153
G1 F1418 X187.665 Y60.443 E2373.04507
G1 F1456.8 X186.099 Y62.003 E2373.23886
G1 F1507.1 X185.622 Y61.972 E2373.27937
G1 F1635.4 X185.493 Y61.951 E2373.28958
G1 F2700 E2353.28958
G0 F12000 X184.527 Y62.19
G0 X179.38 Y61.091
G0 X178.457 Y60.75
G1 F2700 E2373.28958
G1 F1856.9 X178.456 Y61.453 E2373.33793
G1 F1739.1 X178.422 Y61.823 E2373.36522
G1 X178.241 Y61.589 E2373.38694
G1 F1856.9 X178.031 Y61.489 E2373.40294
G1 F1681.3 X177.698 Y61.501 E2373.42826
G1 X177.973 Y61.15 E2373.46213
G1 F1860.5 X178.346 Y60.775 E2373.49844
G1 X178.434 Y60.725 E2373.50539
G1 X178.457 Y60.75 E2373.50772
G1 F2700 E2353.50772
G0 F12000 X178.303 Y61.047
G0 X175.336 Y63.862
G1 F2700 E2373.50772
G1 F1536 X177.698 Y61.501 E2373.78541
G0 F12000 X178.407 Y62.139
G1 F1597.3 X178.422 Y61.823 E2373.81071
G1 F2700 E2353.81071
G0 F12000 X177.981 Y59.944
G0 X177.984 Y59.293
G0 X177.46 Y58.445
G0 X176.786 Y57.988
G0 X176.003 Y57.841
G0 X175.23 Y57.983
G0 X174.559 Y58.429
G0 X174.177 Y59.131
G0 X173.773 Y60.977
G0 X172.933 Y61.488
G1 F2700 E2373.81071
G1 F1536 X173.827 Y62.382 E2373.91584
G0 F12000 X174.319 Y62.946
G1 F2077.9 X174.044 Y62.711 E2373.93807
G1 F1758.2 X173.827 Y62.382 E2373.9667
G1 F1616.2 X174.188 Y62.35 E2373.99534
G1 F1687.2 X174.468 Y62.182 E2374.02006
G1 F1842.6 X174.433 Y62.6 E2374.04913
G1 F2077.9 X174.319 Y62.946 E2374.07152
G0 F12000 X174.468 Y62.182
G1 F1608 X175.058 Y59.536 E2374.28684
G1 F1555.9 X175.288 Y59.117 E2374.32608
G1 F1543.4 X175.601 Y58.908 E2374.35722
G1 F1540.9 X176.012 Y58.832 E2374.39187
G1 X176.407 Y58.91 E2374.42524
G1 X176.741 Y59.134 E2374.45857
G1 F1538.5 X177.015 Y59.58 E2374.50203
G1 F1545.9 X177.032 Y60.093 E2374.54443
G1 F2700 E2354.54443
G0 F12000 X177.046 Y65.602
G1 F2700 E2374.54443
G1 F1550.9 X177.708 Y66.263 E2374.62147
G1 X178.026 Y66.484 E2374.65336
G1 F1545.9 X178.396 Y66.558 E2374.68454
G1 F1550.9 X178.785 Y66.483 E2374.71716
G1 X179.107 Y66.259 E2374.74946
G1 F1553.4 X180.805 Y64.56 E2374.94696
G1 F1566.1 X181.018 Y64.236 E2374.97858
G1 F1558.4 X181.085 Y63.879 E2375.00835
G1 F1550.9 X181.016 Y63.511 E2375.03918
G1 F1548.4 X180.786 Y63.176 E2375.0727
G1 F1545.9 X180.128 Y62.518 E2375.14958
G1 F2700 E2355.14958
G0 F12000 X179.438 Y63.208
G0 X176.588 Y64.683
G0 X176.13 Y65.141
G0 X176.019 Y65.594
G0 X176.146 Y66.08
G0 X180.701 Y70.607
G0 X181.15 Y70.721
G0 X181.638 Y70.598
G0 X185.125 Y67.11
G0 X185.249 Y66.624
G0 X185.134 Y66.174
G0 X184.681 Y65.721
G0 X184.229 Y65.606
G0 X183.955 Y65.676
G0 X182.513 Y66.28
G0 X181.202 Y66.333
G1 F2700 E2375.14958
G1 F1365.6 X180.927 Y66.498 E2375.17958
G1 F1533.5 X179.452 Y67.972 E2375.35324
G1 F2700 E2355.35324
G0 F12000 X181.165 Y69.69
G1 F2700 E2375.35324
G1 F1526.2 X182.679 Y68.174 E2375.53254
G1 F1359.8 X182.807 Y67.938 E2375.55775
G1 F2700 E2355.55775
G0 F12000 X184.218 Y66.637
G1 F2700 E2375.55775
G1 F1536 X183.081 Y67.773 E2375.6914
G1 F1365.6 X182.807 Y67.938 E2375.72131
G1 F1230.8 X181.202 Y66.333 E2375.95685
G1 F1357.9 X181.329 Y66.097 E2375.98206
G1 F1523.8 X182.508 Y64.917 E2376.12187
G1 F2700 E2356.12187
G0 F12000 X183.2 Y65.608
G0 X184.229 Y65.606
G0 X184.681 Y65.721
G0 X185.134 Y66.174
G0 X185.237 Y66.579
G0 X182.963 Y75.237
G0 X182.812 Y76.748
G1 F2700 E2376.12187
G1 F1947.3 X182.031 Y76.303 E2376.18083
G1 F1943.3 X145.252 Y39.524 E2379.59925
G1 F1951.2 X144.804 Y38.74 E2379.65836
G1 F1959.2 X144.803 Y37.837 E2379.71722
G1 F1947.3 X145.247 Y37.057 E2379.77609
G1 F1939.4 X156.287 Y26.017 E2380.80428
G1 F1947.3 X157.074 Y25.566 E2380.86377
G1 F1955.2 X157.975 Y25.566 E2380.92263
G1 F1947.3 X158.758 Y26.013 E2380.98176
G1 F1939.4 X195.538 Y62.794 E2384.40725
G1 F1947.3 X195.984 Y63.575 E2384.46624
G1 F1955.2 X195.984 Y64.476 E2384.52509
G1 F1947.3 X195.539 Y65.257 E2384.58405
G1 F1939.4 X184.5 Y76.296 E2385.61215
G1 F1947.3 X183.713 Y76.748 E2385.67167
G1 F1955.2 X182.812 Y76.748 E2385.73053
G0 F12000 X182.941 Y76.265
G1 F1955.2 X183.584 Y76.265 E2385.77253
G1 F1963.2 X184.127 Y75.955 E2385.81321
G1 F1975.3 X195.191 Y64.891 E2386.8249
G1 F1971.3 X195.501 Y64.347 E2386.86547
G1 F1955.2 X195.501 Y63.704 E2386.90747
G1 F1947.3 X195.17 Y63.132 E2386.95081
G1 F1939.4 X158.42 Y26.381 E2390.3735
G1 F1947.3 X157.846 Y26.049 E2390.41699
G1 F1955.2 X157.203 Y26.049 E2390.459
G1 F1963.2 X156.658 Y26.36 E2390.49982
G1 F1955.2 X145.604 Y37.406 E2391.52062
G1 F1947.3 X145.286 Y37.966 E2391.56286
G1 F1959.2 X145.287 Y38.61 E2391.60485
G1 F1951.2 X145.608 Y39.174 E2391.64732
G1 F1943.3 X182.368 Y75.934 E2395.06398
G1 F1947.3 X182.941 Y76.265 E2395.10738
G1 F2700 E2375.10738
G0 F12000 X182.941 Y76.527
G0 X183.638 Y76.465
G0 X184.239 Y76.119
G0 X195.355 Y65.003
G0 X195.701 Y64.402
G0 X195.701 Y63.65
G0 X195.422 Y63.164
G0 X186.648 Y54.368
G0 X187.549 Y53.039
G0 X188.005 Y52.941
G1 F2700 E2395.10738
G1 F1935.5 X188.488 Y53.035 E2395.13985
G1 F1943.3 X188.98 Y52.942 E2395.17276
G1 F1947.3 X189.376 Y52.673 E2395.20416
G1 F1943.3 X191.486 Y50.563 E2395.40027
G1 X191.755 Y50.161 E2395.43206
G1 F1939.4 X191.845 Y49.677 E2395.46448
G1 F1947.3 X191.751 Y49.195 E2395.49669
G1 X191.485 Y48.801 E2395.52787
G1 F1939.4 X190.35 Y47.666 E2395.63358
G1 F1931.6 X190.35 Y47.503 E2395.64436
G1 F1927.7 X190.538 Y47.314 E2395.66202
G1 X190.703 Y47.314 E2395.67295
G1 X191.825 Y48.437 E2395.77813
G1 F1935.5 X192.213 Y49.006 E2395.82357
G1 F1939.4 X192.344 Y49.677 E2395.8686
G1 X192.22 Y50.349 E2395.9136
G1 F1931.6 X191.827 Y50.927 E2395.95981
G1 F1923.8 X189.737 Y53.018 E2396.15608
G1 F1931.6 X189.159 Y53.41 E2396.20226
G1 F1935.5 X188.489 Y53.535 E2396.24723
G1 F1939.4 X187.818 Y53.404 E2396.29226
G1 F1935.5 X187.243 Y53.012 E2396.33818
G1 F1927.7 X186.123 Y51.893 E2396.44307
G1 X186.123 Y51.732 E2396.45374
G1 F1923.8 X186.206 Y51.621 E2396.46294
G1 X186.379 Y51.524 E2396.47611
G1 F1927.7 X186.484 Y51.55 E2396.48328
G1 F1935.5 X187.61 Y52.675 E2396.58831
G1 F1939.4 X188.005 Y52.941 E2396.61967
G1 F2700 E2376.61967
G0 F12000 X187.863 Y53.151
G0 X186.455 Y51.76
G0 X186.175 Y50.634
G0 X186.013 Y49.554
G0 X188.186 Y45.516
;TYPE:WALL-INNER
G1 F2700 E2396.61967
G1 F1459 X188.144 Y45.587 E2396.62689
G1 X188.063 Y45.587 E2396.63398
G1 X188.022 Y45.516 E2396.64116
G1 X188.064 Y45.445 E2396.64838
G1 X188.144 Y45.445 E2396.65538
G0 F12000 X188.132 Y45.483
G0 X187.891 Y45.347
G0 X187.557 Y44.403
G1 F2766.6 X187.463 Y43.872 E2396.68028
G1 X187.461 Y43.503 E2396.69731
G1 X187.323 Y43.683 E2396.70779
G1 X187.147 Y43.766 E2396.71677
G1 X186.929 Y43.776 E2396.72684
G1 X187.557 Y44.403 E2396.76781
G0 F12000 X187.976 Y44.867
;TYPE:WALL-OUTER
G1 F2296.7 X187.929 Y44.365 E2396.79585
G1 F2400 X187.834 Y43.829 E2396.82482
G1 F2258.8 X187.784 Y43.085 E2396.86698
G1 F2012.6 X188.028 Y42.61 E2396.90087
G1 F1908.5 X188.42 Y42.342 E2396.93265
G1 F1912.4 X188.827 Y42.279 E2396.96015
G1 X189.183 Y42.368 E2396.98466
G1 F1923.8 X189.507 Y42.598 E2397.01104
G1 F1931.6 X189.748 Y42.932 E2397.03827
G1 F1935.5 X189.837 Y43.28 E2397.06197
G1 F1931.6 X189.773 Y43.7 E2397.09006
G1 F1935.5 X189.515 Y44.078 E2397.12026
G1 F1931.6 X188.575 Y45.02 E2397.20826
G1 F2138.1 X188.337 Y45.034 E2397.2225
G1 F2400 X188.13 Y44.968 E2397.23406
G1 F2296.7 X187.976 Y44.867 E2397.2443
G1 F2700 E2377.2443
G0 F12000 X187.722 Y44.911
G0 X187.824 Y45.456
G0 X187.736 Y45.902
G0 X187.494 Y46.442
G0 X187.291 Y46.303
G1 F2700 E2397.2443
G1 F1920 X185.148 Y48.449 E2397.44604
G1 F1931.6 X184.739 Y48.721 E2397.47852
G1 F1935.5 X184.267 Y48.809 E2397.5102
G1 X183.782 Y48.717 E2397.54278
G1 X183.389 Y48.453 E2397.57402
G1 X182.681 Y47.743 E2397.64019
G1 X182.41 Y47.337 E2397.6724
G1 F1931.6 X182.324 Y46.859 E2397.70451
G1 X182.419 Y46.379 E2397.73686
G1 X182.707 Y45.964 E2397.77026
G1 X184.798 Y43.875 E2397.9657
G1 F1908.5 X185.212 Y43.589 E2397.99937
G1 F1864.1 X185.645 Y43.498 E2398.02969
G1 F1901 X186.133 Y43.584 E2398.06298
G1 F1991.7 X186.531 Y43.855 E2398.09386
G1 F2196.8 X186.849 Y44.223 E2398.12213
G1 F2400 X187.233 Y44.607 E2398.15103
G1 F2243 X187.534 Y44.982 E2398.17841
G1 F2152.5 X187.58 Y45.463 E2398.20708
G1 F2296.7 X187.49 Y45.915 E2398.23271
G1 F2400 X187.252 Y46.27 E2398.25546
G1 F2128.6 X187.291 Y46.303 E2398.25852
G0 F12000 X187.674 Y46.625
G1 F2128.6 X187.716 Y46.653 E2398.26155
G1 F2400 X188.533 Y45.836 E2398.32304
G1 F2138.1 X188.927 Y45.373 E2398.35935
G1 F1923.8 X189.855 Y44.445 E2398.44648
G1 F1927.7 X190.245 Y43.878 E2398.49208
G1 F1923.8 X190.343 Y43.276 E2398.53257
G1 F1927.7 X190.207 Y42.733 E2398.56965
G1 F1931.6 X189.857 Y42.241 E2398.60958
G1 F1923.8 X189.379 Y41.903 E2398.64844
G1 F1912.4 X188.847 Y41.77 E2398.68507
G1 X188.244 Y41.867 E2398.72586
G1 F1908.5 X187.679 Y42.253 E2398.77165
G1 F1882.4 X187.359 Y42.772 E2398.81302
G1 F1927.7 X187.315 Y43.208 E2398.84205
G1 F2176.9 X187.163 Y43.346 E2398.8541
G1 X186.803 Y43.469 E2398.87642
G1 F1947.3 X186.255 Y43.096 E2398.91989
G1 F1875 X185.607 Y42.973 E2398.96482
G1 F1864.1 X185.018 Y43.114 E2399.00632
G1 F1904.8 X184.443 Y43.524 E2399.05367
G1 F1931.6 X182.34 Y45.629 E2399.25041
G1 X181.95 Y46.201 E2399.29619
G1 X181.822 Y46.869 E2399.34116
G1 X181.95 Y47.537 E2399.38614
G1 F1927.7 X182.34 Y48.109 E2399.432
G1 X183.021 Y48.79 E2399.49581
G1 F1931.6 X183.596 Y49.182 E2399.54183
G1 F1935.5 X184.264 Y49.309 E2399.5867
G1 X184.929 Y49.185 E2399.63133
G1 X185.509 Y48.79 E2399.67764
G1 F1920 X187.674 Y46.625 E2399.88131
G1 F2700 E2379.88131
G0 F12000 X187.499 Y46.449
G0 X187.715 Y46.008
G0 X187.824 Y45.456
G0 X187.722 Y44.9
G0 X187.431 Y44.468
G0 X186.666 Y43.703
G0 X186.234 Y43.412
G0 X185.679 Y43.31
G0 X185.126 Y43.418
G0 X183.423 Y44.785
G0 X182.655 Y44.018
G0 X182.106 Y43.071
G0 X180.206 Y41.568
;TYPE:WALL-INNER
G1 F2700 E2399.88131
G1 F1797.8 X180.172 Y41.625 E2399.88602
G1 X180.107 Y41.625 E2399.89064
G1 X180.074 Y41.568 E2399.89532
G1 X180.108 Y41.511 E2399.90004
G1 X180.172 Y41.511 E2399.90458
G0 F12000 X178.731 Y39.821
G0 X180.744 Y37.808
G0 X180.79 Y37.829
G1 F2594.6 X180.766 Y37.868 E2399.90684
G1 X180.698 Y37.829 E2399.9107
G1 X180.766 Y37.79 E2399.91456
G1 F2700 E2379.91456
G0 F12000 X180.744 Y37.748
G0 X178.731 Y39.821
G0 X178.852 Y40.042
G0 X179.028 Y39.866
;TYPE:WALL-OUTER
G1 F2700 E2399.91456
G1 F1702.1 X179.13 Y39.675 E2399.9308
G1 F1912.4 X180.567 Y38.237 E2400.06657
G1 F1923.8 X180.921 Y38.237 E2400.09008
G1 F1935.5 X182.329 Y39.644 E2400.22143
G1 X182.631 Y40.087 E2400.25681
G1 F1920 X182.71 Y40.567 E2400.28916
G1 X182.604 Y41.005 E2400.31914
G1 F1935.5 X182.338 Y41.386 E2400.3498
G1 F2033.9 X181.947 Y41.644 E2400.37922
G1 F2004.2 X181.513 Y41.788 E2400.40836
G1 F1893.5 X181.037 Y41.725 E2400.44075
G1 F1882.4 X180.717 Y41.523 E2400.46642
G1 F2100.7 X180.471 Y41.239 E2400.48927
G1 F2138.1 X180.025 Y40.863 E2400.52411
G1 F1711.2 X179.028 Y39.866 E2400.62935
G0 F12000 X178.675 Y40.219
G1 F1711.2 X179.672 Y41.215 E2400.73453
G1 F2138.1 X179.692 Y41.432 E2400.74755
G1 X179.618 Y42.054 E2400.78496
G1 F1931.6 X179.091 Y44.675 E2400.96174
G1 F1935.5 X179.093 Y44.828 E2400.97183
G1 X179.147 Y44.923 E2400.97904
G1 X179.335 Y44.996 E2400.99235
G1 X179.493 Y44.941 E2401.00339
G1 X179.581 Y44.767 E2401.01626
G1 F1931.6 X180.106 Y42.152 E2401.19262
G1 F2138.1 X180.287 Y42.011 E2401.20632
G1 F2100.7 X180.461 Y41.967 E2401.21723
G1 F1912.4 X180.782 Y42.134 E2401.2414
G1 F1916.2 X181.056 Y42.248 E2401.26118
G1 F1889.8 X181.643 Y42.281 E2401.30092
G1 F2012.6 X182.155 Y42.043 E2401.33675
G1 F2033.9 X182.69 Y41.739 E2401.37539
G1 F1935.5 X183.066 Y41.207 E2401.41837
G1 F1920 X183.214 Y40.601 E2401.45987
G1 X183.106 Y39.916 E2401.506
G1 F1927.7 X182.666 Y39.277 E2401.5574
G1 X181.274 Y37.885 E2401.68783
G1 F2025.3 X180.987 Y37.52 E2401.71711
G1 F2264.2 X180.745 Y37.385 E2401.73274
G1 F2400 X180.655 Y37.408 E2401.73768
G1 X180.473 Y37.556 E2401.75017
G1 F2138.1 X180.215 Y37.884 E2401.7751
G1 F1912.4 X178.748 Y39.353 E2401.91375
G1 F1702.1 X178.499 Y39.689 E2401.94513
G1 F1711.2 X178.102 Y39.998 E2401.98268
G1 F1927.7 X176.261 Y41.839 E2402.15517
G1 X176.261 Y42 E2402.16584
G1 X176.452 Y42.192 E2402.18378
G1 X176.613 Y42.191 E2402.19445
G1 X178.454 Y40.351 E2402.3669
G1 F1711.2 X178.675 Y40.219 E2402.38611
G1 F2700 E2382.38611
G0 F12000 X178.852 Y40.043
G0 X178.611 Y39.729
G0 X177.843 Y38.962
G0 X176.38 Y37.349
G0 X174.66 Y35.777
;TYPE:WALL-INNER
G1 F2700 E2402.38611
G1 F1975.3 X174.629 Y35.828 E2402.38997
G1 X174.57 Y35.828 E2402.39379
G1 X174.54 Y35.777 E2402.39761
G1 X174.571 Y35.726 E2402.40147
G1 X174.629 Y35.726 E2402.40522
G1 F2700 E2382.40522
G0 F12000 X173.473 Y36.002
G0 X173.037 Y36.333
G0 X172.728 Y36.765
G0 X172.596 Y37.287
G0 X172.687 Y37.871
G0 X173.011 Y38.343
G0 X173.361 Y38.692
G0 X174.766 Y39.484
G0 X174.955 Y39.304
;TYPE:WALL-OUTER
G1 F2700 E2402.40522
G1 F1849.7 X174.147 Y38.941 E2402.46639
G1 F1787.7 X173.551 Y38.614 E2402.51495
G1 F1886.1 X173.174 Y38.238 E2402.55101
G1 F1931.6 X172.867 Y37.787 E2402.58708
G1 F1908.5 X172.79 Y37.289 E2402.62081
G1 F1912.4 X172.908 Y36.842 E2402.65168
G1 F1931.6 X173.179 Y36.466 E2402.68233
G1 F1943.3 X173.579 Y36.171 E2402.71499
G1 F1959.2 X174.008 Y36.061 E2402.74386
G1 F2167 X174.413 Y36.177 E2402.76869
G1 F2400 X174.539 Y36.251 E2402.77647
G1 F2128.6 X174.865 Y36.404 E2402.79808
G1 F1916.2 X175.351 Y36.894 E2402.84408
G1 F1923.8 X175.457 Y36.92 E2402.85132
G1 X175.633 Y36.821 E2402.86473
G1 X175.729 Y36.648 E2402.87786
G1 X175.703 Y36.541 E2402.88517
G1 F1916.2 X175.25 Y36.083 E2402.92811
G1 F2128.6 X175.024 Y35.649 E2402.95747
G1 F2152.5 X174.906 Y35.2 E2402.98502
G1 F1947.3 X175.003 Y34.76 E2403.01457
G1 F1943.3 X175.289 Y34.357 E2403.04705
G1 F1931.6 X175.678 Y34.081 E2403.07858
G1 F1916.2 X176.109 Y33.977 E2403.10814
G1 X176.597 Y34.057 E2403.1411
G1 F1931.6 X177.045 Y34.365 E2403.17704
G1 F1886.1 X177.424 Y34.74 E2403.21315
G1 F1791 X177.752 Y35.336 E2403.26166
G1 F1856.9 X178.113 Y36.143 E2403.32247
G1 F1979.4 X178.277 Y36.204 E2403.33376
G1 X178.464 Y36.127 E2403.34681
G1 X178.517 Y36.039 E2403.35344
G1 X178.526 Y35.902 E2403.3623
G1 F1856.9 X178.249 Y35.091 E2403.42124
G1 F1787.7 X177.776 Y34.387 E2403.48184
G1 F1878.7 X177.414 Y34.026 E2403.51659
G1 F1923.8 X176.773 Y33.583 E2403.56832
G1 F1916.2 X176.088 Y33.468 E2403.61462
G1 X175.479 Y33.618 E2403.65642
G1 F1931.6 X174.936 Y34.004 E2403.70047
G1 F1927.7 X174.515 Y34.624 E2403.75012
G1 F1971.3 X174.387 Y35.332 E2403.79674
G1 F2082.4 X174.177 Y35.55 E2403.8153
G1 F2038.2 X173.411 Y35.704 E2403.86426
G1 F1947.3 X172.813 Y36.126 E2403.91227
G1 F1923.8 X172.428 Y36.674 E2403.95673
G1 F1904.8 X172.279 Y37.279 E2403.99851
G1 F1908.5 X172.393 Y37.964 E2404.04498
G1 F1920 X172.835 Y38.604 E2404.09672
G1 F1875 X173.2 Y38.969 E2404.13188
G1 F1784.4 X173.901 Y39.439 E2404.19229
G1 F1849.7 X174.713 Y39.716 E2404.25153
G1 F1971.3 X174.846 Y39.708 E2404.26016
G1 X174.938 Y39.652 E2404.26714
G1 X175.012 Y39.468 E2404.27999
G1 X174.955 Y39.304 E2404.29124
G1 F2700 E2384.29124
G0 F12000 X174.766 Y39.484
G0 X173.444 Y38.775
G0 X173.011 Y38.343
G0 X172.687 Y37.871
G0 X172.596 Y37.287
G0 X172.728 Y36.765
G0 X173.5 Y35.863
G0 X172.888 Y34.97
G0 X172.169 Y34.53
G0 X171.886 Y32.724
G1 F2700 E2404.29124
G1 F1711.2 X172.108 Y32.592 E2404.31051
G1 F1927.7 X173.948 Y30.752 E2404.48292
G1 X174.111 Y30.752 E2404.49372
G1 X174.3 Y30.94 E2404.51138
G1 X174.3 Y31.105 E2404.52231
G1 X172.46 Y32.944 E2404.69467
G1 F1711.2 X172.062 Y33.254 E2404.73232
G1 F1702.1 X171.814 Y33.589 E2404.7636
G1 F1908.5 X170.285 Y35.118 E2404.9083
G1 F1768 X169.866 Y35.45 E2404.94692
G1 F1643.8 X169.768 Y35.45 E2404.95453
G1 F1764.7 X169.35 Y35.118 E2404.99316
G1 F1916.2 X167.895 Y33.665 E2405.13022
G1 F1923.8 X167.455 Y33.026 E2405.18173
G1 F1912.4 X167.344 Y32.348 E2405.22761
G1 X167.5 Y31.732 E2405.27005
G1 F1927.7 X167.886 Y31.185 E2405.31441
G1 F1931.6 X168.431 Y30.8 E2405.35853
G1 F1920 X169.038 Y30.651 E2405.4001
G1 F1916.2 X169.72 Y30.758 E2405.44612
G1 F1920 X170.357 Y31.195 E2405.4975
G1 F1811.3 X171.121 Y31.959 E2405.57369
G1 F1621.6 X171.886 Y32.724 E2405.6589
G1 F2700 E2385.6589
G0 F12000 X171.71 Y32.899
G0 X171.83 Y33.121
G0 X169.817 Y35.134
G0 X169.817 Y34.821
G1 F2700 E2405.6589
G1 F1768 X169.963 Y34.734 E2405.67117
G1 F1908.5 X171.431 Y33.267 E2405.81006
G1 F1702.1 X171.533 Y33.077 E2405.82624
G1 F1621.6 X170.764 Y32.309 E2405.91184
G1 F1818.2 X169.995 Y31.54 E2405.98823
G1 F1927.7 X169.546 Y31.235 E2406.02419
G1 F1916.2 X169.062 Y31.158 E2406.05686
G1 F1920 X168.63 Y31.262 E2406.08642
G1 F1931.6 X168.24 Y31.538 E2406.11801
G1 F1927.7 X167.962 Y31.931 E2406.1499
G1 F1912.4 X167.853 Y32.358 E2406.17933
G1 X167.93 Y32.851 E2406.21266
G1 F1927.7 X168.235 Y33.298 E2406.24851
G1 F1920 X169.672 Y34.735 E2406.38369
G1 F1764.7 X169.817 Y34.821 E2406.3959
G1 F2700 E2386.3959
;MESH:NONMESH
G0 F300 X169.817 Y34.821 Z3.72
G0 F12000 X169.61 Y35.027
G0 X168.025 Y33.557
G0 X98.62 Y91.875
;TIME_ELAPSED:9507.464080
;LAYER:11
;TYPE:WALL-OUTER
;MESH:antenn.stl
G1 F2700 E2406.3959
G1 F1927.7 X97.983 Y92.51 E2406.45549
G1 F1711.2 X97.763 Y92.642 E2406.47464
G1 F1736 X97.113 Y91.995 E2406.54211
G1 F1927.7 X96.901 Y91.875 E2406.55825
G1 F2008.4 X96.636 Y91.814 E2406.57554
G1 F2082.4 X96.465 Y91.869 E2406.58656
G1 F1991.7 X96.182 Y92.151 E2406.61218
G1 F2114.5 X96.129 Y92.303 E2406.6219
G1 F2073.4 X96.181 Y92.608 E2406.64096
G1 F1931.6 X96.291 Y92.808 E2406.65605
G1 F1927.7 X96.838 Y93.361 E2406.70759
G1 F1761.5 X96.987 Y93.447 E2406.72006
G1 F1771.2 X97.131 Y93.362 E2406.73212
G1 F1904.8 X97.661 Y92.832 E2406.78238
G1 F1699.1 X97.763 Y92.642 E2406.79859
G1 F2700 E2386.79859
G0 F12000 X100.228 Y93.551
G1 F2700 E2406.79859
G1 F1618.9 X99.434 Y94.344 E2406.88712
G1 F1807.9 X98.64 Y95.138 E2406.96644
G0 F12000 X99.458 Y95.96
G1 F1947.3 X99.462 Y95.965 E2406.96686
G1 F1923.8 X100.949 Y94.473 E2407.10671
G1 F1761.5 X101.034 Y94.329 E2407.11883
G1 F1777.8 X100.917 Y94.15 E2407.13419
G1 F1916.2 X100.42 Y93.653 E2407.18104
G1 F1699.1 X100.228 Y93.551 E2407.19739
G1 F1717.4 X100.126 Y93.358 E2407.21362
G1 F1967.2 X99.805 Y93.039 E2407.243
G1 F1975.3 X99.676 Y92.97 E2407.25246
G1 F1939.4 X99.459 Y92.928 E2407.26702
G1 F1935.5 X99.227 Y92.97 E2407.28257
G1 X99.028 Y93.109 E2407.29859
G1 F1931.6 X97.819 Y94.321 E2407.41179
G1 F2700 E2387.41179
G0 F12000 X97.733 Y95.224
G0 X97.455 Y95.243
G0 X95.597 Y93.411
G0 X95.275 Y92.879
G0 X95.252 Y92.265
G0 X95.316 Y91.807
G0 X95.644 Y91.343
G0 X96.09 Y91.025
G0 X96.588 Y90.921
G0 X98.981 Y90.948
G0 X102.831 Y94.798
G0 X102.8 Y95.364
G0 X103.005 Y96.26
G1 F2700 E2407.41179
G1 F1931.6 X101.793 Y97.47 E2407.52503
G1 F1935.5 X101.594 Y97.609 E2407.54104
G1 X101.362 Y97.651 E2407.5566
G1 F1947.3 X101.058 Y97.58 E2407.57708
G1 F1951.2 X100.449 Y96.971 E2407.63345
G1 F1777.8 X100.333 Y96.793 E2407.64871
G1 F1758.2 X100.417 Y96.649 E2407.66082
G1 F1908.5 X101.905 Y95.161 E2407.80165
G1 F2700 E2387.80165
G0 F12000 X102.8 Y95.364
G0 X102.831 Y94.798
G0 X98.981 Y90.948
G0 X96.588 Y90.921
G0 X96.09 Y91.025
G0 X95.644 Y91.343
G0 X95.316 Y91.807
G0 X95.252 Y92.265
G0 X95.275 Y92.879
G0 X95.597 Y93.411
G0 X100.357 Y98.171
G0 X100.708 Y98.409
G0 X101.302 Y98.555
G0 X102.199 Y98.702
G1 F2700 E2407.80165
G1 F1951.2 X102.204 Y98.707 E2407.80211
G1 F1935.5 X102.837 Y98.069 E2407.86142
G1 F1711.2 X103.058 Y97.937 E2407.88063
G1 F2700 E2387.88063
G0 F12000 X104.929 Y98.18
G1 F2700 E2407.88063
G1 F1975.3 X104.458 Y98.643 E2407.92333
G1 X104.333 Y98.709 E2407.93247
G1 F1939.4 X104.104 Y98.75 E2407.94779
G1 F1832.1 X103.8 Y98.679 E2407.96956
G1 F1638.2 X103.058 Y97.937 E2408.05136
G1 F1699.1 X103.159 Y97.747 E2408.06754
G1 F1920 X103.83 Y97.082 E2408.13038
G1 F1951.2 X103.825 Y97.076 E2408.13089
G1 F2700 E2388.13089
G0 F12000 X104.718 Y97.289
G0 X105.364 Y97.33
G0 X106.84 Y98.733
G0 X107.141 Y99.178
G0 X107.238 Y99.461
G0 X106.189 Y100.752
;TYPE:WALL-INNER
G1 F2700 E2408.13089
G1 F2038.2 X105.875 Y101.066 E2408.15872
G0 F12000 X105.178 Y101.199
;TYPE:WALL-OUTER
G1 F1975.3 X105.092 Y101.239 E2408.16485
G1 F1951.2 X104.772 Y101.236 E2408.1858
G1 F1901 X104.525 Y101.056 E2408.20633
G1 F1893.5 X104.34 Y100.808 E2408.2272
G1 F1947.3 X104.337 Y100.455 E2408.25035
G1 F1943.3 X104.453 Y100.295 E2408.26334
G1 F1927.7 X105.417 Y99.331 E2408.35367
G1 F1939.4 X105.577 Y99.217 E2408.3666
G1 F1955.2 X105.937 Y99.218 E2408.39012
G1 F1897.2 X106.174 Y99.398 E2408.41016
G1 F1901 X106.349 Y99.627 E2408.42952
G1 F1963.2 X106.354 Y99.991 E2408.4532
G1 F1971.3 X106.289 Y100.096 E2408.4612
G0 F12000 X106.921 Y100.566
G1 F1923.8 X107.117 Y100.372 E2408.47951
G1 F2700 E2388.47951
G0 F12000 X105.686 Y101.8
G1 F2700 E2408.47951
G1 F2133.3 X106.04 Y101.516 E2408.50668
G1 F2400 X106.63 Y100.926 E2408.55108
G1 F2128.6 X106.921 Y100.566 E2408.57886
G1 X106.614 Y100.542 E2408.59734
G1 F2400 X106.382 Y100.346 E2408.6135
G1 F2171.9 X106.289 Y100.096 E2408.62918
G1 X105.962 Y100.363 E2408.65401
G1 F2400 X105.498 Y100.827 E2408.68893
G1 F2302.2 X105.201 Y101.172 E2408.71418
G1 X105.475 Y101.266 E2408.73025
G1 F2400 X105.665 Y101.497 E2408.74617
G1 F2133.3 X105.686 Y101.8 E2408.76436
G1 F1923.8 X105.494 Y101.993 E2408.78243
G1 F2700 E2388.78243
G0 F12000 X107.424 Y103.882
G1 F2700 E2408.78243
G1 F1889.8 X108.482 Y101.777 E2408.94165
G1 F1893.5 X108.376 Y101.608 E2408.95511
G1 F1935.5 X108.131 Y101.363 E2408.97797
G1 F1777.8 X107.953 Y101.247 E2408.99324
G1 F1771.2 X107.778 Y101.362 E2409.00834
G1 F1935.5 X106.321 Y102.824 E2409.14454
G1 F2700 E2389.14454
G0 F12000 X106.509 Y103.709
G0 X106.697 Y104.567
G0 X107.984 Y105.756
G0 X108.472 Y105.637
G0 X109.363 Y105.862
G1 F2700 E2409.14454
G1 F1920 X109.776 Y105.45 E2409.18334
G1 F2004.2 X109.829 Y105.288 E2409.19421
G1 F2201.8 X109.828 Y104.642 E2409.23168
G1 F2313.3 X109.886 Y104.614 E2409.23523
G1 X109.948 Y104.68 E2409.24023
G1 F2291.2 X110.186 Y104.794 E2409.25494
G1 F2082.4 X110.449 Y104.777 E2409.27111
G1 F2100.7 X110.184 Y105.1 E2409.29651
G1 X109.776 Y105.45 E2409.32919
G0 F12000 X110.449 Y104.777
G1 F1923.8 X110.984 Y104.241 E2409.37947
G1 F2700 E2389.37947
G0 F12000 X109.888 Y103.154
G1 F2700 E2409.37947
G1 F2091.5 X109.853 Y104.287 E2409.44869
G1 F1912.4 X109.784 Y104.478 E2409.46225
G1 F1864.1 X109.585 Y104.489 E2409.47591
G1 F2016.8 X108.313 Y104.76 E2409.55827
G1 F2700 E2389.55827
G0 F12000 X108.472 Y105.637
G0 X108.437 Y106.225
G0 X110.232 Y108.046
G0 X110.663 Y108.339
G0 X111.242 Y108.45
G0 X111.82 Y108.339
G0 X112.066 Y108.173
G0 X113.186 Y107.114
G0 X112.539 Y106.468
G1 F2700 E2409.55827
G1 F1947.3 X111.555 Y107.451 E2409.64949
G1 X111.237 Y107.523 E2409.67088
G1 F1939.4 X111.018 Y107.481 E2409.68556
G1 F1947.3 X110.823 Y107.345 E2409.70116
G1 F1959.2 X110.494 Y107.016 E2409.73149
G1 F1971.3 X110.429 Y106.892 E2409.74056
G1 F1951.2 X110.39 Y106.667 E2409.75551
G1 F1955.2 X110.431 Y106.444 E2409.77032
G1 F1951.2 X110.57 Y106.248 E2409.78605
G1 F1947.3 X111.444 Y105.373 E2409.86716
G1 F1935.5 X111.565 Y105.305 E2409.87632
G1 F1912.4 X111.78 Y105.268 E2409.89089
G1 F1916.2 X111.973 Y105.297 E2409.9039
G1 F1951.2 X112.135 Y105.379 E2409.91578
G1 F1573.8 X112.394 Y105.463 E2409.93788
G1 F1507.1 X112.552 Y105.76 E2409.96639
G1 F1450.2 X112.776 Y106.027 E2409.99709
G0 F12000 X113.149 Y105.857
G1 F1920 X113.339 Y105.666 E2410.01501
G1 F1927.7 X113.475 Y105.471 E2410.03076
G1 F1951.2 X113.512 Y105.275 E2410.04381
G1 F1963.2 X113.469 Y105.101 E2410.05547
G1 F1935.5 X113.348 Y104.944 E2410.06855
G1 F1889.8 X113.207 Y104.85 E2410.08001
G1 F1955.2 X113.006 Y104.807 E2410.09343
G1 X112.825 Y104.842 E2410.10548
G1 F1904.8 X112.654 Y104.934 E2410.1185
G1 F1939.4 X112.59 Y105.022 E2410.12566
G1 F2700 E2390.12566
G0 F12000 X112.09 Y104.213
G0 X112.539 Y103.937
G0 X113.127 Y103.901
G0 X113.573 Y103.98
G0 X122.05 Y111.03
G0 X122.024 Y111.785
G0 X128.145 Y119.576
G0 X128.987 Y120.412
G0 X131.835 Y121.597
G0 X132.265 Y121.71
G0 X132.724 Y121.589
G0 X134.743 Y119.57
G0 X134.857 Y119.116
G0 X134.755 Y118.705
G0 X126.05 Y109.964
G0 X125.36 Y110.655
G1 F2700 E2410.12566
G1 F1624.4 X124.566 Y111.449 E2410.21395
G1 F1814.7 X123.771 Y112.243 E2410.29303
G0 F12000 X124.593 Y113.064
G1 F1908.5 X126.08 Y111.576 E2410.4338
G1 F1758.2 X126.164 Y111.432 E2410.44591
G1 F1777.8 X126.048 Y111.254 E2410.46118
G1 F1920 X125.55 Y110.756 E2410.50803
G1 F1705.2 X125.36 Y110.655 E2410.52414
G1 F1723.5 X125.258 Y110.462 E2410.54032
G1 F1975.3 X124.933 Y110.141 E2410.56985
G1 F1959.2 X124.59 Y110.032 E2410.59332
G1 F1939.4 X124.358 Y110.074 E2410.60884
G1 X124.156 Y110.216 E2410.6251
G1 F1935.5 X122.95 Y111.426 E2410.73784
G1 F1947.3 X122.946 Y111.421 E2410.73826
G1 F2700 E2390.73826
G0 F12000 X122.864 Y112.328
G0 X122.845 Y112.606
G0 X128.145 Y119.576
G0 X128.987 Y120.412
G0 X131.835 Y121.597
G0 X132.265 Y121.71
G0 X132.724 Y121.589
G0 X134.743 Y119.57
G0 X134.857 Y119.116
G0 X134.743 Y118.659
G0 X128.498 Y112.438
G0 X127.744 Y112.464
G0 X127.321 Y112.898
G0 X128.139 Y113.364
G1 F2700 E2410.73826
G1 F1935.5 X127.498 Y113.999 E2410.7978
G1 F1711.2 X127.278 Y114.131 E2410.81694
G1 F1717.4 X126.652 Y113.506 E2410.88273
G1 F1904.8 X126.417 Y113.364 E2410.90114
G1 F2008.4 X126.152 Y113.303 E2410.91844
G1 F2082.4 X125.981 Y113.357 E2410.92943
G1 F1995.8 X125.697 Y113.641 E2410.95514
G1 F2119.2 X125.644 Y113.794 E2410.96489
G1 F2069 X125.696 Y114.096 E2410.98381
G1 F1916.2 X125.835 Y114.33 E2411.00195
G1 X126.354 Y114.85 E2411.05092
G1 F1761.5 X126.502 Y114.936 E2411.06333
G1 F1771.2 X126.647 Y114.851 E2411.07545
G1 F1904.8 X127.177 Y114.321 E2411.12571
G1 F1699.1 X127.278 Y114.131 E2411.14188
G1 F2700 E2391.14188
G0 F12000 X127.321 Y112.898
G0 X127.744 Y112.464
G0 X128.498 Y112.438
G0 X134.743 Y118.659
G0 X134.857 Y119.116
G0 X134.743 Y119.57
G0 X132.724 Y121.589
G0 X132.265 Y121.71
G0 X131.835 Y121.597
G0 X128.987 Y120.412
G0 X128.145 Y119.576
G0 X127.849 Y119.14
G0 X127.433 Y116.851
G0 X128.439 Y116.874
G1 F2700 E2411.14188
G1 F1886.1 X129.499 Y114.766 E2411.30166
G1 F1889.8 X129.392 Y114.598 E2411.31513
G1 F1935.5 X129.147 Y114.353 E2411.33799
G1 F1777.8 X128.969 Y114.237 E2411.35325
G1 F1771.2 X128.794 Y114.352 E2411.36835
G1 F1931.6 X127.337 Y115.812 E2411.50474
G1 F2700 E2391.50474
G0 F12000 X127.527 Y116.698
G0 X127.849 Y119.14
G0 X128.145 Y119.576
G0 X128.987 Y120.412
G0 X131.835 Y121.597
G0 X132.265 Y121.71
G0 X132.724 Y121.589
G0 X134.743 Y119.57
G0 X134.857 Y119.116
G0 X134.743 Y118.659
G0 X131.24 Y115.18
G0 X130.486 Y115.206
G0 X130.228 Y115.459
G0 X130.877 Y116.107
G1 F2700 E2411.50474
G1 F1908.5 X129.389 Y117.594 E2411.64551
G1 F1699.1 X129.288 Y117.782 E2411.66155
G1 F1638.2 X130.029 Y118.525 E2411.74336
G1 F1832.1 X130.334 Y118.596 E2411.76519
G1 F1935.5 X130.565 Y118.554 E2411.78069
G1 X130.764 Y118.415 E2411.7967
G1 X131.979 Y117.205 E2411.90986
G1 F2700 E2391.90986
G0 F12000 X131.772 Y116.308
G0 X132.339 Y116.279
G0 X134.743 Y118.659
G0 X134.857 Y119.116
G0 X134.743 Y119.57
G0 X132.724 Y121.589
G0 X132.265 Y121.71
G0 X131.835 Y121.597
G0 X130.25 Y120.011
G0 X130.262 Y119.722
G0 X129.376 Y119.518
G1 F2700 E2411.90986
G1 F1975.3 X128.772 Y118.91 E2411.96527
G1 X128.706 Y118.785 E2411.97441
G1 F1943.3 X128.665 Y118.56 E2411.98944
G1 F1939.4 X128.705 Y118.338 E2412.00429
G1 F1931.6 X128.849 Y118.134 E2412.02081
G1 F1920 X129.068 Y117.915 E2412.04141
G1 F1714.3 X129.288 Y117.782 E2412.06056
G1 F2700 E2392.06056
G0 F12000 X128.041 Y117.717
G0 X127.847 Y117.982
G0 X127.736 Y118.561
G0 X127.849 Y119.14
G0 X128.145 Y119.576
G0 X128.987 Y120.412
G0 X129.739 Y120.438
G0 X130.607 Y120.546
G0 X131.378 Y120.544
G0 X132.275 Y120.746
G1 F2700 E2412.06056
G1 F1904.8 X133.763 Y119.258 E2412.20166
G1 F1758.2 X133.847 Y119.115 E2412.21371
G1 F1777.8 X133.731 Y118.936 E2412.22903
G1 F1935.5 X133.232 Y118.438 E2412.27555
G1 F1951.2 X133.033 Y118.299 E2412.29144
G1 F1943.3 X132.818 Y118.257 E2412.30584
G1 F1939.4 X132.584 Y118.3 E2412.32151
G1 X132.385 Y118.439 E2412.33749
G1 F1931.6 X131.176 Y119.651 E2412.45069
G1 F2700 E2392.45069
G0 F12000 X131.378 Y120.544
G0 X131.349 Y121.11
G0 X131.835 Y121.597
G0 X132.265 Y121.71
G0 X132.724 Y121.589
G0 X134.743 Y119.57
G0 X134.857 Y119.116
G0 X134.766 Y118.747
G0 X133.778 Y117.05
G0 X139.088 Y120.117
G1 F2700 E2412.45069
G1 F1955.2 X139.731 Y120.117 E2412.49269
G1 F1947.3 X140.297 Y119.794 E2412.53543
G1 F1939.4 X179.241 Y80.849 E2416.16246
G1 F1947.3 X179.562 Y80.287 E2416.20491
G1 F1955.2 X179.562 Y79.643 E2416.24697
G1 X179.238 Y79.083 E2416.28924
G1 F1939.4 X178.355 Y78.194 E2416.37175
G1 F1923.8 X178.708 Y77.841 E2416.40489
G1 F1931.6 X179.599 Y78.733 E2416.48826
G1 F1947.3 X180.045 Y79.514 E2416.54725
G1 F1955.2 X180.045 Y80.416 E2416.60617
G1 F1947.3 X179.593 Y81.203 E2416.66569
G1 F1939.4 X140.647 Y120.149 E2420.29286
G1 F1947.3 X139.86 Y120.6 E2420.35235
G1 F1955.2 X138.959 Y120.6 E2420.41121
G1 F1947.3 X138.176 Y120.153 E2420.47034
G1 F1939.4 X101.405 Y83.382 E2423.89494
G1 F1947.3 X100.953 Y82.595 E2423.95447
G1 F1955.2 X100.953 Y81.693 E2424.01339
G1 F1947.3 X101.402 Y80.909 E2424.07265
G1 F1939.4 X140.351 Y41.96 E2427.70009
G1 F1947.3 X141.138 Y41.509 E2427.75958
G1 F1955.2 X142.039 Y41.509 E2427.81844
G1 F1947.3 X142.822 Y41.956 E2427.87757
G1 F1931.6 X165.276 Y64.409 E2429.97719
G1 F1923.8 X164.923 Y64.762 E2430.01033
G1 F1931.6 X153.698 Y53.54 E2431.05983
G1 F1947.3 X142.472 Y42.317 E2432.10098
G1 F1955.2 X141.91 Y41.992 E2432.14339
G1 X141.267 Y41.992 E2432.18539
G1 F1947.3 X140.701 Y42.315 E2432.22813
G1 F1939.4 X101.767 Y81.25 E2435.85423
G1 F1947.3 X101.436 Y81.822 E2435.89757
G1 F1955.2 X101.436 Y82.466 E2435.93964
G1 F1947.3 X101.757 Y83.028 E2435.98209
G1 F1939.4 X138.514 Y119.785 E2439.40538
G1 F1947.3 X139.088 Y120.117 E2439.44888
G1 F2700 E2419.44888
G0 F12000 X139.088 Y120.379
G0 X138.254 Y119.993
G0 X137.488 Y120.76
G0 X136.308 Y121.943
G0 X114.951 Y144.898
G1 F2700 E2439.44888
G1 F1967.2 X115.515 Y144.576 E2439.49104
G1 F1979.4 X135.354 Y124.728 E2441.30179
G1 F1971.3 X135.664 Y124.185 E2441.3423
G1 F1955.2 X135.664 Y123.541 E2441.38437
G1 X135.34 Y122.981 E2441.42663
G1 F1939.4 X134.078 Y121.713 E2441.54445
G1 F1923.8 X134.432 Y121.36 E2441.57764
G1 F1931.6 X135.701 Y122.631 E2441.69639
G1 F1947.3 X136.147 Y123.412 E2441.75538
G1 F1955.2 X136.147 Y124.314 E2441.8143
G1 F1947.3 X135.695 Y125.101 E2441.87383
G1 F1939.4 X115.867 Y144.929 E2443.72047
G1 F1947.3 X115.08 Y145.381 E2443.78
G1 F1955.2 X114.178 Y145.381 E2443.83892
G1 F1947.3 X113.394 Y144.932 E2443.89818
G1 F1939.4 X76.623 Y108.162 E2447.32273
G1 F1947.3 X76.173 Y107.376 E2447.38213
G1 F1955.2 X76.174 Y106.473 E2447.44112
G1 F1947.3 X76.618 Y105.692 E2447.50005
G1 F1939.4 X96.453 Y85.857 E2449.34734
G1 F1947.3 X97.239 Y85.408 E2449.40671
G1 F1955.2 X98.142 Y85.408 E2449.4657
G1 F1947.3 X98.923 Y85.852 E2449.52462
G1 F1931.6 X122.792 Y109.721 E2451.7566
G1 F1923.8 X122.439 Y110.074 E2451.78974
G1 F1931.6 X98.574 Y86.209 E2454.02134
G1 F1947.3 X98.013 Y85.891 E2454.06364
G1 F1955.2 X97.368 Y85.891 E2454.10577
G1 F1951.2 X96.803 Y86.213 E2454.14834
G1 F1943.3 X76.974 Y106.042 E2455.99135
G1 F1947.3 X76.657 Y106.602 E2456.03355
G1 F1955.2 X76.656 Y107.247 E2456.07569
G1 F1947.3 X76.978 Y107.812 E2456.11834
G1 F1939.4 X113.735 Y144.567 E2459.54154
G1 F1947.3 X114.307 Y144.898 E2459.58489
G1 F1955.2 X114.951 Y144.898 E2459.62695
G1 F2700 E2439.62695
G0 F12000 X114.951 Y145.16
G0 X114.253 Y145.098
G0 X113.652 Y144.752
G0 X111.266 Y142.322
G0 X109.707 Y141.034
G0 X108.034 Y142.706
G1 F2700 E2459.62695
G1 F1669.6 X107.99 Y144.108 E2459.73426
G1 F1533.5 X107.907 Y144.341 E2459.75486
G1 F1497.7 X107.666 Y144.357 E2459.77545
G1 F1613.4 X106.068 Y144.699 E2459.90482
G1 F2700 E2439.90482
G0 F12000 X107.378 Y146.075
G1 F2700 E2459.90482
G1 F1523.8 X107.929 Y145.522 E2459.97025
G0 F12000 X107.926 Y145.542
G1 F1684.2 X107.956 Y145.364 E2459.98393
G1 F1791 X107.953 Y144.965 E2460.01239
G1 F1920 X107.987 Y144.575 E2460.03843
G1 X108.022 Y144.563 E2460.04089
G1 X108.069 Y144.633 E2460.0465
G1 X108.357 Y144.782 E2460.06807
G1 F1708.2 X108.68 Y144.774 E2460.09223
G1 X108.419 Y145.121 E2460.12469
G1 F1801.1 X107.926 Y145.542 E2460.17066
G0 F12000 X108.121 Y145.162
G0 X108.68 Y144.774
G1 F1538.5 X109.406 Y144.049 E2460.25584
G1 F2700 E2440.25584
G0 F12000 X108.952 Y143.154
G0 X109.419 Y143.02
G0 X109.867 Y143.13
G0 X110.324 Y143.587
G0 X110.434 Y144.035
G0 X110.315 Y144.52
G0 X107.849 Y146.985
G0 X107.366 Y147.104
G0 X106.917 Y146.994
G0 X104.232 Y144.37
G0 X103.947 Y143.913
G0 X103.931 Y143.514
G0 X104.219 Y142.964
G0 X103.575 Y142.272
G1 F2700 E2460.25584
G1 F1536 X105.397 Y140.45 E2460.47009
G1 F1415.9 X105.615 Y140.306 E2460.49366
G1 F1420.1 X105.838 Y140.452 E2460.51763
G1 F1543.4 X106.144 Y140.758 E2460.55344
G1 F1470.1 X106.263 Y140.924 E2460.57119
G1 F1461.2 X106.226 Y141.068 E2460.58418
G1 F1533.5 X104.956 Y143.598 E2460.81994
G1 F2700 E2440.81994
G0 F12000 X104.219 Y142.964
G0 X103.929 Y143.469
G0 X103.947 Y143.913
G0 X104.232 Y144.37
G0 X106.917 Y146.994
G0 X107.366 Y147.104
G0 X107.849 Y146.985
G0 X110.315 Y144.52
G0 X110.434 Y144.035
G0 X110.324 Y143.587
G0 X106.099 Y139.336
G0 X105.569 Y139.246
G0 X104.569 Y139.212
G1 F2700 E2460.81994
G1 F1538.5 X103.774 Y140.006 E2460.91322
G1 F1367.5 X103.499 Y140.172 E2460.94322
G1 F1230.8 X102.926 Y139.599 E2461.02731
G1 F1357.9 X103.054 Y139.362 E2461.05265
G1 F1526.2 X103.474 Y138.942 E2461.10235
G1 F1550.9 X103.615 Y138.743 E2461.12244
G1 F1555.9 X103.657 Y138.515 E2461.14147
G1 F1553.4 X103.61 Y138.249 E2461.16368
G1 X103.3 Y137.914 E2461.2012
G1 F1555.9 X103.095 Y137.771 E2461.22172
G1 F1553.4 X102.868 Y137.729 E2461.2407
G1 F1550.9 X102.646 Y137.77 E2461.25929
G1 F1548.4 X102.444 Y137.913 E2461.27971
G1 F1538.5 X101.243 Y139.114 E2461.42071
G1 F1548.4 X101.099 Y139.318 E2461.44131
G1 F1550.9 X101.058 Y139.539 E2461.45982
G1 F1548.4 X101.107 Y139.808 E2461.48237
G1 X101.418 Y140.144 E2461.52014
G1 F1553.4 X101.623 Y140.289 E2461.54078
G1 F1523.8 X101.846 Y140.316 E2461.55961
G1 F1521.4 X102.067 Y140.289 E2461.5783
G1 F1548.4 X102.273 Y140.143 E2461.59913
G1 F1536 X102.652 Y139.764 E2461.64369
G1 F1365.6 X102.926 Y139.599 E2461.67361
G0 F12000 X103.499 Y140.172
G1 F1357.9 X103.371 Y140.408 E2461.69886
G1 F1526.2 X102.542 Y141.239 E2461.79709
G1 F2700 E2441.79709
G0 F12000 X101.524 Y141.246
G0 X101.243 Y141.204
G0 X100.787 Y140.893
G0 X100.496 Y140.602
G0 X100.32 Y140.344
G0 X99.121 Y137.817
G0 X98.429 Y137.125
G1 F2700 E2461.79709
G1 F1536 X99.221 Y136.334 E2461.89016
G1 F1365.6 X99.496 Y136.169 E2461.92016
G0 F12000 X100.455 Y135.099
G1 F1526.2 X99.624 Y135.933 E2462.01868
G1 F1359.8 X99.496 Y136.169 E2462.0439
G1 F1371.4 X100.28 Y136.953 E2462.14715
G1 F1561 X100.535 Y137.133 E2462.17269
G1 X100.817 Y137.183 E2462.19612
G1 F1550.9 X101.092 Y137.133 E2462.21914
G1 F1543.4 X101.347 Y136.954 E2462.24492
G1 F1533.5 X101.829 Y136.473 E2462.30163
G1 F2700 E2442.30163
G0 F12000 X102.763 Y136.775
G0 X103.475 Y136.855
G0 X103.931 Y137.166
G0 X110.324 Y143.587
G0 X110.434 Y144.035
G0 X110.315 Y144.52
G0 X108.946 Y147.011
G0 X110.06 Y148.738
G0 X88.616 Y171.232
G1 F2700 E2462.30163
G1 F1967.2 X89.181 Y170.91 E2462.34385
G1 F1979.4 X110.778 Y149.304 E2464.31503
G1 F1971.3 X111.088 Y148.761 E2464.35554
G1 F1955.2 X111.088 Y148.117 E2464.39761
G1 X110.765 Y147.559 E2464.43972
G1 F1939.4 X110.224 Y147.011 E2464.49043
G1 F1923.8 X110.577 Y146.658 E2464.52358
G1 F1931.6 X111.125 Y147.207 E2464.57487
G1 F1947.3 X111.571 Y147.988 E2464.63386
G1 F1955.2 X111.571 Y148.89 E2464.69278
G1 F1947.3 X111.119 Y149.677 E2464.7523
G1 F1939.4 X89.531 Y171.265 E2466.76286
G1 F1947.3 X88.745 Y171.715 E2466.82227
G1 F1955.2 X87.844 Y171.715 E2466.88112
G1 F1947.3 X87.061 Y171.268 E2466.94026
G1 F1939.4 X50.288 Y134.495 E2470.36504
G1 F1947.3 X49.839 Y133.711 E2470.4243
G1 F1955.2 X49.839 Y132.807 E2470.48335
G1 F1947.3 X50.284 Y132.027 E2470.54225
G1 F1939.4 X71.876 Y110.434 E2472.55323
G1 F1947.3 X72.663 Y109.984 E2472.61269
G1 F1955.2 X73.566 Y109.984 E2472.67168
G1 F1947.3 X74.347 Y110.428 E2472.7306
G1 F1931.6 X98.216 Y134.297 E2474.96258
G1 F1923.8 X97.863 Y134.65 E2474.99572
G1 F1931.6 X73.998 Y110.785 E2477.22732
G1 F1947.3 X73.437 Y110.467 E2477.26962
G1 F1955.2 X72.792 Y110.467 E2477.31175
G1 F1959.2 X72.227 Y110.789 E2477.35414
G1 F1955.2 X50.645 Y132.377 E2479.34818
G1 X50.322 Y132.936 E2479.39035
G1 X50.322 Y133.582 E2479.43255
G1 F1947.3 X50.642 Y134.143 E2479.47491
G1 F1939.4 X87.399 Y170.9 E2482.8982
G1 F1947.3 X87.973 Y171.232 E2482.9417
G1 F1955.2 X88.616 Y171.232 E2482.9837
G1 F2700 E2462.9837
G0 F12000 X88.616 Y171.494
G0 X87.888 Y171.541
G0 X87.346 Y172.479
G0 X84.66 Y173.982
G0 X83.847 Y176.001
G1 F2700 E2482.9837
G1 F1955.2 X83.847 Y175.358 E2483.0257
G1 X83.524 Y174.8 E2483.06782
G1 F1939.4 X82.983 Y174.252 E2483.11853
G1 F1923.8 X83.336 Y173.898 E2483.15172
G1 F1931.6 X83.884 Y174.448 E2483.20305
G1 F1947.3 X84.33 Y175.229 E2483.26204
G1 F1955.2 X84.33 Y176.13 E2483.3209
G1 F1947.3 X83.885 Y176.911 E2483.37986
G1 F1939.4 X55.344 Y205.452 E2486.03797
G1 F1947.3 X54.557 Y205.904 E2486.0975
G1 F1955.2 X53.655 Y205.904 E2486.15642
G1 F1947.3 X52.871 Y205.455 E2486.21567
G1 F1939.4 X16.1 Y168.685 E2489.64023
G1 F1947.3 X15.651 Y167.899 E2489.6996
G1 F1955.2 X15.651 Y166.996 E2489.75858
G1 F1947.3 X16.095 Y166.215 E2489.81751
G1 F1943.3 X44.638 Y137.673 E2492.47039
G1 F1951.2 X45.422 Y137.225 E2492.5295
G1 F1959.2 X46.325 Y137.225 E2492.58836
G1 F1951.2 X47.105 Y137.668 E2492.64708
G1 F1935.5 X64.972 Y155.535 E2494.31445
G1 F1923.8 X64.619 Y155.888 E2494.34759
G1 F1935.5 X46.755 Y138.024 E2496.01468
G1 F1951.2 X46.196 Y137.707 E2496.05675
G1 F1959.2 X45.552 Y137.708 E2496.09873
G1 F1955.2 X44.987 Y138.029 E2496.14118
G1 F1943.3 X16.452 Y166.564 E2498.79336
G1 F1947.3 X16.134 Y167.125 E2498.83566
G1 F1955.2 X16.134 Y167.77 E2498.87779
G1 F1947.3 X16.456 Y168.335 E2498.92044
G1 X34.84 Y186.716 E2500.62555
G1 F1955.2 X53.224 Y205.097 E2502.32373
G1 F1959.2 X53.784 Y205.421 E2502.36591
G1 F1955.2 X54.428 Y205.421 E2502.40797
G1 F1967.2 X54.992 Y205.099 E2502.45014
G1 F1979.4 X83.537 Y176.545 E2505.05533
G1 F1971.3 X83.847 Y176.001 E2505.0959
G1 F2700 E2485.0959
G0 F12000 X84.109 Y176.001
G0 X84.054 Y175.374
G0 X83.336 Y174.13
G0 X81.377 Y170.292
G1 F2700 E2505.0959
G1 F1373.4 X82.161 Y171.075 E2505.19894
G1 F1558.4 X82.335 Y171.322 E2505.2237
G1 F1563.5 X82.392 Y171.61 E2505.24768
G1 X82.345 Y171.876 E2505.26975
G1 F1553.4 X82.162 Y172.144 E2505.29643
G1 F1540.9 X81.169 Y173.137 E2505.41282
G1 F1550.9 X80.927 Y173.307 E2505.43718
G1 X80.634 Y173.363 E2505.46174
G1 F1558.4 X80.36 Y173.311 E2505.4846
G1 F1578.9 X80.205 Y173.229 E2505.49878
G1 F1594.7 X79.71 Y172.736 E2505.55474
G1 F1584.2 X79.622 Y172.573 E2505.56967
G1 F1548.4 X79.57 Y172.286 E2505.59373
G1 F1536 X79.627 Y172.007 E2505.61741
G1 F1538.5 X79.798 Y171.761 E2505.64228
G1 X81.103 Y170.457 E2505.79543
G1 F1369.5 X81.377 Y170.292 E2505.82526
G1 F1361.7 X81.504 Y170.056 E2505.8504
G1 F1540.9 X81.908 Y169.652 E2505.89776
G1 F1563.5 X82.069 Y169.565 E2505.9127
G1 F1553.4 X82.359 Y169.515 E2505.9369
G1 F1555.9 X82.627 Y169.565 E2505.95928
G1 X82.884 Y169.745 E2505.98503
G1 F1545.9 X83.542 Y170.403 E2506.06191
G1 F2700 E2486.06191
G0 F12000 X84.232 Y169.713
G0 X83.511 Y168.991
G0 X83.058 Y168.685
G0 X79.874 Y168.094
G0 X78.907 Y167.851
G1 F2700 E2506.06191
G1 F1528.7 X77.048 Y169.711 E2506.28163
G1 F1407.6 X76.941 Y169.891 E2506.30063
G1 F1418 X77.087 Y170.113 E2506.32456
G1 F1545.9 X77.707 Y170.733 E2506.397
G1 F1561 X77.961 Y170.912 E2506.42242
G1 X78.241 Y170.962 E2506.4457
G1 F1553.4 X78.525 Y170.905 E2506.46951
G1 F1548.4 X78.773 Y170.732 E2506.49445
G1 F1536 X80.28 Y169.224 E2506.67172
G1 F2700 E2486.67172
G0 F12000 X79.588 Y168.533
G0 X79.807 Y168.317
G0 X80.295 Y168.194
G0 X83.007 Y168.651
G0 X83.511 Y168.991
G0 X84.442 Y169.926
G0 X84.571 Y170.409
G0 X84.458 Y170.863
G0 X82.917 Y172.772
G0 X81.801 Y173.886
G0 X81.298 Y174.229
G0 X80.638 Y174.354
G0 X79.981 Y174.226
G0 X79.481 Y173.887
G0 X74.938 Y169.314
G0 X74.822 Y168.865
G0 X74.933 Y168.426
G0 X75.171 Y168.168
G0 X74.479 Y167.476
G1 F2700 E2506.67172
G1 F1536 X75.272 Y166.684 E2506.76492
G1 F1365.6 X75.546 Y166.519 E2506.79483
G0 F12000 X76.506 Y165.45
