;FLAVOR:Marlin
;TIME:8740
;Filament used: 11.1575m
;Layer height: 0.32
;MINX:79.525
;MINY:6.2
;MINZ:0.12
;MAXX:145.475
;MAXY:228.8
;MAXZ:4.16
;Generated with Cura_SteamEngine 4.12.1
M82 ;absolute extrusion mode
; Ender 3 Custom Start G-code
G92 E0 ; Reset Extruder
M900 K0.55
M140 S60 ; Нагреваем стол до заданной температуры.
M104 S200 T0 ; Нагреваем ХОТЕНД до заданной температуры.
M190 S60 ; Ждем нагрева стола.
M109 S200 T0 ; Ждем нагрева ХОТЕНДА. 
G28 ; Home all axes
G1 Z2.0 F3000 ; Move Z Axis up little to prevent scratching of Heat Bed
G1 X0.1 Y20 Z0.3 F5000.0 ; Move to start position
G1 X0.1 Y200.0 Z0.3 F1500.0 E15 ; Draw the first line
G1 X0.4 Y200.0 Z0.3 F5000.0 ; Move to side a little
G1 X0.4 Y20 Z0.3 F1500.0 E30 ; Draw the second line
G92 E0 ; Reset Extruder
G1 Z2.0 F3000 ; Move Z Axis up little to prevent scratching of Heat Bed
G1 X5 Y20 Z0.3 F5000.0 ; Move over to prevent blob squish
G92 E0
G92 E0
G1 F1500 E-6.5
;LAYER_COUNT:13
;LAYER:0
M107
G1 F300 Z0.32
;MESH:ZIP_L_B.stl
G0 F6000 X83.805 Y12.722 Z0.32
;TYPE:WALL-INNER
G1 F300 Z0.12
G1 F1500 E0
G1 F1200 X85.442 Y11.778 E0.03771
G1 X86.09 Y10 E0.07548
G1 X85.442 Y8.222 E0.11324
G1 X83.805 Y7.278 E0.15095
G1 X83.124 Y7.398 E0.16475
G1 X81.943 Y7.606 E0.18868
G1 X80.728 Y9.054 E0.2264
G1 X80.728 Y10.946 E0.26416
G1 X81.943 Y12.394 E0.30188
G1 X83.805 Y12.722 E0.33961
G0 F6000 X83.731 Y12.303
G1 F1200 X85.116 Y11.504 E0.37152
G1 X85.664 Y10 E0.40346
G1 X85.116 Y8.496 E0.43541
G1 X83.731 Y7.697 E0.46732
G1 X82.156 Y7.975 E0.49923
G1 X81.128 Y9.2 E0.53115
G1 X81.128 Y10.8 E0.56308
G1 X82.156 Y12.025 E0.59499
G1 X83.731 Y12.303 E0.62691
G0 F6000 X83.657 Y11.884
;TYPE:WALL-OUTER
G1 F1200 X84.79 Y11.23 E0.65301
G1 X85.238 Y10 E0.67914
G1 X84.79 Y8.77 E0.70526
G1 X83.657 Y8.116 E0.73137
G1 X82.369 Y8.344 E0.75747
G1 X81.528 Y9.346 E0.78358
G1 X81.528 Y10.654 E0.80968
G1 X82.369 Y11.656 E0.83578
G1 X83.657 Y11.884 E0.86189
G0 F6000 X83.733 Y12.317
G1 F1500 E-5.63811
G1 F300 Z0.32
G0 F6000 X142.155 Y12.722 Z0.32
;TYPE:WALL-INNER
G1 F300 Z0.12
G1 F1500 E0.86189
G1 F1200 X143.792 Y11.778 E0.8996
G1 X144.282 Y10.436 E0.92811
G1 X144.44 Y10 E0.93736
G1 X144.282 Y9.564 E0.94662
G1 X143.792 Y8.222 E0.97513
G1 X142.553 Y7.507 E1.00368
G1 X142.155 Y7.278 E1.01284
G1 X141.474 Y7.398 E1.02664
G1 X140.293 Y7.606 E1.05057
G1 X139.078 Y9.054 E1.08829
G1 X139.078 Y10.946 E1.12605
G1 X140.293 Y12.394 E1.16377
G1 X142.155 Y12.722 E1.2015
G0 F6000 X142.081 Y12.303
G1 F1200 X143.466 Y11.504 E1.23341
G1 X144.014 Y10 E1.26535
G1 X143.466 Y8.496 E1.2973
G1 X142.081 Y7.697 E1.32921
G1 X140.506 Y7.975 E1.36112
G1 X139.478 Y9.2 E1.39304
G1 X139.478 Y10.8 E1.42497
G1 X140.506 Y12.025 E1.45688
G1 X142.081 Y12.303 E1.4888
G0 F6000 X142.007 Y11.884
;TYPE:WALL-OUTER
G1 F1200 X143.14 Y11.23 E1.5149
G1 X143.588 Y10 E1.54103
G1 X143.14 Y8.77 E1.56715
G1 X142.007 Y8.116 E1.59326
G1 X140.719 Y8.344 E1.61936
G1 X139.878 Y9.346 E1.64546
G1 X139.878 Y10.654 E1.67157
G1 X140.719 Y11.656 E1.69767
G1 X142.007 Y11.884 E1.72378
G0 F6000 X142.083 Y12.317
G1 F1500 E-4.77622
G1 F300 Z0.32
G0 F6000 X113.557 Y54.478 Z0.32
;TYPE:WALL-INNER
G1 F300 Z0.12
G1 F1500 E1.72378
G1 F1200 X117.719 Y53.796 E1.80794
G1 X121.637 Y52.233 E1.89212
G1 X125.127 Y49.867 E1.97626
G1 X128.028 Y46.806 E2.06042
G1 X130.203 Y43.19 E2.14463
G1 X131.549 Y39.192 E2.22882
G1 X132.005 Y35 E2.31297
G1 X131.549 Y30.808 E2.39712
G1 X130.203 Y26.81 E2.4813
G1 X128.028 Y23.194 E2.56551
G1 X125.127 Y20.133 E2.64967
G1 X121.637 Y17.767 E2.73381
G1 X117.719 Y16.204 E2.81799
G1 X113.557 Y15.522 E2.90216
G1 X109.344 Y15.751 E2.98636
G1 X105.28 Y16.879 E3.07053
G1 X101.553 Y18.855 E3.15471
G1 X98.339 Y21.586 E3.23888
G1 X95.786 Y24.944 E3.32306
G1 X94.015 Y28.773 E3.40725
G1 X93.108 Y32.891 E3.49139
G1 X93.108 Y37.109 E3.57557
G1 X94.015 Y41.227 E3.65972
G1 X95.786 Y45.056 E3.74391
G1 X98.339 Y48.414 E3.82809
G1 X101.553 Y51.145 E3.91225
G1 X105.28 Y53.121 E3.99644
G1 X109.344 Y54.249 E4.08061
G1 X113.557 Y54.478 E4.1648
G0 F6000 X113.535 Y54.076
G1 F1200 X117.611 Y53.408 E4.24723
G1 X121.448 Y51.878 E4.32966
G1 X124.867 Y49.56 E4.4121
G1 X127.708 Y46.562 E4.49452
G1 X129.838 Y43.021 E4.57699
G1 X131.156 Y39.106 E4.65942
G1 X131.603 Y35 E4.74185
G1 X131.156 Y30.894 E4.82427
G1 X129.838 Y26.979 E4.90671
G1 X127.708 Y23.438 E4.98917
G1 X124.867 Y20.44 E5.07159
G1 X121.448 Y18.122 E5.15403
G1 X117.611 Y16.592 E5.23646
G1 X113.535 Y15.924 E5.31889
G1 X109.409 Y16.148 E5.40135
G1 X105.429 Y17.253 E5.48378
G1 X101.779 Y19.188 E5.56622
G1 X98.631 Y21.863 E5.64866
G1 X96.131 Y25.151 E5.73109
G1 X94.396 Y28.901 E5.81354
G1 X93.508 Y32.935 E5.89597
G1 X93.508 Y37.065 E5.97839
G1 X94.396 Y41.099 E6.06082
G1 X96.131 Y44.849 E6.14328
G1 X98.631 Y48.137 E6.22571
G1 X101.779 Y50.812 E6.30815
G1 X105.429 Y52.747 E6.39059
G1 X109.409 Y53.852 E6.47302
G1 X113.535 Y54.076 E6.55548
G0 F6000 X113.513 Y53.674
;TYPE:WALL-OUTER
G1 F1200 X117.503 Y53.02 E6.63617
G1 X121.26 Y51.523 E6.71687
G1 X124.607 Y49.253 E6.79758
G1 X127.388 Y46.318 E6.87827
G1 X129.473 Y42.852 E6.95899
G1 X130.763 Y39.02 E7.03968
G1 X131.201 Y35 E7.12037
G1 X130.763 Y30.98 E7.20107
G1 X129.473 Y27.148 E7.28176
G1 X127.388 Y23.682 E7.36248
G1 X124.607 Y20.747 E7.44317
G1 X121.26 Y18.477 E7.52387
G1 X117.503 Y16.98 E7.60458
G1 X113.513 Y16.326 E7.68527
G1 X109.474 Y16.545 E7.76599
G1 X105.578 Y17.627 E7.84668
G1 X102.005 Y19.521 E7.92738
G1 X98.923 Y22.14 E8.00809
G1 X96.476 Y25.358 E8.08877
G1 X94.777 Y29.029 E8.16949
G1 X93.908 Y32.978 E8.25019
G1 X93.908 Y37.022 E8.33089
G1 X94.777 Y40.971 E8.41158
G1 X96.476 Y44.642 E8.49231
G1 X98.923 Y47.86 E8.57298
G1 X102.005 Y50.479 E8.65369
G1 X105.578 Y52.373 E8.7344
G1 X109.474 Y53.455 E8.81509
G1 X113.513 Y53.674 E8.89581
G0 F6000 X113.536 Y54.113
G1 F1500 E2.39581
G1 F300 Z0.32
G0 F6000 X89 Y92 Z0.32
;TYPE:WALL-INNER
G1 F300 Z0.12
G1 F1500 E8.89581
G1 F1200 X136 Y92 E9.83374
G1 X136 Y66 E10.3526
G1 X89 Y66 E11.29054
G1 X89 Y92 E11.8094
G0 F6000 X89.4 Y91.6
G1 F1200 X135.6 Y91.6 E12.73137
G1 X135.6 Y66.4 E13.23426
G1 X89.4 Y66.4 E14.15623
G1 X89.4 Y91.6 E14.65912
G0 F6000 X89.8 Y91.2
;TYPE:WALL-OUTER
G1 F1200 X135.2 Y91.2 E15.56513
G1 X135.2 Y66.8 E16.05206
G1 X89.8 Y66.8 E16.95806
G1 X89.8 Y91.2 E17.44499
G1 F1500 E10.94499
G1 F300 Z0.32
G0 F6000 X97.01 Y119.818 Z0.32
;TYPE:WALL-INNER
G1 F300 Z0.12
G1 F1500 E17.44499
G1 F1200 X99.028 Y119.278 E17.48668
G1 X100.505 Y117.801 E17.52837
G1 X101.045 Y115.783 E17.57005
G1 X100.505 Y113.765 E17.61174
G1 X99.028 Y112.288 E17.65343
G1 X97.01 Y111.748 E17.69511
G1 X94.992 Y112.288 E17.7368
G1 X93.515 Y113.765 E17.77849
G1 X92.975 Y115.783 E17.82018
G1 X93.515 Y117.801 E17.86186
G1 X94.992 Y119.278 E17.90355
G1 X97.01 Y119.818 E17.94524
G0 F6000 X97.01 Y119.404
G1 F1200 X98.821 Y118.919 E17.98265
G1 X100.146 Y117.594 E18.02004
G1 X100.631 Y115.783 E18.05746
G1 X100.146 Y113.972 E18.09487
G1 X98.821 Y112.647 E18.13227
G1 X97.01 Y112.162 E18.16968
G1 X95.199 Y112.647 E18.20709
G1 X93.874 Y113.972 E18.24449
G1 X93.389 Y115.783 E18.2819
G1 X93.874 Y117.594 E18.31932
G1 X95.199 Y118.919 E18.35671
G1 X97.01 Y119.404 E18.39413
G0 F6000 X97.01 Y118.99
;TYPE:WALL-OUTER
G1 F1200 X98.614 Y118.56 E18.42727
G1 X99.787 Y117.387 E18.46037
G1 X100.217 Y115.783 E18.49351
G1 X99.787 Y114.179 E18.52665
G1 X98.614 Y113.006 E18.55975
G1 X97.01 Y112.576 E18.59289
G1 X95.406 Y113.006 E18.62603
G1 X94.233 Y114.179 E18.65914
G1 X93.803 Y115.783 E18.69228
G1 X94.233 Y117.387 E18.72542
G1 X95.406 Y118.56 E18.75852
G1 X97.01 Y118.99 E18.79166
G0 F6000 X97.01 Y119.43
G1 F1500 E12.29166
G1 F300 Z0.32
G0 F6000 X113.703 Y121.806 Z0.32
;TYPE:WALL-INNER
G1 F300 Z0.12
G1 F1500 E18.79166
G1 F1200 X135.203 Y121.806 E19.22072
G1 X135.203 Y107.806 E19.5001
G1 X113.703 Y107.806 E19.92916
G1 X113.703 Y121.806 E20.20854
G0 F6000 X114.103 Y121.406
G1 F1200 X134.803 Y121.406 E20.62164
G1 X134.803 Y108.206 E20.88506
G1 X114.103 Y108.206 E21.29815
G1 X114.103 Y121.406 E21.56157
G0 F6000 X114.503 Y121.006
;TYPE:WALL-OUTER
G1 F1200 X134.403 Y121.006 E21.95869
G1 X134.403 Y108.606 E22.20615
G1 X114.503 Y108.606 E22.60327
G1 X114.503 Y121.006 E22.85073
G1 F1500 E16.35073
G1 F300 Z0.32
G0 F6000 X125 Y149.391 Z0.32
;TYPE:WALL-INNER
G1 F300 Z0.12
G1 F1500 E22.85073
G1 F1200 X127.018 Y148.851 E22.89242
G1 X128.495 Y147.374 E22.9341
G1 X129.035 Y145.356 E22.97579
G1 X128.495 Y143.338 E23.01748
G1 X127.018 Y141.861 E23.05916
G1 X125 Y141.321 E23.10085
G1 X122.982 Y141.861 E23.14254
G1 X121.505 Y143.338 E23.18422
G1 X120.965 Y145.356 E23.22591
G1 X121.505 Y147.374 E23.2676
G1 X122.982 Y148.851 E23.30928
G1 X125 Y149.391 E23.35097
G0 F6000 X125 Y148.977
G1 F1200 X126.811 Y148.492 E23.38839
G1 X128.136 Y147.167 E23.42578
G1 X128.621 Y145.356 E23.46319
G1 X128.136 Y143.545 E23.50061
G1 X126.811 Y142.22 E23.538
G1 X125 Y141.735 E23.57542
G1 X123.189 Y142.22 E23.61283
G1 X121.864 Y143.545 E23.65023
G1 X121.379 Y145.356 E23.68764
G1 X121.864 Y147.167 E23.72505
G1 X123.189 Y148.492 E23.76245
G1 X125 Y148.977 E23.79986
G0 F6000 X125 Y148.563
;TYPE:WALL-OUTER
G1 F1200 X126.604 Y148.133 E23.833
G1 X127.777 Y146.96 E23.86611
G1 X128.207 Y145.356 E23.89925
G1 X127.777 Y143.752 E23.93239
G1 X126.604 Y142.579 E23.96549
G1 X125 Y142.149 E23.99863
G1 X123.396 Y142.579 E24.03177
G1 X122.223 Y143.752 E24.06487
G1 X121.793 Y145.356 E24.09801
G1 X122.223 Y146.96 E24.13115
G1 X123.396 Y148.133 E24.16426
G1 X125 Y148.563 E24.1974
G0 F6000 X125 Y149.003
G1 F1500 E17.6974
G1 F300 Z0.32
G0 F6000 X100 Y149.391 Z0.32
;TYPE:WALL-INNER
G1 F300 Z0.12
G1 F1500 E24.1974
G1 F1200 X102.018 Y148.851 E24.23909
G1 X103.495 Y147.374 E24.28077
G1 X104.035 Y145.356 E24.32246
G1 X103.495 Y143.338 E24.36415
G1 X102.018 Y141.861 E24.40583
G1 X100 Y141.321 E24.44752
G1 X97.982 Y141.861 E24.48921
G1 X96.505 Y143.338 E24.53089
G1 X95.965 Y145.356 E24.57258
G1 X96.505 Y147.374 E24.61427
G1 X97.982 Y148.851 E24.65595
G1 X100 Y149.391 E24.69764
G0 F6000 X100 Y148.977
G1 F1200 X101.811 Y148.492 E24.73506
G1 X103.136 Y147.167 E24.77245
G1 X103.621 Y145.356 E24.80986
G1 X103.136 Y143.545 E24.84728
G1 X101.811 Y142.22 E24.88467
G1 X100 Y141.735 E24.92209
G1 X98.189 Y142.22 E24.9595
G1 X96.864 Y143.545 E24.99689
G1 X96.379 Y145.356 E25.03431
G1 X96.864 Y147.167 E25.07172
G1 X98.189 Y148.492 E25.10912
G1 X100 Y148.977 E25.14653
G0 F6000 X100 Y148.563
;TYPE:WALL-OUTER
G1 F1200 X101.604 Y148.133 E25.17967
G1 X102.777 Y146.96 E25.21278
G1 X103.207 Y145.356 E25.24592
G1 X102.777 Y143.752 E25.27906
G1 X101.604 Y142.579 E25.31216
G1 X100 Y142.149 E25.3453
G1 X98.396 Y142.579 E25.37844
G1 X97.223 Y143.752 E25.41154
G1 X96.793 Y145.356 E25.44468
G1 X97.223 Y146.96 E25.47782
G1 X98.396 Y148.133 E25.51093
G1 X100 Y148.563 E25.54407
G0 F6000 X100 Y149.003
G1 F1500 E19.04407
G1 F300 Z0.32
G0 F6000 X102.51 Y175.502 Z0.32
;TYPE:WALL-INNER
G1 F300 Z0.12
G1 F1500 E25.54407
G1 F1200 X124.01 Y175.502 E25.97312
G1 X124.01 Y161.502 E26.25251
G1 X102.51 Y161.502 E26.68156
G1 X102.51 Y175.502 E26.96095
G0 F6000 X102.91 Y175.102
G1 F1200 X123.61 Y175.102 E27.37404
G1 X123.61 Y161.902 E27.63746
G1 X102.91 Y161.902 E28.05055
G1 X102.91 Y175.102 E28.31397
G0 F6000 X103.31 Y174.702
;TYPE:WALL-OUTER
G1 F1200 X123.21 Y174.702 E28.7111
G1 X123.21 Y162.302 E28.95855
G1 X103.31 Y162.302 E29.35568
G1 X103.31 Y174.702 E29.60313
G1 F1500 E23.10313
G1 F300 Z0.32
G0 F6000 X139.078 Y225.946 Z0.32
;TYPE:WALL-INNER
G1 F300 Z0.12
G1 F1500 E29.60313
G1 F1200 X140.293 Y227.394 E29.64086
G1 X141.474 Y227.602 E29.66479
G1 X142.155 Y227.722 E29.67859
G1 X142.553 Y227.493 E29.68775
G1 X143.792 Y226.778 E29.7163
G1 X144.282 Y225.436 E29.74481
G1 X144.44 Y225 E29.75406
G1 X144.282 Y224.564 E29.76332
G1 X143.792 Y223.222 E29.79183
G1 X142.155 Y222.278 E29.82954
G1 X140.293 Y222.606 E29.86727
G1 X139.078 Y224.054 E29.90499
G1 X139.078 Y225.946 E29.94275
G0 F6000 X139.478 Y225.8
G1 F1200 X140.506 Y227.025 E29.97466
G1 X142.081 Y227.303 E30.00658
G1 X143.466 Y226.504 E30.03849
G1 X144.014 Y225 E30.07043
G1 X143.466 Y223.496 E30.10237
G1 X142.081 Y222.697 E30.13428
G1 X140.506 Y222.975 E30.1662
G1 X139.478 Y224.2 E30.19811
G1 X139.478 Y225.8 E30.23004
G0 F6000 X139.878 Y225.654
;TYPE:WALL-OUTER
G1 F1200 X140.719 Y226.656 E30.25615
G1 X142.007 Y226.884 E30.28225
G1 X143.14 Y226.23 E30.30836
G1 X143.588 Y225 E30.33448
G1 X143.14 Y223.77 E30.3606
G1 X142.007 Y223.116 E30.38671
G1 X140.719 Y223.344 E30.41281
G1 X139.878 Y224.346 E30.43892
G1 X139.878 Y225.654 E30.46502
G0 F6000 X139.465 Y225.804
G1 F1500 E23.96502
G1 F300 Z0.32
G0 F6000 X130.061 Y208.754 Z0.32
;TYPE:WALL-INNER
G1 F300 Z0.12
G1 F1500 E30.46502
G1 F1200 X131.803 Y209.414 E30.5022
G1 X132.093 Y209.454 E30.50804
G1 X133.966 Y209.228 E30.54569
G1 X134.238 Y209.119 E30.55154
G1 X135.77 Y208.063 E30.58867
G1 X135.964 Y207.842 E30.59454
G1 X136.828 Y206.197 E30.63162
G1 X136.901 Y205.913 E30.63747
G1 X136.902 Y204.032 E30.67501
G1 X136.829 Y203.748 E30.68086
G1 X135.965 Y202.103 E30.71794
G1 X135.771 Y201.882 E30.72381
G1 X134.239 Y200.825 E30.76095
G1 X133.967 Y200.716 E30.7668
G1 X132.108 Y200.49 E30.80417
G1 X131.816 Y200.523 E30.81003
G1 X130.062 Y201.188 E30.84747
G1 X129.821 Y201.358 E30.85335
G1 X128.589 Y202.749 E30.89043
G1 X128.451 Y203.008 E30.89629
G1 X128.004 Y204.819 E30.93352
G1 X128.003 Y205.112 E30.93936
G1 X128.45 Y206.933 E30.97678
G1 X128.588 Y207.193 E30.98266
G1 X129.82 Y208.584 E31.01974
G1 X130.061 Y208.754 E31.02562
G0 F6000 X130.25 Y208.398
G1 F1200 X131.903 Y209.024 E31.0609
G1 X132.097 Y209.051 E31.06481
G1 X133.866 Y208.837 E31.10037
G1 X134.048 Y208.764 E31.10428
G1 X135.502 Y207.762 E31.13952
G1 X135.632 Y207.614 E31.14345
G1 X136.452 Y206.052 E31.17865
G1 X136.501 Y205.862 E31.18257
G1 X136.502 Y204.083 E31.21807
G1 X136.453 Y203.893 E31.22199
G1 X135.633 Y202.331 E31.25719
G1 X135.503 Y202.183 E31.26112
G1 X134.049 Y201.18 E31.29637
G1 X133.867 Y201.107 E31.30029
G1 X132.106 Y200.893 E31.33569
G1 X131.911 Y200.915 E31.33961
G1 X130.251 Y201.544 E31.37503
G1 X130.089 Y201.658 E31.37898
G1 X128.92 Y202.978 E31.41417
G1 X128.828 Y203.152 E31.4181
G1 X128.404 Y204.869 E31.45339
G1 X128.403 Y205.065 E31.4573
G1 X128.827 Y206.79 E31.49275
G1 X128.919 Y206.964 E31.49668
G1 X130.088 Y208.284 E31.53187
G1 X130.25 Y208.398 E31.53582
G0 F6000 X130.439 Y208.042
;TYPE:WALL-OUTER
G1 F1200 X132.003 Y208.634 E31.56919
G1 X132.101 Y208.648 E31.57117
G1 X133.766 Y208.446 E31.60464
G1 X133.858 Y208.409 E31.60662
G1 X135.234 Y207.461 E31.63996
G1 X135.3 Y207.386 E31.64196
G1 X136.076 Y205.907 E31.67529
G1 X136.101 Y205.811 E31.67727
G1 X136.102 Y204.134 E31.71073
G1 X136.077 Y204.038 E31.71271
G1 X135.301 Y202.559 E31.74605
G1 X135.235 Y202.484 E31.74804
G1 X133.859 Y201.535 E31.7814
G1 X133.767 Y201.498 E31.78337
G1 X132.104 Y201.296 E31.81681
G1 X132.006 Y201.307 E31.81877
G1 X130.44 Y201.9 E31.85219
G1 X130.358 Y201.958 E31.85419
G1 X129.251 Y203.208 E31.88752
G1 X129.204 Y203.296 E31.88951
G1 X128.804 Y204.92 E31.92288
G1 X128.803 Y205.019 E31.92486
G1 X129.203 Y206.646 E31.9583
G1 X129.25 Y206.734 E31.96029
G1 X130.357 Y207.984 E31.99361
G1 X130.439 Y208.042 E31.99561
G0 F6000 X130.233 Y208.43
G1 F1500 E25.49561
G1 F300 Z0.32
G0 F6000 X118.325 Y191.972 Z0.32
;TYPE:WALL-INNER
G1 F300 Z0.12
G1 F1500 E31.99561
G1 F1200 X137.825 Y191.972 E32.38475
G1 X137.825 Y177.972 E32.66414
G1 X118.325 Y177.972 E33.05328
G1 X118.325 Y191.972 E33.33267
G0 F6000 X118.725 Y191.572
G1 F1200 X137.425 Y191.572 E33.70585
G1 X137.425 Y178.372 E33.96927
G1 X118.725 Y178.372 E34.34245
G1 X118.725 Y191.572 E34.60587
G0 F6000 X119.125 Y191.172
;TYPE:WALL-OUTER
G1 F1200 X137.025 Y191.172 E34.96308
G1 X137.025 Y178.772 E35.21054
G1 X119.125 Y178.772 E35.56775
G1 X119.125 Y191.172 E35.81521
G1 F1500 E29.31521
G1 F300 Z0.32
G0 F6000 X86.09 Y225 Z0.32
;TYPE:WALL-INNER
G1 F300 Z0.12
G1 F1500 E35.81521
G1 F1200 X85.442 Y223.222 E35.85297
G1 X83.805 Y222.278 E35.89068
G1 X81.943 Y222.606 E35.92841
G1 X80.728 Y224.054 E35.96613
G1 X80.728 Y225.946 E36.00389
G1 X81.943 Y227.394 E36.04161
G1 X83.124 Y227.602 E36.06554
G1 X83.805 Y227.722 E36.07934
G1 X85.442 Y226.778 E36.11705
G1 X86.09 Y225 E36.15482
G0 F6000 X85.664 Y225
